;Generated with vpype gwrite fabian
G90 ; Use absolute position
G92 X0 Y0 Z0 ; Set the current position as (0,0,0)
G0   X000.0000   Y000.0000   Z003.0000   F500

;Begin Line: layer=0 line=0
G0   X091.8036   Y097.9067   Z003.0000   F2100
G0   X091.8036   Y097.9067   Z000.0000   F210
G0   X091.3518   Y097.1242   Z000.0000   F720
G0   X090.4483   Y097.1242   Z000.0000   F720
G0   X089.9965   Y097.9067   Z000.0000   F720
G0   X090.4483   Y098.6892   Z000.0000   F720
G0   X091.3518   Y098.6892   Z000.0000   F720
G0   X091.8036   Y097.9067   Z000.0000   F720
G0   X091.8036   Y097.9067   Z003.0000   F500

;Begin Line: layer=0 line=1
G0   X086.6983   Y100.8543   Z003.0000   F2100
G0   X086.6983   Y100.8543   Z000.0000   F210
G0   X088.8518   Y100.8543   Z000.0000   F720
G0   X089.9286   Y098.9892   Z000.0000   F720
G0   X088.8518   Y097.1242   Z000.0000   F720
G0   X086.6983   Y097.1242   Z000.0000   F720
G0   X085.6215   Y098.9892   Z000.0000   F720
G0   X086.6983   Y100.8543   Z000.0000   F720
G0   X086.6983   Y100.8543   Z003.0000   F500

;Begin Line: layer=0 line=2
G0   X083.7941   Y100.7543   Z003.0000   F2100
G0   X083.7941   Y100.7543   Z000.0000   F210
G0   X086.0632   Y096.8242   Z000.0000   F720
G0   X083.7941   Y092.8940   Z000.0000   F720
G0   X079.2560   Y092.8940   Z000.0000   F720
G0   X076.9869   Y096.8242   Z000.0000   F720
G0   X079.2560   Y100.7543   Z000.0000   F720
G0   X083.7941   Y100.7543   Z000.0000   F720
G0   X083.7941   Y100.7543   Z003.0000   F500

;Begin Line: layer=0 line=3
G0   X083.8518   Y092.7940   Z003.0000   F2100
G0   X083.8518   Y092.7940   Z000.0000   F210
G0   X079.1982   Y092.7940   Z000.0000   F720
G0   X076.8714   Y096.8242   Z000.0000   F720
G0   X079.1982   Y100.8543   Z000.0000   F720
G0   X083.8518   Y100.8543   Z000.0000   F720
G0   X086.1786   Y096.8242   Z000.0000   F720
G0   X083.8518   Y092.7940   Z000.0000   F720
G0   X083.8518   Y092.7940   Z003.0000   F500

;Begin Line: layer=0 line=4
G0   X083.8518   Y092.1940   Z003.0000   F2100
G0   X083.8518   Y092.1940   Z000.0000   F210
G0   X086.1786   Y088.1639   Z000.0000   F720
G0   X083.8518   Y084.1338   Z000.0000   F720
G0   X079.1982   Y084.1338   Z000.0000   F720
G0   X076.8714   Y088.1639   Z000.0000   F720
G0   X079.1982   Y092.1940   Z000.0000   F720
G0   X083.8518   Y092.1940   Z000.0000   F720
G0   X083.8518   Y092.1940   Z003.0000   F500

;Begin Line: layer=0 line=5
G0   X088.8518   Y087.8639   Z003.0000   F2100
G0   X088.8518   Y087.8639   Z000.0000   F210
G0   X089.9286   Y085.9988   Z000.0000   F720
G0   X088.8518   Y084.1338   Z000.0000   F720
G0   X086.6983   Y084.1338   Z000.0000   F720
G0   X085.6215   Y085.9988   Z000.0000   F720
G0   X086.6983   Y087.8639   Z000.0000   F720
G0   X088.8518   Y087.8639   Z000.0000   F720
G0   X088.8518   Y087.8639   Z003.0000   F500

;Begin Line: layer=0 line=6
G0   X092.6018   Y081.9687   Z003.0000   F2100
G0   X092.6018   Y081.9687   Z000.0000   F210
G0   X090.4483   Y081.9687   Z000.0000   F720
G0   X089.3715   Y083.8338   Z000.0000   F720
G0   X090.4483   Y085.6989   Z000.0000   F720
G0   X092.6018   Y085.6989   Z000.0000   F720
G0   X093.6786   Y083.8338   Z000.0000   F720
G0   X092.6018   Y081.9687   Z000.0000   F720
G0   X092.6018   Y081.9687   Z003.0000   F500

;Begin Line: layer=0 line=7
G0   X096.8715   Y088.1639   Z003.0000   F2100
G0   X096.8715   Y088.1639   Z000.0000   F210
G0   X097.9482   Y090.0290   Z000.0000   F720
G0   X100.1019   Y090.0290   Z000.0000   F720
G0   X101.1787   Y088.1639   Z000.0000   F720
G0   X100.1019   Y086.2988   Z000.0000   F720
G0   X097.9482   Y086.2988   Z000.0000   F720
G0   X096.8715   Y088.1639   Z000.0000   F720
G0   X096.8715   Y088.1639   Z003.0000   F500

;Begin Line: layer=0 line=8
G0   X096.3519   Y084.1338   Z003.0000   F2100
G0   X096.3519   Y084.1338   Z000.0000   F210
G0   X094.1983   Y084.1338   Z000.0000   F720
G0   X093.1215   Y085.9988   Z000.0000   F720
G0   X094.1983   Y087.8639   Z000.0000   F720
G0   X096.3519   Y087.8639   Z000.0000   F720
G0   X097.4286   Y085.9988   Z000.0000   F720
G0   X096.3519   Y084.1338   Z000.0000   F720
G0   X096.3519   Y084.1338   Z003.0000   F500

;Begin Line: layer=0 line=9
G0   X096.3519   Y083.5338   Z003.0000   F2100
G0   X096.3519   Y083.5338   Z000.0000   F210
G0   X097.4286   Y081.6687   Z000.0000   F720
G0   X096.3519   Y079.8036   Z000.0000   F720
G0   X094.1983   Y079.8036   Z000.0000   F720
G0   X093.1215   Y081.6687   Z000.0000   F720
G0   X094.1983   Y083.5338   Z000.0000   F720
G0   X096.3519   Y083.5338   Z000.0000   F720
G0   X096.3519   Y083.5338   Z003.0000   F500

;Begin Line: layer=0 line=10
G0   X097.4965   Y080.5862   Z003.0000   F2100
G0   X097.4965   Y080.5862   Z000.0000   F210
G0   X097.9482   Y081.3687   Z000.0000   F720
G0   X098.8519   Y081.3687   Z000.0000   F720
G0   X099.3037   Y080.5862   Z000.0000   F720
G0   X098.8519   Y079.8036   Z000.0000   F720
G0   X097.9482   Y079.8036   Z000.0000   F720
G0   X097.4965   Y080.5862   Z000.0000   F720
G0   X097.4965   Y080.5862   Z003.0000   F500

;Begin Line: layer=0 line=11
G0   X094.1983   Y077.6386   Z003.0000   F2100
G0   X094.1983   Y077.6386   Z000.0000   F210
G0   X093.7464   Y078.4211   Z000.0000   F720
G0   X094.1983   Y079.2036   Z000.0000   F720
G0   X095.1019   Y079.2036   Z000.0000   F720
G0   X095.5536   Y078.4211   Z000.0000   F720
G0   X095.1019   Y077.6386   Z000.0000   F720
G0   X094.1983   Y077.6386   Z000.0000   F720
G0   X094.1983   Y077.6386   Z003.0000   F500

;Begin Line: layer=0 line=12
G0   X091.3518   Y075.4735   Z003.0000   F2100
G0   X091.3518   Y075.4735   Z000.0000   F210
G0   X090.4483   Y075.4735   Z000.0000   F720
G0   X089.9965   Y076.2561   Z000.0000   F720
G0   X090.4483   Y077.0386   Z000.0000   F720
G0   X091.3518   Y077.0386   Z000.0000   F720
G0   X091.8036   Y076.2561   Z000.0000   F720
G0   X091.3518   Y075.4735   Z000.0000   F720
G0   X091.3518   Y075.4735   Z003.0000   F500

;Begin Line: layer=0 line=13
G0   X089.4768   Y075.9560   Z003.0000   F2100
G0   X089.4768   Y075.9560   Z000.0000   F210
G0   X088.5733   Y075.9560   Z000.0000   F720
G0   X088.1215   Y075.1735   Z000.0000   F720
G0   X088.5733   Y074.3910   Z000.0000   F720
G0   X089.4768   Y074.3910   Z000.0000   F720
G0   X089.9286   Y075.1735   Z000.0000   F720
G0   X089.4768   Y075.9560   Z000.0000   F720
G0   X089.4768   Y075.9560   Z003.0000   F500

;Begin Line: layer=0 line=14
G0   X089.9286   Y077.3386   Z003.0000   F2100
G0   X089.9286   Y077.3386   Z000.0000   F210
G0   X089.4768   Y078.1211   Z000.0000   F720
G0   X088.5733   Y078.1211   Z000.0000   F720
G0   X088.1215   Y077.3386   Z000.0000   F720
G0   X088.5733   Y076.5561   Z000.0000   F720
G0   X089.4768   Y076.5561   Z000.0000   F720
G0   X089.9286   Y077.3386   Z000.0000   F720
G0   X089.9286   Y077.3386   Z003.0000   F500

;Begin Line: layer=0 line=15
G0   X087.6018   Y077.0386   Z003.0000   F2100
G0   X087.6018   Y077.0386   Z000.0000   F210
G0   X088.0536   Y076.2561   Z000.0000   F720
G0   X087.6018   Y075.4735   Z000.0000   F720
G0   X086.6983   Y075.4735   Z000.0000   F720
G0   X086.2465   Y076.2561   Z000.0000   F720
G0   X086.6983   Y077.0386   Z000.0000   F720
G0   X087.6018   Y077.0386   Z000.0000   F720
G0   X087.6018   Y077.0386   Z003.0000   F500

;Begin Line: layer=0 line=16
G0   X086.6983   Y074.8735   Z003.0000   F2100
G0   X086.6983   Y074.8735   Z000.0000   F210
G0   X087.6018   Y074.8735   Z000.0000   F720
G0   X088.0536   Y074.0910   Z000.0000   F720
G0   X087.6018   Y073.3085   Z000.0000   F720
G0   X086.6983   Y073.3085   Z000.0000   F720
G0   X086.2465   Y074.0910   Z000.0000   F720
G0   X086.6983   Y074.8735   Z000.0000   F720
G0   X086.6983   Y074.8735   Z003.0000   F500

;Begin Line: layer=0 line=17
G0   X083.8518   Y077.6386   Z003.0000   F2100
G0   X083.8518   Y077.6386   Z000.0000   F210
G0   X084.3036   Y078.4211   Z000.0000   F720
G0   X083.8518   Y079.2036   Z000.0000   F720
G0   X082.9482   Y079.2036   Z000.0000   F720
G0   X082.4965   Y078.4211   Z000.0000   F720
G0   X082.9482   Y077.6386   Z000.0000   F720
G0   X083.8518   Y077.6386   Z000.0000   F720
G0   X083.8518   Y077.6386   Z003.0000   F500

;Begin Line: layer=0 line=18
G0   X083.7941   Y084.2338   Z003.0000   F2100
G0   X083.7941   Y084.2338   Z000.0000   F210
G0   X079.2560   Y084.2338   Z000.0000   F720
G0   X076.9869   Y088.1639   Z000.0000   F720
G0   X079.2560   Y092.0940   Z000.0000   F720
G0   X083.7941   Y092.0940   Z000.0000   F720
G0   X086.0632   Y088.1639   Z000.0000   F720
G0   X083.7941   Y084.2338   Z000.0000   F720
G0   X083.7941   Y084.2338   Z003.0000   F500

;Begin Line: layer=0 line=19
G0   X079.1982   Y079.8036   Z003.0000   F2100
G0   X079.1982   Y079.8036   Z000.0000   F210
G0   X078.1214   Y081.6687   Z000.0000   F720
G0   X079.1982   Y083.5338   Z000.0000   F720
G0   X081.3519   Y083.5338   Z000.0000   F720
G0   X082.4286   Y081.6687   Z000.0000   F720
G0   X081.3519   Y079.8036   Z000.0000   F720
G0   X079.1982   Y079.8036   Z000.0000   F720
G0   X079.1982   Y079.8036   Z003.0000   F500

;Begin Line: layer=0 line=20
G0   X076.2941   Y079.1037   Z003.0000   F2100
G0   X076.2941   Y079.1037   Z000.0000   F210
G0   X078.5632   Y075.1735   Z000.0000   F720
G0   X076.2941   Y071.2434   Z000.0000   F720
G0   X071.7560   Y071.2434   Z000.0000   F720
G0   X069.4869   Y075.1735   Z000.0000   F720
G0   X071.7560   Y079.1037   Z000.0000   F720
G0   X076.2941   Y079.1037   Z000.0000   F720
G0   X076.2941   Y079.1037   Z003.0000   F500

;Begin Line: layer=0 line=21
G0   X071.7560   Y079.9037   Z003.0000   F2100
G0   X071.7560   Y079.9037   Z000.0000   F210
G0   X076.2941   Y079.9037   Z000.0000   F720
G0   X078.5632   Y083.8338   Z000.0000   F720
G0   X076.2941   Y087.7639   Z000.0000   F720
G0   X071.7560   Y087.7639   Z000.0000   F720
G0   X069.4869   Y083.8338   Z000.0000   F720
G0   X071.7560   Y079.9037   Z000.0000   F720
G0   X071.7560   Y079.9037   Z003.0000   F500

;Begin Line: layer=0 line=22
G0   X071.6982   Y079.8036   Z003.0000   F2100
G0   X071.6982   Y079.8036   Z000.0000   F210
G0   X076.3518   Y079.8036   Z000.0000   F720
G0   X078.6786   Y083.8338   Z000.0000   F720
G0   X076.3518   Y087.8639   Z000.0000   F720
G0   X071.6982   Y087.8639   Z000.0000   F720
G0   X069.3715   Y083.8338   Z000.0000   F720
G0   X071.6982   Y079.8036   Z000.0000   F720
G0   X071.6982   Y079.8036   Z003.0000   F500

;Begin Line: layer=0 line=23
G0   X071.6982   Y079.2036   Z003.0000   F2100
G0   X071.6982   Y079.2036   Z000.0000   F210
G0   X069.3715   Y075.1735   Z000.0000   F720
G0   X071.6982   Y071.1434   Z000.0000   F720
G0   X076.3518   Y071.1434   Z000.0000   F720
G0   X078.6786   Y075.1735   Z000.0000   F720
G0   X076.3518   Y079.2036   Z000.0000   F720
G0   X071.6982   Y079.2036   Z000.0000   F720
G0   X071.6982   Y079.2036   Z003.0000   F500

;Begin Line: layer=0 line=24
G0   X079.1982   Y075.4735   Z003.0000   F2100
G0   X079.1982   Y075.4735   Z000.0000   F210
G0   X078.1214   Y077.3386   Z000.0000   F720
G0   X079.1982   Y079.2036   Z000.0000   F720
G0   X081.3519   Y079.2036   Z000.0000   F720
G0   X082.4286   Y077.3386   Z000.0000   F720
G0   X081.3519   Y075.4735   Z000.0000   F720
G0   X079.1982   Y075.4735   Z000.0000   F720
G0   X079.1982   Y075.4735   Z003.0000   F500

;Begin Line: layer=0 line=25
G0   X079.1982   Y072.7085   Z003.0000   F2100
G0   X079.1982   Y072.7085   Z000.0000   F210
G0   X078.7464   Y071.9259   Z000.0000   F720
G0   X079.1982   Y071.1434   Z000.0000   F720
G0   X080.1018   Y071.1434   Z000.0000   F720
G0   X080.5536   Y071.9259   Z000.0000   F720
G0   X080.1018   Y072.7085   Z000.0000   F720
G0   X079.1982   Y072.7085   Z000.0000   F720
G0   X079.1982   Y072.7085   Z003.0000   F500

;Begin Line: layer=0 line=26
G0   X082.9482   Y073.3085   Z003.0000   F2100
G0   X082.9482   Y073.3085   Z000.0000   F210
G0   X085.1018   Y073.3085   Z000.0000   F720
G0   X086.1786   Y075.1735   Z000.0000   F720
G0   X085.1018   Y077.0386   Z000.0000   F720
G0   X082.9482   Y077.0386   Z000.0000   F720
G0   X081.8715   Y075.1735   Z000.0000   F720
G0   X082.9482   Y073.3085   Z000.0000   F720
G0   X082.9482   Y073.3085   Z003.0000   F500

;Begin Line: layer=0 line=27
G0   X081.8715   Y070.8434   Z003.0000   F2100
G0   X081.8715   Y070.8434   Z000.0000   F210
G0   X082.9482   Y068.9783   Z000.0000   F720
G0   X085.1018   Y068.9783   Z000.0000   F720
G0   X086.1786   Y070.8434   Z000.0000   F720
G0   X085.1018   Y072.7085   Z000.0000   F720
G0   X082.9482   Y072.7085   Z000.0000   F720
G0   X081.8715   Y070.8434   Z000.0000   F720
G0   X081.8715   Y070.8434   Z003.0000   F500

;Begin Line: layer=0 line=28
G0   X079.1982   Y070.5434   Z003.0000   F2100
G0   X079.1982   Y070.5434   Z000.0000   F210
G0   X081.3519   Y070.5434   Z000.0000   F720
G0   X082.4286   Y068.6783   Z000.0000   F720
G0   X081.3519   Y066.8133   Z000.0000   F720
G0   X079.1982   Y066.8133   Z000.0000   F720
G0   X078.1214   Y068.6783   Z000.0000   F720
G0   X079.1982   Y070.5434   Z000.0000   F720
G0   X079.1982   Y070.5434   Z003.0000   F500

;Begin Line: layer=0 line=29
G0   X076.3518   Y070.5434   Z003.0000   F2100
G0   X076.3518   Y070.5434   Z000.0000   F210
G0   X071.6982   Y070.5434   Z000.0000   F720
G0   X069.3715   Y066.5133   Z000.0000   F720
G0   X071.6982   Y062.4831   Z000.0000   F720
G0   X076.3518   Y062.4831   Z000.0000   F720
G0   X078.6786   Y066.5133   Z000.0000   F720
G0   X076.3518   Y070.5434   Z000.0000   F720
G0   X076.3518   Y070.5434   Z003.0000   F500

;Begin Line: layer=0 line=30
G0   X071.7560   Y062.5831   Z003.0000   F2100
G0   X071.7560   Y062.5831   Z000.0000   F210
G0   X069.4869   Y066.5133   Z000.0000   F720
G0   X071.7560   Y070.4434   Z000.0000   F720
G0   X076.2941   Y070.4434   Z000.0000   F720
G0   X078.5632   Y066.5133   Z000.0000   F720
G0   X076.2941   Y062.5831   Z000.0000   F720
G0   X071.7560   Y062.5831   Z000.0000   F720
G0   X071.7560   Y062.5831   Z003.0000   F500

;Begin Line: layer=0 line=31
G0   X071.0632   Y062.1831   Z003.0000   F2100
G0   X071.0632   Y062.1831   Z000.0000   F210
G0   X066.2941   Y053.9229   Z000.0000   F720
G0   X056.7560   Y053.9229   Z000.0000   F720
G0   X051.9869   Y062.1831   Z000.0000   F720
G0   X056.7560   Y070.4434   Z000.0000   F720
G0   X066.2941   Y070.4434   Z000.0000   F720
G0   X071.0632   Y062.1831   Z000.0000   F720
G0   X071.0632   Y062.1831   Z003.0000   F500

;Begin Line: layer=0 line=32
G0   X070.8322   Y062.1831   Z003.0000   F2100
G0   X070.8322   Y062.1831   Z000.0000   F210
G0   X066.1786   Y054.1229   Z000.0000   F720
G0   X056.8715   Y054.1229   Z000.0000   F720
G0   X052.2179   Y062.1831   Z000.0000   F720
G0   X056.8715   Y070.2434   Z000.0000   F720
G0   X066.1786   Y070.2434   Z000.0000   F720
G0   X070.8322   Y062.1831   Z000.0000   F720
G0   X070.8322   Y062.1831   Z003.0000   F500

;Begin Line: layer=0 line=33
G0   X067.9482   Y053.2229   Z003.0000   F2100
G0   X067.9482   Y053.2229   Z000.0000   F210
G0   X068.8518   Y053.2229   Z000.0000   F720
G0   X069.3036   Y052.4403   Z000.0000   F720
G0   X068.8518   Y051.6578   Z000.0000   F720
G0   X067.9482   Y051.6578   Z000.0000   F720
G0   X067.4964   Y052.4403   Z000.0000   F720
G0   X067.9482   Y053.2229   Z000.0000   F720
G0   X067.9482   Y053.2229   Z003.0000   F500

;Begin Line: layer=0 line=34
G0   X071.6982   Y053.2229   Z003.0000   F2100
G0   X071.6982   Y053.2229   Z000.0000   F210
G0   X070.6215   Y051.3578   Z000.0000   F720
G0   X071.6982   Y049.4927   Z000.0000   F720
G0   X073.8518   Y049.4927   Z000.0000   F720
G0   X074.9286   Y051.3578   Z000.0000   F720
G0   X073.8518   Y053.2229   Z000.0000   F720
G0   X071.6982   Y053.2229   Z000.0000   F720
G0   X071.6982   Y053.2229   Z003.0000   F500

;Begin Line: layer=0 line=35
G0   X071.6982   Y053.8229   Z003.0000   F2100
G0   X071.6982   Y053.8229   Z000.0000   F210
G0   X076.3518   Y053.8229   Z000.0000   F720
G0   X078.6786   Y057.8530   Z000.0000   F720
G0   X076.3518   Y061.8831   Z000.0000   F720
