;Generated with vpype gwrite fabian
G90 ; Use absolute position
G92 X0 Y0 Z0 ; Set the current position as (0,0,0)
G0   X000.0000   Y000.0000   Z003.0000   F500

;Begin Line: layer=0 line=0
G0   X076.0494   Y082.2100   Z003.0000   F2100
G0   X076.0494   Y082.2100   Z000.0000   F210
G0   X078.3185   Y078.2799   Z000.0000   F720
G0   X082.8566   Y078.2799   Z000.0000   F720
G0   X085.1257   Y082.2100   Z000.0000   F720
G0   X082.8566   Y086.1401   Z000.0000   F720
G0   X078.3185   Y086.1401   Z000.0000   F720
G0   X076.0494   Y082.2100   Z000.0000   F720
G0   X076.0494   Y082.2100   Z003.0000   F500

;Begin Line: layer=0 line=1
G0   X078.2607   Y078.1798   Z003.0000   F2100
G0   X078.2607   Y078.1798   Z000.0000   F210
G0   X075.9339   Y082.2100   Z000.0000   F720
G0   X078.2607   Y086.2401   Z000.0000   F720
G0   X082.9143   Y086.2401   Z000.0000   F720
G0   X085.2411   Y082.2100   Z000.0000   F720
G0   X082.9143   Y078.1798   Z000.0000   F720
G0   X078.2607   Y078.1798   Z000.0000   F720
G0   X078.2607   Y078.1798   Z003.0000   F500

;Begin Line: layer=0 line=2
G0   X078.2607   Y077.5798   Z003.0000   F2100
G0   X078.2607   Y077.5798   Z000.0000   F210
G0   X080.4143   Y077.5798   Z000.0000   F720
G0   X081.4911   Y075.7148   Z000.0000   F720
G0   X080.4143   Y073.8497   Z000.0000   F720
G0   X078.2607   Y073.8497   Z000.0000   F720
G0   X077.1839   Y075.7148   Z000.0000   F720
G0   X078.2607   Y077.5798   Z000.0000   F720
G0   X078.2607   Y077.5798   Z003.0000   F500

;Begin Line: layer=0 line=3
G0   X075.8661   Y074.6323   Z003.0000   F2100
G0   X075.8661   Y074.6323   Z000.0000   F210
G0   X075.4143   Y075.4148   Z000.0000   F720
G0   X074.5108   Y075.4148   Z000.0000   F720
G0   X074.0590   Y074.6323   Z000.0000   F720
G0   X074.5108   Y073.8497   Z000.0000   F720
G0   X075.4143   Y073.8497   Z000.0000   F720
G0   X075.8661   Y074.6323   Z000.0000   F720
G0   X075.8661   Y074.6323   Z003.0000   F500

;Begin Line: layer=0 line=4
G0   X075.9339   Y073.5497   Z003.0000   F2100
G0   X075.9339   Y073.5497   Z000.0000   F210
G0   X076.3858   Y072.7672   Z000.0000   F720
G0   X077.2893   Y072.7672   Z000.0000   F720
G0   X077.7411   Y073.5497   Z000.0000   F720
G0   X077.2893   Y074.3323   Z000.0000   F720
G0   X076.3858   Y074.3323   Z000.0000   F720
G0   X075.9339   Y073.5497   Z000.0000   F720
G0   X075.9339   Y073.5497   Z003.0000   F500

;Begin Line: layer=0 line=5
G0   X070.2411   Y073.5497   Z003.0000   F2100
G0   X070.2411   Y073.5497   Z000.0000   F210
G0   X067.9143   Y077.5798   Z000.0000   F720
G0   X063.2607   Y077.5798   Z000.0000   F720
G0   X060.9339   Y073.5497   Z000.0000   F720
G0   X063.2607   Y069.5196   Z000.0000   F720
G0   X067.9143   Y069.5196   Z000.0000   F720
G0   X070.2411   Y073.5497   Z000.0000   F720
G0   X070.2411   Y073.5497   Z003.0000   F500

;Begin Line: layer=0 line=6
G0   X067.8566   Y069.6196   Z003.0000   F2100
G0   X067.8566   Y069.6196   Z000.0000   F210
G0   X070.1257   Y073.5497   Z000.0000   F720
G0   X067.8566   Y077.4799   Z000.0000   F720
G0   X063.3185   Y077.4799   Z000.0000   F720
G0   X061.0494   Y073.5497   Z000.0000   F720
G0   X063.3185   Y069.6196   Z000.0000   F720
G0   X067.8566   Y069.6196   Z000.0000   F720
G0   X067.8566   Y069.6196   Z003.0000   F500

;Begin Line: layer=0 line=7
G0   X067.8566   Y068.8196   Z003.0000   F2100
G0   X067.8566   Y068.8196   Z000.0000   F210
G0   X063.3185   Y068.8196   Z000.0000   F720
G0   X061.0494   Y064.8895   Z000.0000   F720
G0   X063.3185   Y060.9593   Z000.0000   F720
G0   X067.8566   Y060.9593   Z000.0000   F720
G0   X070.1257   Y064.8895   Z000.0000   F720
G0   X067.8566   Y068.8196   Z000.0000   F720
G0   X067.8566   Y068.8196   Z003.0000   F500

;Begin Line: layer=0 line=8
G0   X070.2411   Y064.8895   Z003.0000   F2100
G0   X070.2411   Y064.8895   Z000.0000   F210
G0   X067.9143   Y068.9196   Z000.0000   F720
G0   X063.2607   Y068.9196   Z000.0000   F720
G0   X060.9339   Y064.8895   Z000.0000   F720
G0   X063.2607   Y060.8593   Z000.0000   F720
G0   X067.9143   Y060.8593   Z000.0000   F720
G0   X070.2411   Y064.8895   Z000.0000   F720
G0   X070.2411   Y064.8895   Z003.0000   F500

;Begin Line: layer=0 line=9
G0   X070.8185   Y065.2895   Z003.0000   F2100
G0   X070.8185   Y065.2895   Z000.0000   F210
G0   X075.3566   Y065.2895   Z000.0000   F720
G0   X077.6257   Y069.2196   Z000.0000   F720
G0   X075.3566   Y073.1497   Z000.0000   F720
G0   X070.8185   Y073.1497   Z000.0000   F720
G0   X068.5494   Y069.2196   Z000.0000   F720
G0   X070.8185   Y065.2895   Z000.0000   F720
G0   X070.8185   Y065.2895   Z003.0000   F500

;Begin Line: layer=0 line=10
G0   X072.9143   Y064.5895   Z003.0000   F2100
G0   X072.9143   Y064.5895   Z000.0000   F210
G0   X070.7607   Y064.5895   Z000.0000   F720
G0   X069.6840   Y062.7244   Z000.0000   F720
G0   X070.7607   Y060.8593   Z000.0000   F720
G0   X072.9143   Y060.8593   Z000.0000   F720
G0   X073.9911   Y062.7244   Z000.0000   F720
G0   X072.9143   Y064.5895   Z000.0000   F720
G0   X072.9143   Y064.5895   Z003.0000   F500

;Begin Line: layer=0 line=11
G0   X075.4143   Y065.1895   Z003.0000   F2100
G0   X075.4143   Y065.1895   Z000.0000   F210
G0   X070.7607   Y065.1895   Z000.0000   F720
G0   X068.4339   Y069.2196   Z000.0000   F720
G0   X070.7607   Y073.2497   Z000.0000   F720
G0   X075.4143   Y073.2497   Z000.0000   F720
G0   X077.7411   Y069.2196   Z000.0000   F720
G0   X075.4143   Y065.1895   Z000.0000   F720
G0   X075.4143   Y065.1895   Z003.0000   F500

;Begin Line: layer=0 line=12
G0   X074.5108   Y063.0244   Z003.0000   F2100
G0   X074.5108   Y063.0244   Z000.0000   F210
G0   X074.0590   Y063.8069   Z000.0000   F720
G0   X074.5108   Y064.5895   Z000.0000   F720
G0   X075.4143   Y064.5895   Z000.0000   F720
G0   X075.8661   Y063.8069   Z000.0000   F720
G0   X075.4143   Y063.0244   Z000.0000   F720
G0   X074.5108   Y063.0244   Z000.0000   F720
G0   X074.5108   Y063.0244   Z003.0000   F500

;Begin Line: layer=0 line=13
G0   X073.4340   Y060.5593   Z003.0000   F2100
G0   X073.4340   Y060.5593   Z000.0000   F210
G0   X074.5108   Y058.6943   Z000.0000   F720
G0   X076.6643   Y058.6943   Z000.0000   F720
G0   X077.7411   Y060.5593   Z000.0000   F720
G0   X076.6643   Y062.4244   Z000.0000   F720
G0   X074.5108   Y062.4244   Z000.0000   F720
G0   X073.4340   Y060.5593   Z000.0000   F720
G0   X073.4340   Y060.5593   Z003.0000   F500

;Begin Line: layer=0 line=14
G0   X059.5107   Y067.3545   Z003.0000   F2100
G0   X059.5107   Y067.3545   Z000.0000   F210
G0   X061.6643   Y067.3545   Z000.0000   F720
G0   X062.7411   Y069.2196   Z000.0000   F720
G0   X061.6643   Y071.0847   Z000.0000   F720
G0   X059.5107   Y071.0847   Z000.0000   F720
G0   X058.4339   Y069.2196   Z000.0000   F720
G0   X059.5107   Y067.3545   Z000.0000   F720
G0   X059.5107   Y067.3545   Z003.0000   F500

;Begin Line: layer=0 line=15
G0   X048.3185   Y069.6196   Z003.0000   F2100
G0   X048.3185   Y069.6196   Z000.0000   F210
G0   X057.8566   Y069.6196   Z000.0000   F720
G0   X062.6257   Y077.8799   Z000.0000   F720
G0   X057.8566   Y086.1401   Z000.0000   F720
G0   X048.3185   Y086.1401   Z000.0000   F720
G0   X043.5494   Y077.8799   Z000.0000   F720
G0   X048.3185   Y069.6196   Z000.0000   F720
G0   X048.3185   Y069.6196   Z003.0000   F500

;Begin Line: layer=0 line=16
G0   X048.4339   Y069.8196   Z003.0000   F2100
G0   X048.4339   Y069.8196   Z000.0000   F210
G0   X057.7411   Y069.8196   Z000.0000   F720
G0   X062.3947   Y077.8799   Z000.0000   F720
G0   X057.7411   Y085.9401   Z000.0000   F720
G0   X048.4339   Y085.9401   Z000.0000   F720
G0   X043.7803   Y077.8799   Z000.0000   F720
G0   X048.4339   Y069.8196   Z000.0000   F720
G0   X048.4339   Y069.8196   Z003.0000   F500

;Begin Line: layer=0 line=17
G0   X043.6649   Y077.8799   Z003.0000   F2100
G0   X043.6649   Y077.8799   Z000.0000   F210
G0   X048.3762   Y069.7196   Z000.0000   F720
G0   X057.7989   Y069.7196   Z000.0000   F720
G0   X062.5102   Y077.8799   Z000.0000   F720
G0   X057.7989   Y086.0401   Z000.0000   F720
G0   X048.3762   Y086.0401   Z000.0000   F720
G0   X043.6649   Y077.8799   Z000.0000   F720
G0   X043.6649   Y077.8799   Z003.0000   F500

;Begin Line: layer=0 line=18
G0   X058.4339   Y086.5401   Z003.0000   F2100
G0   X058.4339   Y086.5401   Z000.0000   F210
G0   X063.2607   Y078.1798   Z000.0000   F720
G0   X072.9143   Y078.1798   Z000.0000   F720
G0   X077.7411   Y086.5401   Z000.0000   F720
G0   X072.9143   Y094.9004   Z000.0000   F720
G0   X063.2607   Y094.9004   Z000.0000   F720
G0   X058.4339   Y086.5401   Z000.0000   F720
G0   X058.4339   Y086.5401   Z003.0000   F500

;Begin Line: layer=0 line=19
G0   X048.2607   Y086.2401   Z003.0000   F2100
G0   X048.2607   Y086.2401   Z000.0000   F210
G0   X057.9143   Y086.2401   Z000.0000   F720
G0   X062.7411   Y077.8799   Z000.0000   F720
G0   X057.9143   Y069.5196   Z000.0000   F720
G0   X048.2607   Y069.5196   Z000.0000   F720
G0   X043.4339   Y077.8799   Z000.0000   F720
G0   X048.2607   Y086.2401   Z000.0000   F720
G0   X048.2607   Y086.2401   Z003.0000   F500

;Begin Line: layer=0 line=20
G0   X048.3762   Y087.0401   Z003.0000   F2100
G0   X048.3762   Y087.0401   Z000.0000   F210
G0   X043.6649   Y095.2004   Z000.0000   F720
G0   X048.3762   Y103.3606   Z000.0000   F720
G0   X057.7989   Y103.3606   Z000.0000   F720
G0   X062.5102   Y095.2004   Z000.0000   F720
G0   X057.7989   Y087.0401   Z000.0000   F720
G0   X048.3762   Y087.0401   Z000.0000   F720
G0   X048.3762   Y087.0401   Z003.0000   F500

;Begin Line: layer=0 line=21
G0   X048.4339   Y087.1401   Z003.0000   F2100
G0   X048.4339   Y087.1401   Z000.0000   F210
G0   X043.7803   Y095.2004   Z000.0000   F720
G0   X048.4339   Y103.2606   Z000.0000   F720
G0   X057.7411   Y103.2606   Z000.0000   F720
G0   X062.3947   Y095.2004   Z000.0000   F720
G0   X057.7411   Y087.1401   Z000.0000   F720
G0   X048.4339   Y087.1401   Z000.0000   F720
G0   X048.4339   Y087.1401   Z003.0000   F500

;Begin Line: layer=0 line=22
G0   X043.5494   Y095.2004   Z003.0000   F2100
G0   X043.5494   Y095.2004   Z000.0000   F210
G0   X048.3185   Y103.4606   Z000.0000   F720
G0   X057.8566   Y103.4606   Z000.0000   F720
G0   X062.6257   Y095.2004   Z000.0000   F720
G0   X057.8566   Y086.9401   Z000.0000   F720
G0   X048.3185   Y086.9401   Z000.0000   F720
G0   X043.5494   Y095.2004   Z000.0000   F720
G0   X043.5494   Y095.2004   Z003.0000   F500

;Begin Line: layer=0 line=23
G0   X042.6357   Y098.7480   Z003.0000   F2100
G0   X042.6357   Y098.7480   Z000.0000   F210
G0   X042.1839   Y099.5305   Z000.0000   F720
G0   X042.6357   Y100.3130   Z000.0000   F720
G0   X043.5393   Y100.3130   Z000.0000   F720
G0   X043.9911   Y099.5305   Z000.0000   F720
G0   X043.5393   Y098.7480   Z000.0000   F720
G0   X042.6357   Y098.7480   Z000.0000   F720
G0   X042.6357   Y098.7480   Z003.0000   F500

;Begin Line: layer=0 line=24
G0   X040.7607   Y097.6654   Z003.0000   F2100
G0   X040.7607   Y097.6654   Z000.0000   F210
G0   X040.3089   Y098.4480   Z000.0000   F720
G0   X040.7607   Y099.2305   Z000.0000   F720
G0   X041.6643   Y099.2305   Z000.0000   F720
G0   X042.1161   Y098.4480   Z000.0000   F720
G0   X041.6643   Y097.6654   Z000.0000   F720
G0   X040.7607   Y097.6654   Z000.0000   F720
G0   X040.7607   Y097.6654   Z003.0000   F500

;Begin Line: layer=0 line=25
G0   X038.8857   Y098.1480   Z003.0000   F2100
G0   X038.8857   Y098.1480   Z000.0000   F210
G0   X039.7893   Y098.1480   Z000.0000   F720
G0   X040.2411   Y097.3654   Z000.0000   F720
G0   X039.7893   Y096.5829   Z000.0000   F720
G0   X038.8857   Y096.5829   Z000.0000   F720
G0   X038.4339   Y097.3654   Z000.0000   F720
G0   X038.8857   Y098.1480   Z000.0000   F720
G0   X038.8857   Y098.1480   Z003.0000   F500

;Begin Line: layer=0 line=26
G0   X038.8857   Y094.4178   Z003.0000   F2100
G0   X038.8857   Y094.4178   Z000.0000   F210
G0   X038.4339   Y095.2004   Z000.0000   F720
G0   X038.8857   Y095.9829   Z000.0000   F720
G0   X039.7893   Y095.9829   Z000.0000   F720
G0   X040.2411   Y095.2004   Z000.0000   F720
G0   X039.7893   Y094.4178   Z000.0000   F720
G0   X038.8857   Y094.4178   Z000.0000   F720
G0   X038.8857   Y094.4178   Z003.0000   F500

;Begin Line: layer=0 line=27
G0   X040.8185   Y090.4702   Z003.0000   F2100
G0   X040.8185   Y090.4702   Z000.0000   F210
G0   X038.5494   Y086.5401   Z000.0000   F720
G0   X040.8185   Y082.6100   Z000.0000   F720
G0   X045.3566   Y082.6100   Z000.0000   F720
G0   X047.6256   Y086.5401   Z000.0000   F720
G0   X045.3566   Y090.4702   Z000.0000   F720
G0   X040.8185   Y090.4702   Z000.0000   F720
G0   X040.8185   Y090.4702   Z003.0000   F500

;Begin Line: layer=0 line=28
G0   X039.1643   Y089.0052   Z003.0000   F2100
G0   X039.1643   Y089.0052   Z000.0000   F210
G0   X040.2411   Y090.8702   Z000.0000   F720
G0   X039.1643   Y092.7353   Z000.0000   F720
G0   X037.0107   Y092.7353   Z000.0000   F720
G0   X035.9339   Y090.8702   Z000.0000   F720
G0   X037.0107   Y089.0052   Z000.0000   F720
G0   X039.1643   Y089.0052   Z000.0000   F720
G0   X039.1643   Y089.0052   Z003.0000   F500

;Begin Line: layer=0 line=29
G0   X038.4339   Y086.5401   Z003.0000   F2100
G0   X038.4339   Y086.5401   Z000.0000   F210
G0   X040.7607   Y082.5100   Z000.0000   F720
G0   X045.4143   Y082.5100   Z000.0000   F720
G0   X047.7411   Y086.5401   Z000.0000   F720
G0   X045.4143   Y090.5702   Z000.0000   F720
G0   X040.7607   Y090.5702   Z000.0000   F720
G0   X038.4339   Y086.5401   Z000.0000   F720
G0   X038.4339   Y086.5401   Z003.0000   F500

;Begin Line: layer=0 line=30
G0   X036.0393   Y087.9227   Z003.0000   F2100
G0   X036.0393   Y087.9227   Z000.0000   F210
G0   X036.4911   Y088.7052   Z000.0000   F720
G0   X036.0393   Y089.4877   Z000.0000   F720
G0   X035.1357   Y089.4877   Z000.0000   F720
G0   X034.6839   Y088.7052   Z000.0000   F720
G0   X035.1357   Y087.9227   Z000.0000   F720
G0   X036.0393   Y087.9227   Z000.0000   F720
G0   X036.0393   Y087.9227   Z003.0000   F500

;Begin Line: layer=0 line=31
G0   X037.9143   Y093.3353   Z003.0000   F2100
G0   X037.9143   Y093.3353   Z000.0000   F210
G0   X037.0107   Y093.3353   Z000.0000   F720
G0   X036.5589   Y094.1178   Z000.0000   F720
G0   X037.0107   Y094.9004   Z000.0000   F720
G0   X037.9143   Y094.9004   Z000.0000   F720
G0   X038.3661   Y094.1178   Z000.0000   F720
G0   X037.9143   Y093.3353   Z000.0000   F720
G0   X037.9143   Y093.3353   Z003.0000   F500

;Begin Line: layer=0 line=32
G0   X036.4911   Y093.0353   Z003.0000   F2100
G0   X036.4911   Y093.0353   Z000.0000   F210
G0   X036.0393   Y092.2528   Z000.0000   F720
G0   X035.1357   Y092.2528   Z000.0000   F720
G0   X034.6839   Y093.0353   Z000.0000   F720
G0   X035.1357   Y093.8178   Z000.0000   F720
G0   X036.0393   Y093.8178   Z000.0000   F720
G0   X036.4911   Y093.0353   Z000.0000   F720
G0   X036.4911   Y093.0353   Z003.0000   F500

;Begin Line: layer=0 line=33
G0   X035.1357   Y094.4178   Z003.0000   F2100
G0   X035.1357   Y094.4178   Z000.0000   F210
G0   X036.0393   Y094.4178   Z000.0000   F720
G0   X036.4911   Y095.2004   Z000.0000   F720
G0   X036.0393   Y095.9829   Z000.0000   F720
G0   X035.1357   Y095.9829   Z000.0000   F720
G0   X034.6839   Y095.2004   Z000.0000   F720
G0   X035.1357   Y094.4178   Z000.0000   F720
G0   X035.1357   Y094.4178   Z003.0000   F500

;Begin Line: layer=0 line=34
G0   X034.1643   Y092.7353   Z003.0000   F2100
G0   X034.1643   Y092.7353   Z000.0000   F210
G0   X033.2607   Y092.7353   Z000.0000   F720
G0   X032.8089   Y091.9528   Z000.0000   F720
G0   X033.2607   Y091.1702   Z000.0000   F720
G0   X034.1643   Y091.1702   Z000.0000   F720
G0   X034.6161   Y091.9528   Z000.0000   F720
G0   X034.1643   Y092.7353   Z000.0000   F720
G0   X034.1643   Y092.7353   Z003.0000   F500

;Begin Line: layer=0 line=35
G0   X033.2607   Y093.3353   Z003.0000   F2100
G0   X033.2607   Y093.3353   Z000.0000   F210
G0   X034.1643   Y093.3353   Z000.0000   F720
G0   X034.6161   Y094.1178   Z000.0000   F720
G0   X034.1643   Y094.9004   Z000.0000   F720
