;Generated with vpype gwrite fabian
;generation/hex-20875-6x9.svg.gcode
G90
G92 X0 Y0 Z0
G00 X0 Y0 Z0 F2100
G00 X0 Y0 Z5 F500

;Begin Line: layer=0 line=0
G00 X98.8328 Y141.5899 Z2    F2100
G01 X98.8328 Y141.5899 Z-0 F210
G01 X98.7328 Y141.6899 Z-0 F720
G01 X98.7328 Y153.6899 Z-0 F720
G01 X98.8328 Y153.7899 Z-0 F720
G01 X98.9328 Y153.6899 Z-0 F720
G01 X98.9328 Y141.6899 Z-0 F720
G01 X98.8328 Y141.5899 Z-0 F720
G01 X98.7828 Y141.6033 Z-0 F720
G01 X98.7462 Y141.7399 Z-0 F720
G01 X98.8828 Y141.7765 Z-0 F720
G01 X109.2751 Y135.7765 Z-0 F720
G01 X109.3117 Y135.6399 Z-0 F720
G01 X109.1751 Y135.6033 Z-0 F720
G01 X98.7828 Y141.6033 Z-0 F720
G00 X98.7828 Y141.6033 Z2    F500

;Begin Line: layer=0 line=1
G00 X98.9194 Y141.7399 Z2    F2100
G01 X98.9194 Y141.7399 Z-0 F210
G01 X98.8828 Y141.6033 Z-0 F720
G01 X88.4905 Y135.6033 Z-0 F720
G01 X88.3539 Y135.6399 Z-0 F720
G01 X88.3905 Y135.7765 Z-0 F720
G01 X98.7828 Y141.7765 Z-0 F720
G01 X98.9194 Y141.7399 Z-0 F720
G00 X98.9194 Y141.7399 Z2    F500

;Begin Line: layer=0 line=2
G00 X98.9105 Y141.9797 Z2    F2100
G01 X98.9105 Y141.9797 Z-0 F210
G01 X99.0926 Y141.8399 Z-0 F720
G01 X99.1226 Y141.6123 Z-0 F720
G01 X98.9828 Y141.4301 Z-0 F720
G01 X88.5905 Y135.4301 Z-0 F720
G01 X88.3629 Y135.4002 Z-0 F720
G01 X88.1807 Y135.5399 Z-0 F720
G01 X88.1507 Y135.7676 Z-0 F720
G01 X88.2905 Y135.9498 Z-0 F720
G01 X98.6828 Y141.9497 Z-0 F720
G01 X98.9105 Y141.9797 Z-0 F720
G00 X98.9105 Y141.9797 Z2    F500

;Begin Line: layer=0 line=3
G00 X101.4309 Y140.9399 Z2    F2100
G01 X101.4309 Y140.9399 Z-0 F210
G01 X101.4309 Y140.1899 Z-0 F720
G01 X100.1319 Y139.4399 Z-0 F720
G01 X100.1319 Y137.9399 Z-0 F720
G01 X101.4309 Y137.1899 Z-0 F720
G00 X101.4309 Y137.1899 Z2    F500

;Begin Line: layer=0 line=4
G00 X100.7814 Y136.8149 Z2    F2100
G01 X100.7814 Y136.8149 Z-0 F210
G01 X100.7814 Y137.5649 Z-0 F720
G01 X100.1319 Y137.9399 Z-0 F720
G01 X98.8328 Y137.1899 Z-0 F720
G00 X98.8328 Y137.1899 Z2    F500

;Begin Line: layer=0 line=5
G00 X98.8328 Y137.9399 Z2    F2100
G01 X98.8328 Y137.9399 Z-0 F210
G01 X99.4823 Y137.5649 Z-0 F720
G01 X100.1319 Y137.9399 Z-0 F720
G00 X100.1319 Y137.9399 Z2    F500

;Begin Line: layer=0 line=6
G00 X98.8328 Y135.6899 Z2    F2100
G01 X98.8328 Y135.6899 Z-0 F210
G01 X97.5338 Y134.9399 Z-0 F720
G00 X97.5338 Y134.9399 Z2    F500

;Begin Line: layer=0 line=7
G00 X98.1833 Y135.3149 Z2    F2100
G01 X98.1833 Y135.3149 Z-0 F210
G01 X98.1833 Y134.5649 Z-0 F720
G00 X98.1833 Y134.5649 Z2    F500

;Begin Line: layer=0 line=8
G00 X100.1319 Y134.1899 Z2    F2100
G01 X100.1319 Y134.1899 Z-0 F210
G01 X100.1319 Y134.9399 Z-0 F720
G01 X101.4309 Y135.6899 Z-0 F720
G01 X101.4309 Y137.1899 Z-0 F720
G01 X104.0290 Y138.6899 Z-0 F720
G00 X104.0290 Y138.6899 Z2    F500

;Begin Line: layer=0 line=9
G00 X104.0290 Y138.5899 Z2    F2100
G01 X104.0290 Y138.5899 Z-0 F210
G01 X103.9290 Y138.6899 Z-0 F720
G01 X103.9290 Y144.6899 Z-0 F720
G01 X104.0290 Y144.7899 Z-0 F720
G01 X104.1290 Y144.6899 Z-0 F720
G01 X104.1290 Y138.6899 Z-0 F720
G01 X104.0290 Y138.5899 Z-0 F720
G00 X104.0290 Y138.5899 Z2    F500

;Begin Line: layer=0 line=10
G00 X105.3280 Y139.4399 Z2    F2100
G01 X105.3280 Y139.4399 Z-0 F210
G01 X106.6271 Y140.1899 Z-0 F720
G01 X107.9261 Y139.4399 Z-0 F720
G01 X107.9261 Y137.9399 Z-0 F720
G01 X109.2251 Y137.1899 Z-0 F720
G01 X110.5242 Y137.9399 Z-0 F720
G01 X110.5242 Y139.4399 Z-0 F720
G01 X109.2251 Y140.1899 Z-0 F720
G00 X109.2251 Y140.1899 Z2    F500

;Begin Line: layer=0 line=11
G00 X110.5242 Y140.9399 Z2    F2100
G01 X110.5242 Y140.9399 Z-0 F210
G01 X111.1737 Y141.3149 Z-0 F720
G01 X111.1737 Y142.0649 Z-0 F720
G01 X111.8232 Y142.4399 Z-0 F720
G00 X111.8232 Y142.4399 Z2    F500

;Begin Line: layer=0 line=12
G00 X112.4727 Y142.0649 Z2    F2100
G01 X112.4727 Y142.0649 Z-0 F210
G01 X111.8232 Y142.4399 Z-0 F720
G01 X111.8232 Y143.1899 Z-0 F720
G01 X112.4727 Y143.5649 Z-0 F720
G01 X113.1222 Y143.1899 Z-0 F720
G01 X113.1222 Y142.4399 Z-0 F720
G00 X113.1222 Y142.4399 Z2    F500

;Begin Line: layer=0 line=13
G00 X113.1222 Y143.1899 Z2    F2100
G01 X113.1222 Y143.1899 Z-0 F210
G01 X113.7718 Y143.5649 Z-0 F720
G01 X114.4213 Y143.1899 Z-0 F720
G01 X115.0708 Y143.5649 Z-0 F720
G01 X115.0708 Y144.3149 Z-0 F720
G01 X114.4213 Y143.9399 Z-0 F720
G01 X113.7718 Y144.3149 Z-0 F720
G01 X113.7718 Y145.0649 Z-0 F720
G00 X113.7718 Y145.0649 Z2    F500

;Begin Line: layer=0 line=14
G00 X113.7718 Y144.3149 Z2    F2100
G01 X113.7718 Y144.3149 Z-0 F210
G01 X113.1222 Y143.9399 Z-0 F720
G01 X112.4727 Y144.3149 Z-0 F720
G00 X112.4727 Y144.3149 Z2    F500

;Begin Line: layer=0 line=15
G00 X111.8232 Y143.1899 Z2    F2100
G01 X111.8232 Y143.1899 Z-0 F210
G01 X111.1737 Y143.5649 Z-0 F720
G01 X111.1737 Y144.3149 Z-0 F720
G00 X111.1737 Y144.3149 Z2    F500

;Begin Line: layer=0 line=16
G00 X110.5242 Y143.1899 Z2    F2100
G01 X110.5242 Y143.1899 Z-0 F210
G01 X110.5242 Y142.4399 Z-0 F720
G00 X110.5242 Y142.4399 Z2    F500

;Begin Line: layer=0 line=17
G00 X109.2251 Y141.6899 Z2    F2100
G01 X109.2251 Y141.6899 Z-0 F210
G01 X107.9261 Y142.4399 Z-0 F720
G01 X107.9261 Y143.9399 Z-0 F720
G01 X107.2766 Y144.3149 Z-0 F720
G00 X107.2766 Y144.3149 Z2    F500

;Begin Line: layer=0 line=18
G00 X107.9261 Y142.4399 Z2    F2100
G01 X107.9261 Y142.4399 Z-0 F210
G01 X107.2766 Y142.0649 Z-0 F720
G00 X107.2766 Y142.0649 Z2    F500

;Begin Line: layer=0 line=19
G00 X109.2251 Y138.6899 Z2    F2100
G01 X109.2251 Y138.6899 Z-0 F210
G01 X108.5756 Y139.0649 Z-0 F720
G01 X108.5756 Y139.8149 Z-0 F720
G01 X109.2251 Y140.1899 Z-0 F720
G01 X109.2251 Y141.6899 Z-0 F720
G01 X110.5242 Y142.4399 Z-0 F720
G01 X111.8232 Y141.6899 Z-0 F720
G01 X113.1222 Y142.4399 Z-0 F720
G01 X117.0194 Y140.1899 Z-0 F720
G01 X117.0194 Y138.6899 Z-0 F720
G00 X117.0194 Y138.6899 Z2    F500

;Begin Line: layer=0 line=20
G00 X117.0194 Y137.1899 Z2    F2100
G01 X117.0194 Y137.1899 Z-0 F210
G01 X119.6174 Y138.6899 Z-0 F720
G01 X122.2155 Y137.1899 Z-0 F720
G01 X122.2155 Y134.1899 Z-0 F720
G01 X124.8136 Y132.6899 Z-0 F720
G00 X124.8136 Y132.6899 Z2    F500

;Begin Line: layer=0 line=21
G00 X126.1127 Y134.9399 Z2    F2100
G01 X126.1127 Y134.9399 Z-0 F210
G01 X124.8136 Y135.6899 Z-0 F720
G00 X124.8136 Y135.6899 Z2    F500

;Begin Line: layer=0 line=22
G00 X123.5146 Y134.9399 Z2    F2100
G01 X123.5146 Y134.9399 Z-0 F210
G01 X124.8136 Y135.6899 Z-0 F720
G01 X124.8136 Y138.6899 Z-0 F720
G01 X124.7270 Y138.6399 Z-0 F720
G01 X124.7636 Y138.7765 Z-0 F720
G01 X129.9598 Y141.7765 Z-0 F720
G01 X130.0964 Y141.7399 Z-0 F720
G01 X130.0598 Y141.6033 Z-0 F720
G01 X124.8636 Y138.6033 Z-0 F720
G01 X124.7270 Y138.6399 Z-0 F720
G00 X124.7270 Y138.6399 Z2    F500

;Begin Line: layer=0 line=23
G00 X123.5146 Y137.9399 Z2    F2100
G01 X123.5146 Y137.9399 Z-0 F210
G01 X124.1641 Y137.5649 Z-0 F720
G01 X124.1641 Y136.8149 Z-0 F720
G01 X123.5146 Y136.4399 Z-0 F720
G00 X123.5146 Y136.4399 Z2    F500

;Begin Line: layer=0 line=24
G00 X122.2155 Y137.1899 Z2    F2100
G01 X122.2155 Y137.1899 Z-0 F210
G01 X123.5146 Y137.9399 Z-0 F720
G01 X123.5146 Y139.4399 Z-0 F720
G00 X123.5146 Y139.4399 Z2    F500

;Begin Line: layer=0 line=25
G00 X122.2155 Y140.1899 Z2    F2100
G01 X122.2155 Y140.1899 Z-0 F210
G01 X122.2155 Y138.6899 Z-0 F720
G01 X120.9165 Y137.9399 Z-0 F720
G01 X120.2669 Y138.3149 Z-0 F720
G00 X120.2669 Y138.3149 Z2    F500

;Begin Line: layer=0 line=26
G00 X119.6174 Y138.6899 Z2    F2100
G01 X119.6174 Y138.6899 Z-0 F210
G01 X119.6174 Y140.1899 Z-0 F720
G01 X120.9165 Y140.9399 Z-0 F720
G01 X122.2155 Y140.1899 Z-0 F720
G01 X123.5146 Y140.9399 Z-0 F720
G01 X123.5146 Y141.6899 Z-0 F720
G00 X123.5146 Y141.6899 Z2    F500

;Begin Line: layer=0 line=27
G00 X120.9165 Y140.9399 Z2    F2100
G01 X120.9165 Y140.9399 Z-0 F210
G01 X120.9165 Y142.4399 Z-0 F720
G01 X119.6174 Y143.1899 Z-0 F720
G00 X119.6174 Y143.1899 Z2    F500

;Begin Line: layer=0 line=28
G00 X109.0751 Y135.9498 Z2    F2100
G01 X109.0751 Y135.9498 Z-0 F210
G01 X119.4674 Y141.9497 Z-0 F720
G01 X119.6951 Y141.9797 Z-0 F720
G01 X119.8772 Y141.8399 Z-0 F720
G01 X119.9072 Y141.6123 Z-0 F720
G01 X119.7674 Y141.4301 Z-0 F720
G01 X109.3751 Y135.4301 Z-0 F720
G01 X109.1475 Y135.4002 Z-0 F720
G01 X108.9653 Y135.5399 Z-0 F720
G01 X108.9353 Y135.7676 Z-0 F720
G01 X109.0751 Y135.9498 Z-0 F720
G00 X109.0751 Y135.9498 Z2    F500

;Begin Line: layer=0 line=29
G00 X119.6674 Y141.6033 Z2    F2100
G01 X119.6674 Y141.6033 Z-0 F210
G01 X109.2751 Y135.6033 Z-0 F720
G01 X109.1385 Y135.6399 Z-0 F720
G01 X109.1751 Y135.7765 Z-0 F720
G01 X119.5674 Y141.7765 Z-0 F720
G01 X119.7040 Y141.7399 Z-0 F720
G01 X119.6674 Y141.6033 Z-0 F720
G00 X119.6674 Y141.6033 Z2    F500

;Begin Line: layer=0 line=30
G00 X119.5674 Y141.6033 Z2    F2100
G01 X119.5674 Y141.6033 Z-0 F210
G01 X119.5309 Y141.7399 Z-0 F720
G01 X119.6674 Y141.7765 Z-0 F720
G01 X124.8636 Y138.7765 Z-0 F720
G01 X124.9002 Y138.6399 Z-0 F720
G01 X124.7636 Y138.6033 Z-0 F720
G01 X119.5674 Y141.6033 Z-0 F720
G01 X119.6174 Y141.5899 Z-0 F720
G01 X119.5174 Y141.6899 Z-0 F720
G01 X119.5174 Y153.6899 Z-0 F720
G01 X119.6174 Y153.7899 Z-0 F720
G01 X119.7174 Y153.6899 Z-0 F720
G01 X119.7174 Y141.6899 Z-0 F720
G01 X119.6174 Y141.5899 Z-0 F720
G00 X119.6174 Y141.5899 Z2    F500

;Begin Line: layer=0 line=31
G00 X118.9679 Y142.0649 Z2    F2100
G01 X118.9679 Y142.0649 Z-0 F210
G01 X118.3184 Y142.4399 Z-0 F720
G01 X118.3184 Y143.9399 Z-0 F720
G01 X117.0194 Y144.6899 Z-0 F720
G01 X115.7203 Y143.9399 Z-0 F720
G01 X115.7203 Y142.4399 Z-0 F720
G01 X114.4213 Y141.6899 Z-0 F720
G01 X114.4213 Y144.6899 Z-0 F720
G01 X114.5079 Y144.6399 Z-0 F720
G01 X114.3713 Y144.6033 Z-0 F720
G01 X109.1751 Y147.6033 Z-0 F720
G01 X109.1385 Y147.7399 Z-0 F720
G01 X109.2751 Y147.7765 Z-0 F720
G01 X114.4713 Y144.7766 Z-0 F720
G01 X114.5079 Y144.6399 Z-0 F720
G00 X114.5079 Y144.6399 Z2    F500

;Begin Line: layer=0 line=32
G00 X115.0708 Y144.3149 Z2    F2100
G01 X115.0708 Y144.3149 Z-0 F210
G01 X115.7203 Y143.9399 Z-0 F720
G00 X115.7203 Y143.9399 Z2    F500

;Begin Line: layer=0 line=33
G00 X115.7203 Y143.1899 Z2    F2100
G01 X115.7203 Y143.1899 Z-0 F210
G01 X115.0708 Y143.5649 Z-0 F720
G00 X115.0708 Y143.5649 Z2    F500

;Begin Line: layer=0 line=34
G00 X115.7203 Y142.4399 Z2    F2100
G01 X115.7203 Y142.4399 Z-0 F210
G01 X116.3698 Y142.0649 Z-0 F720
G00 X116.3698 Y142.0649 Z2    F500

;Begin Line: layer=0 line=35
G00 X117.6689 Y142.0649 Z2    F2100
G01 X117.6689 Y142.0649 Z-0 F210
G01 X118.3184 Y142.4399 Z-0 F720
G00 X118.3184 Y142.4399 Z2    F500

;Begin Line: layer=0 line=36
G00 X118.3184 Y141.6899 Z2    F2100
G01 X118.3184 Y141.6899 Z-0 F210
G01 X118.3184 Y140.9399 Z-0 F720
G01 X119.6174 Y140.1899 Z-0 F720
G00 X119.6174 Y140.1899 Z2    F500

;Begin Line: layer=0 line=37
G00 X120.2669 Y137.5649 Z2    F2100
G01 X120.2669 Y137.5649 Z-0 F210
G01 X119.6174 Y137.1899 Z-0 F720
G01 X119.6174 Y135.6899 Z-0 F720
G00 X119.6174 Y135.6899 Z2    F500

;Begin Line: layer=0 line=38
G00 X119.6174 Y137.1899 Z2    F2100
G01 X119.6174 Y137.1899 Z-0 F210
G01 X118.9679 Y137.5649 Z-0 F720
G00 X118.9679 Y137.5649 Z2    F500

;Begin Line: layer=0 line=39
G00 X118.3184 Y134.9399 Z2    F2100
G01 X118.3184 Y134.9399 Z-0 F210
G01 X118.3184 Y134.1899 Z-0 F720
G01 X117.6689 Y133.8149 Z-0 F720
G01 X117.6689 Y133.0649 Z-0 F720
G01 X117.0194 Y132.6899 Z-0 F720
G00 X117.0194 Y132.6899 Z2    F500

;Begin Line: layer=0 line=40
G00 X115.7203 Y133.4399 Z2    F2100
G01 X115.7203 Y133.4399 Z-0 F210
G01 X115.7203 Y134.1899 Z-0 F720
G00 X115.7203 Y134.1899 Z2    F500

;Begin Line: layer=0 line=41
G00 X115.0708 Y135.3149 Z2    F2100
G01 X115.0708 Y135.3149 Z-0 F210
G01 X115.7203 Y135.6899 Z-0 F720
G01 X115.7203 Y136.4399 Z-0 F720
G00 X115.7203 Y136.4399 Z2    F500

;Begin Line: layer=0 line=42
G00 X115.0708 Y136.8149 Z2    F2100
G01 X115.0708 Y136.8149 Z-0 F210
G01 X114.4213 Y136.4399 Z-0 F720
G01 X114.4213 Y135.6899 Z-0 F720
G01 X115.0708 Y135.3149 Z-0 F720
G01 X115.0708 Y134.5649 Z-0 F720
G01 X115.7203 Y134.1899 Z-0 F720
G01 X116.3698 Y134.5649 Z-0 F720
G01 X116.3698 Y135.3149 Z-0 F720
G01 X117.0194 Y135.6899 Z-0 F720
G01 X117.0194 Y137.1899 Z-0 F720
G01 X114.4213 Y138.6899 Z-0 F720
G01 X114.4213 Y141.6899 Z-0 F720
G00 X114.4213 Y141.6899 Z2    F500

;Begin Line: layer=0 line=43
G00 X111.8232 Y141.6899 Z2    F2100
G01 X111.8232 Y141.6899 Z-0 F210
G01 X111.8232 Y140.9399 Z-0 F720
G01 X111.1737 Y140.5649 Z-0 F720
G01 X111.1737 Y139.8149 Z-0 F720
G01 X111.8232 Y139.4399 Z-0 F720
G01 X111.8232 Y138.6899 Z-0 F720
G00 X111.8232 Y138.6899 Z2    F500

;Begin Line: layer=0 line=44
G00 X113.1222 Y138.6899 Z2    F2100
G01 X113.1222 Y138.6899 Z-0 F210
G01 X113.1222 Y137.9399 Z-0 F720
G00 X113.1222 Y137.9399 Z2    F500

;Begin Line: layer=0 line=45
G00 X113.7718 Y137.5649 Z2    F2100
G01 X113.7718 Y137.5649 Z-0 F210
G01 X113.1222 Y137.9399 Z-0 F720
G01 X111.8232 Y137.1899 Z-0 F720
G01 X110.5242 Y137.9399 Z-0 F720
G00 X110.5242 Y137.9399 Z2    F500

;Begin Line: layer=0 line=46
G00 X109.2251 Y137.1899 Z2    F2100
G01 X109.2251 Y137.1899 Z-0 F210
G01 X109.2251 Y136.4399 Z-0 F720
G01 X108.5756 Y136.0649 Z-0 F720
G01 X108.5756 Y135.3149 Z-0 F720
G00 X108.5756 Y135.3149 Z2    F500

;Begin Line: layer=0 line=47
G00 X109.1251 Y135.6899 Z2    F2100
G01 X109.1251 Y135.6899 Z-0 F210
G01 X109.2251 Y135.7899 Z-0 F720
G01 X109.3251 Y135.6899 Z-0 F720
G01 X109.3251 Y129.6899 Z-0 F720
G01 X109.2251 Y129.5899 Z-0 F720
G01 X109.1251 Y129.6899 Z-0 F720
G01 X109.1251 Y135.6899 Z-0 F720
G01 X109.2251 Y135.7899 Z-0 F720
G01 X109.3251 Y135.6899 Z-0 F720
G01 X109.3251 Y129.6899 Z-0 F720
G01 X109.2251 Y129.5899 Z-0 F720
G01 X109.1251 Y129.6899 Z-0 F720
G01 X109.1251 Y135.6899 Z-0 F720
G01 X109.1751 Y135.7765 Z-0 F720
G01 X114.3713 Y138.7765 Z-0 F720
G01 X114.5079 Y138.7399 Z-0 F720
G01 X114.4713 Y138.6033 Z-0 F720
G01 X109.2751 Y135.6033 Z-0 F720
G01 X109.1385 Y135.6399 Z-0 F720
G01 X109.1751 Y135.7765 Z-0 F720
G01 X109.2751 Y135.7765 Z-0 F720
G01 X109.3117 Y135.6399 Z-0 F720
G01 X109.1751 Y135.6033 Z-0 F720
G01 X103.9790 Y138.6033 Z-0 F720
G01 X103.9424 Y138.7399 Z-0 F720
G01 X104.0790 Y138.7765 Z-0 F720
G01 X109.2751 Y135.7765 Z-0 F720
G00 X109.2751 Y135.7765 Z2    F500

;Begin Line: layer=0 line=48
G00 X98.5430 Y141.6123 Z2    F2100
G01 X98.5430 Y141.6123 Z-0 F210
G01 X98.5730 Y141.8399 Z-0 F720
G01 X98.7552 Y141.9797 Z-0 F720
G01 X98.9828 Y141.9497 Z-0 F720
G01 X109.3751 Y135.9498 Z-0 F720
G01 X109.5149 Y135.7676 Z-0 F720
G01 X109.4849 Y135.5399 Z-0 F720
G01 X109.3028 Y135.4002 Z-0 F720
G01 X109.0751 Y135.4301 Z-0 F720
G01 X98.6828 Y141.4301 Z-0 F720
G01 X98.5430 Y141.6123 Z-0 F720
G00 X98.5430 Y141.6123 Z2    F500

;Begin Line: layer=0 line=49
G00 X111.8232 Y136.4399 Z2    F2100
G01 X111.8232 Y136.4399 Z-0 F210
G01 X111.8232 Y137.1899 Z-0 F720
G00 X111.8232 Y137.1899 Z2    F500

;Begin Line: layer=0 line=50
G00 X110.5242 Y139.4399 Z2    F2100
G01 X110.5242 Y139.4399 Z-0 F210
G01 X111.1737 Y139.8149 Z-0 F720
G00 X111.1737 Y139.8149 Z2    F500

;Begin Line: layer=0 line=51
G00 X107.9261 Y137.9399 Z2    F2100
G01 X107.9261 Y137.9399 Z-0 F210
G01 X106.6271 Y137.1899 Z-0 F720
G01 X105.3280 Y137.9399 Z-0 F720
G00 X105.3280 Y137.9399 Z2    F500

;Begin Line: layer=0 line=52
G00 X106.6271 Y137.1899 Z2    F2100
G01 X106.6271 Y137.1899 Z-0 F210
G01 X106.6271 Y135.6899 Z-0 F720
G01 X105.9775 Y135.3149 Z-0 F720
G01 X105.3280 Y135.6899 Z-0 F720
G01 X104.6785 Y135.3149 Z-0 F720
G00 X104.6785 Y135.3149 Z2    F500

;Begin Line: layer=0 line=53
G00 X105.3280 Y135.6899 Z2    F2100
G01 X105.3280 Y135.6899 Z-0 F210
G01 X105.3280 Y136.4399 Z-0 F720
G01 X105.9775 Y136.8149 Z-0 F720
G01 X106.6271 Y136.4399 Z-0 F720
G00 X106.6271 Y136.4399 Z2    F500

;Begin Line: layer=0 line=54
G00 X106.6271 Y134.1899 Z2    F2100
G01 X106.6271 Y134.1899 Z-0 F210
G01 X106.6271 Y134.9399 Z-0 F720
G01 X105.9775 Y135.3149 Z-0 F720
G01 X105.3280 Y134.9399 Z-0 F720
G01 X105.3280 Y134.1899 Z-0 F720
G01 X104.6785 Y133.8149 Z-0 F720
G00 X104.6785 Y133.8149 Z2    F500

;Begin Line: layer=0 line=55
G00 X104.6785 Y133.0649 Z2    F2100
G01 X104.6785 Y133.0649 Z-0 F210
G01 X104.6785 Y133.8149 Z-0 F720
G01 X104.0290 Y134.1899 Z-0 F720
G01 X104.0290 Y134.9399 Z-0 F720
