;Generated with vpype gwrite fabian
;generation/hex-99477.svg.gcode
G90
G92 X0 Y0 Z0
G00 X0 Y0 Z0 F2100
G00 X0 Y0 Z5 F500

;Begin Line: layer=0 line=0
G00 X77.5360 Y115.7995 Z2    F2100
G01 X77.5360 Y115.7995 Z-0 F210
G01 X77.5360 Y103.7995 Z-0 F720
G01 X77.6110 Y103.7245 Z-0 F720
G01 X77.6860 Y103.7995 Z-0 F720
G01 X77.6860 Y115.7995 Z-0 F720
G01 X77.6110 Y115.8745 Z-0 F720
G01 X77.5360 Y115.7995 Z-0 F720
G00 X77.5360 Y115.7995 Z2    F500

;Begin Line: layer=0 line=1
G00 X77.6485 Y115.8645 Z2    F2100
G01 X77.6485 Y115.8645 Z-0 F210
G01 X67.2561 Y121.8645 Z-0 F720
G01 X67.1537 Y121.8370 Z-0 F720
G01 X67.1812 Y121.7346 Z-0 F720
G01 X77.5735 Y115.7346 Z-0 F720
G01 X77.6759 Y115.7620 Z-0 F720
G01 X77.6485 Y115.8645 Z-0 F720
G00 X77.6485 Y115.8645 Z2    F500

;Begin Line: layer=0 line=2
G00 X80.8586 Y113.1745 Z2    F2100
G01 X80.8586 Y113.1745 Z-0 F210
G01 X81.5081 Y113.5495 Z-0 F720
G00 X81.5081 Y113.5495 Z2    F500

;Begin Line: layer=0 line=3
G00 X81.5081 Y114.2995 Z2    F2100
G01 X81.5081 Y114.2995 Z-0 F210
G01 X81.5081 Y113.5495 Z-0 F720
G01 X82.1576 Y113.1745 Z-0 F720
G01 X82.1576 Y112.4245 Z-0 F720
G01 X82.8071 Y112.0495 Z-0 F720
G00 X82.8071 Y112.0495 Z2    F500

;Begin Line: layer=0 line=4
G00 X82.8071 Y111.2995 Z2    F2100
G01 X82.8071 Y111.2995 Z-0 F210
G01 X81.5081 Y110.5495 Z-0 F720
G01 X81.5081 Y109.0495 Z-0 F720
G01 X82.8071 Y108.2995 Z-0 F720
G00 X82.8071 Y108.2995 Z2    F500

;Begin Line: layer=0 line=5
G00 X82.8071 Y106.7995 Z2    F2100
G01 X82.8071 Y106.7995 Z-0 F210
G01 X81.5081 Y106.0495 Z-0 F720
G01 X81.5081 Y104.5495 Z-0 F720
G01 X82.8071 Y103.7995 Z-0 F720
G01 X82.8071 Y102.2995 Z-0 F720
G01 X83.4566 Y101.9245 Z-0 F720
G01 X84.1062 Y102.2995 Z-0 F720
G00 X84.1062 Y102.2995 Z2    F500

;Begin Line: layer=0 line=6
G00 X84.1062 Y103.0495 Z2    F2100
G01 X84.1062 Y103.0495 Z-0 F210
G01 X85.4052 Y102.2995 Z-0 F720
G01 X85.4052 Y101.5495 Z-0 F720
G00 X85.4052 Y101.5495 Z2    F500

;Begin Line: layer=0 line=7
G00 X85.4052 Y102.2995 Z2    F2100
G01 X85.4052 Y102.2995 Z-0 F210
G01 X86.0547 Y102.6745 Z-0 F720
G01 X86.7042 Y102.2995 Z-0 F720
G00 X86.7042 Y102.2995 Z2    F500

;Begin Line: layer=0 line=8
G00 X86.7042 Y103.0495 Z2    F2100
G01 X86.7042 Y103.0495 Z-0 F210
G01 X87.3537 Y103.4245 Z-0 F720
G00 X87.3537 Y103.4245 Z2    F500

;Begin Line: layer=0 line=9
G00 X88.0033 Y103.7995 Z2    F2100
G01 X88.0033 Y103.7995 Z-0 F210
G01 X88.0033 Y100.7995 Z-0 F720
G01 X85.4052 Y99.2995 Z-0 F720
G01 X85.4052 Y96.2995 Z-0 F720
G01 X88.0033 Y94.7995 Z-0 F720
G01 X90.6013 Y96.2995 Z-0 F720
G00 X90.6013 Y96.2995 Z2    F500

;Begin Line: layer=0 line=10
G00 X89.3023 Y95.5495 Z2    F2100
G01 X89.3023 Y95.5495 Z-0 F210
G01 X89.3023 Y97.0495 Z-0 F720
G01 X90.6013 Y97.7995 Z-0 F720
G00 X90.6013 Y97.7995 Z2    F500

;Begin Line: layer=0 line=11
G00 X90.6013 Y99.2995 Z2    F2100
G01 X90.6013 Y99.2995 Z-0 F210
G01 X90.6013 Y97.7995 Z-0 F720
G01 X91.9004 Y97.0495 Z-0 F720
G00 X91.9004 Y97.0495 Z2    F500

;Begin Line: layer=0 line=12
G00 X98.4331 Y91.8644 Z2    F2100
G01 X98.4331 Y91.8644 Z-0 F210
G01 X93.2369 Y94.8644 Z-0 F720
G01 X93.1345 Y94.8370 Z-0 F720
G01 X93.1619 Y94.7345 Z-0 F720
G01 X98.3581 Y91.7345 Z-0 F720
G01 X98.4605 Y91.7620 Z-0 F720
G01 X98.4331 Y91.8644 Z-0 F720
G00 X98.4331 Y91.8644 Z2    F500

;Begin Line: layer=0 line=13
G00 X94.4985 Y100.0495 Z2    F2100
G01 X94.4985 Y100.0495 Z-0 F210
G01 X93.1994 Y100.7995 Z-0 F720
G01 X90.6013 Y99.2995 Z-0 F720
G01 X88.0033 Y100.7995 Z-0 F720
G00 X88.0033 Y100.7995 Z2    F500

;Begin Line: layer=0 line=14
G00 X88.0033 Y102.2995 Z2    F2100
G01 X88.0033 Y102.2995 Z-0 F210
G01 X88.6528 Y101.9245 Z-0 F720
G01 X88.6528 Y101.1745 Z-0 F720
G01 X89.3023 Y100.7995 Z-0 F720
G01 X89.9518 Y101.1745 Z-0 F720
G01 X90.6013 Y100.7995 Z-0 F720
G01 X91.2509 Y101.1745 Z-0 F720
G01 X91.9004 Y100.7995 Z-0 F720
G01 X92.5499 Y101.1745 Z-0 F720
G01 X92.5499 Y101.9245 Z-0 F720
G01 X93.1994 Y102.2995 Z-0 F720
G01 X93.1994 Y103.7995 Z-0 F720
G01 X95.7975 Y105.2995 Z-0 F720
G01 X95.7975 Y108.2995 Z-0 F720
G01 X98.3956 Y109.7995 Z-0 F720
G01 X95.7975 Y111.2995 Z-0 F720
G01 X95.7975 Y112.7995 Z-0 F720
G01 X95.1480 Y113.1745 Z-0 F720
G01 X95.1480 Y113.9245 Z-0 F720
G01 X94.4985 Y114.2995 Z-0 F720
G00 X94.4985 Y114.2995 Z2    F500

;Begin Line: layer=0 line=15
G00 X95.1480 Y113.9245 Z2    F2100
G01 X95.1480 Y113.9245 Z-0 F210
G01 X95.7975 Y114.2995 Z-0 F720
G01 X95.7975 Y115.0495 Z-0 F720
G01 X96.4470 Y115.4245 Z-0 F720
G00 X96.4470 Y115.4245 Z2    F500

;Begin Line: layer=0 line=16
G00 X96.4470 Y114.6745 Z2    F2100
G01 X96.4470 Y114.6745 Z-0 F210
G01 X97.0966 Y115.0495 Z-0 F720
G01 X98.3956 Y114.2995 Z-0 F720
G00 X98.3956 Y114.2995 Z2    F500

;Begin Line: layer=0 line=17
G00 X98.4605 Y115.7620 Z2    F2100
G01 X98.4605 Y115.7620 Z-0 F210
G01 X98.4331 Y115.8645 Z-0 F720
G01 X88.0408 Y121.8645 Z-0 F720
G01 X87.9383 Y121.8370 Z-0 F720
G01 X87.9658 Y121.7346 Z-0 F720
G01 X98.3581 Y115.7346 Z-0 F720
G01 X98.4605 Y115.7620 Z-0 F720
G00 X98.4605 Y115.7620 Z2    F500

;Begin Line: layer=0 line=18
G00 X99.6946 Y115.0495 Z2    F2100
G01 X99.6946 Y115.0495 Z-0 F210
G01 X99.6946 Y116.5495 Z-0 F720
G00 X99.6946 Y116.5495 Z2    F500

;Begin Line: layer=0 line=19
G00 X100.9937 Y115.0495 Z2    F2100
G01 X100.9937 Y115.0495 Z-0 F210
G01 X101.6432 Y115.4245 Z-0 F720
G00 X101.6432 Y115.4245 Z2    F500

;Begin Line: layer=0 line=20
G00 X101.6432 Y116.1745 Z2    F2100
G01 X101.6432 Y116.1745 Z-0 F210
G01 X101.6432 Y115.4245 Z-0 F720
G01 X102.2927 Y115.0495 Z-0 F720
G00 X102.2927 Y115.0495 Z2    F500

;Begin Line: layer=0 line=21
G00 X101.6432 Y113.9245 Z2    F2100
G01 X101.6432 Y113.9245 Z-0 F210
G01 X102.2927 Y113.5495 Z-0 F720
G01 X102.2927 Y112.0495 Z-0 F720
G00 X102.2927 Y112.0495 Z2    F500

;Begin Line: layer=0 line=22
G00 X102.9422 Y111.6745 Z2    F2100
G01 X102.9422 Y111.6745 Z-0 F210
G01 X102.9422 Y110.9245 Z-0 F720
G01 X102.2927 Y110.5495 Z-0 F720
G00 X102.2927 Y110.5495 Z2    F500

;Begin Line: layer=0 line=23
G00 X102.9422 Y110.9245 Z2    F2100
G01 X102.9422 Y110.9245 Z-0 F210
G01 X103.5917 Y111.2995 Z-0 F720
G00 X103.5917 Y111.2995 Z2    F500

;Begin Line: layer=0 line=24
G00 X104.8908 Y111.2995 Z2    F2100
G01 X104.8908 Y111.2995 Z-0 F210
G01 X104.2413 Y111.6745 Z-0 F720
G01 X103.5917 Y111.2995 Z-0 F720
G01 X103.5917 Y109.7995 Z-0 F720
G00 X103.5917 Y109.7995 Z2    F500

;Begin Line: layer=0 line=25
G00 X102.9422 Y108.6745 Z2    F2100
G01 X102.9422 Y108.6745 Z-0 F210
G01 X102.2927 Y109.0495 Z-0 F720
G00 X102.2927 Y109.0495 Z2    F500

;Begin Line: layer=0 line=26
G00 X101.6432 Y108.6745 Z2    F2100
G01 X101.6432 Y108.6745 Z-0 F210
G01 X102.2927 Y109.0495 Z-0 F720
G01 X102.2927 Y110.5495 Z-0 F720
G01 X100.9937 Y111.2995 Z-0 F720
G01 X98.3956 Y109.7995 Z-0 F720
G01 X100.9937 Y108.2995 Z-0 F720
G01 X100.9937 Y106.7995 Z-0 F720
G01 X101.6432 Y106.4245 Z-0 F720
G01 X102.2927 Y106.7995 Z-0 F720
G01 X102.9422 Y106.4245 Z-0 F720
G00 X102.9422 Y106.4245 Z2    F500

;Begin Line: layer=0 line=27
G00 X100.9937 Y106.7995 Z2    F2100
G01 X100.9937 Y106.7995 Z-0 F210
G01 X100.3441 Y106.4245 Z-0 F720
G01 X100.3441 Y105.6745 Z-0 F720
G01 X99.6946 Y105.2995 Z-0 F720
G00 X99.6946 Y105.2995 Z2    F500

;Begin Line: layer=0 line=28
G00 X98.3956 Y104.5495 Z2    F2100
G01 X98.3956 Y104.5495 Z-0 F210
G01 X97.7461 Y104.9245 Z-0 F720
G01 X97.0966 Y104.5495 Z-0 F720
G00 X97.0966 Y104.5495 Z2    F500

;Begin Line: layer=0 line=29
G00 X97.7461 Y103.4245 Z2    F2100
G01 X97.7461 Y103.4245 Z-0 F210
G01 X97.0966 Y103.7995 Z-0 F720
G01 X97.0966 Y104.5495 Z-0 F720
G01 X95.7975 Y105.2995 Z-0 F720
G00 X95.7975 Y105.2995 Z2    F500

;Begin Line: layer=0 line=30
G00 X94.4985 Y105.2995 Z2    F2100
G01 X94.4985 Y105.2995 Z-0 F210
G01 X94.4985 Y106.0495 Z-0 F720
G01 X93.1994 Y106.7995 Z-0 F720
G00 X93.1994 Y106.7995 Z2    F500

;Begin Line: layer=0 line=31
G00 X91.9004 Y106.7995 Z2    F2100
G01 X91.9004 Y106.7995 Z-0 F210
G01 X91.2509 Y107.1745 Z-0 F720
G01 X90.6013 Y106.7995 Z-0 F720
G00 X90.6013 Y106.7995 Z2    F500

;Begin Line: layer=0 line=32
G00 X89.9518 Y107.1745 Z2    F2100
G01 X89.9518 Y107.1745 Z-0 F210
G01 X90.6013 Y106.7995 Z-0 F720
G01 X90.6013 Y105.2995 Z-0 F720
G00 X90.6013 Y105.2995 Z2    F500

;Begin Line: layer=0 line=33
G00 X91.9004 Y105.2995 Z2    F2100
G01 X91.9004 Y105.2995 Z-0 F210
G01 X91.9004 Y106.0495 Z-0 F720
G01 X93.1994 Y106.7995 Z-0 F720
G01 X93.1994 Y109.7995 Z-0 F720
G01 X95.7975 Y111.2995 Z-0 F720
G00 X95.7975 Y111.2995 Z2    F500

;Begin Line: layer=0 line=34
G00 X95.1480 Y110.9245 Z2    F2100
G01 X95.1480 Y110.9245 Z-0 F210
G01 X95.1480 Y110.1745 Z-0 F720
G00 X95.1480 Y110.1745 Z2    F500

;Begin Line: layer=0 line=35
G00 X95.7975 Y109.7995 Z2    F2100
G01 X95.7975 Y109.7995 Z-0 F210
G01 X95.1480 Y110.1745 Z-0 F720
G01 X94.4985 Y109.7995 Z-0 F720
G01 X94.4985 Y109.0495 Z-0 F720
G00 X94.4985 Y109.0495 Z2    F500

;Begin Line: layer=0 line=36
G00 X93.1994 Y109.0495 Z2    F2100
G01 X93.1994 Y109.0495 Z-0 F210
G01 X93.8489 Y108.6745 Z-0 F720
G01 X94.4985 Y109.0495 Z-0 F720
G01 X95.7975 Y108.2995 Z-0 F720
G00 X95.7975 Y108.2995 Z2    F500

;Begin Line: layer=0 line=37
G00 X98.3956 Y115.8745 Z2    F2100
G01 X98.3956 Y115.8745 Z-0 F210
G01 X98.3206 Y115.7995 Z-0 F720
G01 X98.3206 Y109.7995 Z-0 F720
G01 X98.3956 Y109.7245 Z-0 F720
G01 X98.4706 Y109.7995 Z-0 F720
G01 X98.4706 Y115.7995 Z-0 F720
G01 X98.3956 Y115.8745 Z-0 F720
G00 X98.3956 Y115.8745 Z2    F500

;Begin Line: layer=0 line=38
G00 X97.7461 Y110.9245 Z2    F2100
G01 X97.7461 Y110.9245 Z-0 F210
G01 X98.3956 Y110.5495 Z-0 F720
G01 X99.0451 Y110.9245 Z-0 F720
G01 X99.6946 Y110.5495 Z-0 F720
G01 X100.3441 Y110.9245 Z-0 F720
G01 X100.9937 Y110.5495 Z-0 F720
G01 X101.6432 Y110.9245 Z-0 F720
G01 X101.6432 Y111.6745 Z-0 F720
G01 X102.2927 Y112.0495 Z-0 F720
G01 X103.5917 Y111.2995 Z-0 F720
G01 X103.5917 Y112.7995 Z-0 F720
G01 X106.1898 Y114.2995 Z-0 F720
G01 X106.1898 Y117.2995 Z-0 F720
G01 X103.5917 Y118.7995 Z-0 F720
G01 X106.1898 Y120.2995 Z-0 F720
G01 X106.1898 Y123.2995 Z-0 F720
G01 X107.4889 Y124.0495 Z-0 F720
G00 X107.4889 Y124.0495 Z2    F500

;Begin Line: layer=0 line=39
G00 X106.1898 Y123.2995 Z2    F2100
G01 X106.1898 Y123.2995 Z-0 F210
G01 X104.8908 Y124.0495 Z-0 F720
G00 X104.8908 Y124.0495 Z2    F500

;Begin Line: layer=0 line=40
G00 X106.1898 Y124.7995 Z2    F2100
G01 X106.1898 Y124.7995 Z-0 F210
G01 X105.5403 Y124.4245 Z-0 F720
G01 X105.5403 Y123.6745 Z-0 F720
G01 X104.8908 Y123.2995 Z-0 F720
G01 X104.8908 Y122.5495 Z-0 F720
G01 X102.2927 Y121.0495 Z-0 F720
G01 X101.6432 Y121.4245 Z-0 F720
G00 X101.6432 Y121.4245 Z2    F500

;Begin Line: layer=0 line=41
G00 X102.2927 Y121.0495 Z2    F2100
G01 X102.2927 Y121.0495 Z-0 F210
G01 X102.2927 Y120.2995 Z-0 F720
G01 X101.6432 Y119.9245 Z-0 F720
G00 X101.6432 Y119.9245 Z2    F500

;Begin Line: layer=0 line=42
G00 X100.9937 Y120.2995 Z2    F2100
G01 X100.9937 Y120.2995 Z-0 F210
G01 X100.9937 Y121.7995 Z-0 F720
G01 X100.3441 Y122.1745 Z-0 F720
G00 X100.3441 Y122.1745 Z2    F500

;Begin Line: layer=0 line=43
G00 X100.9937 Y122.5495 Z2    F2100
G01 X100.9937 Y122.5495 Z-0 F210
G01 X101.6432 Y122.1745 Z-0 F720
G01 X102.2927 Y122.5495 Z-0 F720
G01 X100.9937 Y121.7995 Z-0 F720
G01 X101.6432 Y121.4245 Z-0 F720
G01 X102.2927 Y121.7995 Z-0 F720
G00 X102.2927 Y121.7995 Z2    F500

;Begin Line: layer=0 line=44
G00 X102.2927 Y123.2995 Z2    F2100
G01 X102.2927 Y123.2995 Z-0 F210
G01 X102.2927 Y122.5495 Z-0 F720
G01 X103.5917 Y121.7995 Z-0 F720
G01 X103.5917 Y118.7995 Z-0 F720
G01 X103.5542 Y118.8644 Z-0 F720
G01 X98.3581 Y115.8645 Z-0 F720
G01 X98.3306 Y115.7620 Z-0 F720
G01 X98.4331 Y115.7346 Z-0 F720
G01 X103.6293 Y118.7346 Z-0 F720
G01 X103.6567 Y118.8370 Z-0 F720
G01 X103.5542 Y118.8644 Z-0 F720
G00 X103.5542 Y118.8644 Z2    F500

;Begin Line: layer=0 line=45
G00 X104.8908 Y121.0495 Z2    F2100
G01 X104.8908 Y121.0495 Z-0 F210
G01 X103.5917 Y121.7995 Z-0 F720
G01 X103.5917 Y124.7995 Z-0 F720
G01 X100.9937 Y126.2995 Z-0 F720
G01 X99.6946 Y125.5495 Z-0 F720
G01 X99.6946 Y124.7995 Z-0 F720
G01 X100.3441 Y124.4245 Z-0 F720
G01 X100.9937 Y124.7995 Z-0 F720
G00 X100.9937 Y124.7995 Z2    F500

;Begin Line: layer=0 line=46
G00 X100.9937 Y126.2995 Z2    F2100
G01 X100.9937 Y126.2995 Z-0 F210
G01 X100.9937 Y127.7995 Z-0 F720
G01 X99.6946 Y128.5495 Z-0 F720
G01 X99.6946 Y129.2995 Z-0 F720
G01 X99.0451 Y129.6745 Z-0 F720
G00 X99.0451 Y129.6745 Z2    F500

;Begin Line: layer=0 line=47
G00 X99.6946 Y128.5495 Z2    F2100
G01 X99.6946 Y128.5495 Z-0 F210
G01 X99.0451 Y128.1745 Z-0 F720
G00 X99.0451 Y128.1745 Z2    F500

;Begin Line: layer=0 line=48
G00 X98.3956 Y127.0495 Z2    F2100
G01 X98.3956 Y127.0495 Z-0 F210
G01 X98.3956 Y126.2995 Z-0 F720
G00 X98.3956 Y126.2995 Z2    F500

;Begin Line: layer=0 line=49
G00 X97.0966 Y125.5495 Z2    F2100
G01 X97.0966 Y125.5495 Z-0 F210
G01 X97.0966 Y124.7995 Z-0 F720
G00 X97.0966 Y124.7995 Z2    F500

;Begin Line: layer=0 line=50
G00 X96.4470 Y125.9245 Z2    F2100
G01 X96.4470 Y125.9245 Z-0 F210
G01 X97.0966 Y125.5495 Z-0 F720
G01 X98.3956 Y126.2995 Z-0 F720
G01 X99.6946 Y125.5495 Z-0 F720
G00 X99.6946 Y125.5495 Z2    F500

;Begin Line: layer=0 line=51
G00 X100.9937 Y127.7995 Z2    F2100
G01 X100.9937 Y127.7995 Z-0 F210
G01 X101.6432 Y128.1745 Z-0 F720
G00 X101.6432 Y128.1745 Z2    F500

;Begin Line: layer=0 line=52
G00 X102.2927 Y127.7995 Z2    F2100
G01 X102.2927 Y127.7995 Z-0 F210
G01 X102.2927 Y128.5495 Z-0 F720
G01 X100.9937 Y129.2995 Z-0 F720
G01 X98.3956 Y127.7995 Z-0 F720
G01 X98.3956 Y124.7995 Z-0 F720
G01 X100.9937 Y123.2995 Z-0 F720
G01 X100.9937 Y121.7995 Z-0 F720
G01 X99.6946 Y121.0495 Z-0 F720
G00 X99.6946 Y121.0495 Z2    F500

;Begin Line: layer=0 line=53
G00 X98.3956 Y121.0495 Z2    F2100
G01 X98.3956 Y121.0495 Z-0 F210
G01 X98.3956 Y120.2995 Z-0 F720
G01 X99.6946 Y119.5495 Z-0 F720
G01 X100.9937 Y120.2995 Z-0 F720
G01 X103.5917 Y118.7995 Z-0 F720
G01 X103.5917 Y115.7995 Z-0 F720
G00 X103.5917 Y115.7995 Z2    F500

;Begin Line: layer=0 line=54
G00 X104.2413 Y115.4245 Z2    F2100
G01 X104.2413 Y115.4245 Z-0 F210
G01 X103.5917 Y115.0495 Z-0 F720
G01 X102.9422 Y115.4245 Z-0 F720
G01 X102.2927 Y115.0495 Z-0 F720
G01 X102.2927 Y113.5495 Z-0 F720
G00 X102.2927 Y113.5495 Z2    F500

;Begin Line: layer=0 line=55
G00 X101.6432 Y113.1745 Z2    F2100
G01 X101.6432 Y113.1745 Z-0 F210
G01 X102.2927 Y113.5495 Z-0 F720
G01 X103.5917 Y112.7995 Z-0 F720
G00 X103.5917 Y112.7995 Z2    F500

;Begin Line: layer=0 line=56
G00 X100.9937 Y111.2995 Z2    F2100
G01 X100.9937 Y111.2995 Z-0 F210
G01 X100.9937 Y114.2995 Z-0 F720
G01 X99.6946 Y115.0495 Z-0 F720
G01 X98.3956 Y114.2995 Z-0 F720
G01 X98.3956 Y113.5495 Z-0 F720
G01 X97.7461 Y113.1745 Z-0 F720
G01 X97.7461 Y112.4245 Z-0 F720
G00 X97.7461 Y112.4245 Z2    F500

;Begin Line: layer=0 line=57
G00 X97.0966 Y112.7995 Z2    F2100
G01 X97.0966 Y112.7995 Z-0 F210
G01 X96.4470 Y113.1745 Z-0 F720
G01 X95.7975 Y112.7995 Z-0 F720
G00 X95.7975 Y112.7995 Z2    F500

;Begin Line: layer=0 line=58
G00 X95.1480 Y113.1745 Z2    F2100
G01 X95.1480 Y113.1745 Z-0 F210
G01 X94.4985 Y112.7995 Z-0 F720
G00 X94.4985 Y112.7995 Z2    F500

;Begin Line: layer=0 line=59
G00 X91.9004 Y113.5495 Z2    F2100
G01 X91.9004 Y113.5495 Z-0 F210
G01 X90.6013 Y112.7995 Z-0 F720
G01 X90.6013 Y111.2995 Z-0 F720
G00 X90.6013 Y111.2995 Z2    F500

;Begin Line: layer=0 line=60
G00 X90.6013 Y112.7995 Z2    F2100
G01 X90.6013 Y112.7995 Z-0 F210
G01 X89.9518 Y113.1745 Z-0 F720
G01 X89.3023 Y112.7995 Z-0 F720
G00 X89.3023 Y112.7995 Z2    F500

;Begin Line: layer=0 line=61
G00 X88.0033 Y109.7995 Z2    F2100
G01 X88.0033 Y109.7995 Z-0 F210
G01 X88.0033 Y106.7995 Z-0 F720
G01 X89.3023 Y106.0495 Z-0 F720
G00 X89.3023 Y106.0495 Z2    F500

;Begin Line: layer=0 line=62
G00 X88.0033 Y104.5495 Z2    F2100
G01 X88.0033 Y104.5495 Z-0 F210
G01 X87.3537 Y104.1745 Z-0 F720
G00 X87.3537 Y104.1745 Z2    F500

;Begin Line: layer=0 line=63
G00 X86.7042 Y104.5495 Z2    F2100
G01 X86.7042 Y104.5495 Z-0 F210
G01 X87.3537 Y104.1745 Z-0 F720
G01 X87.3537 Y103.4245 Z-0 F720
G01 X88.0033 Y103.0495 Z-0 F720
G00 X88.0033 Y103.0495 Z2    F500

;Begin Line: layer=0 line=64
