;Generated with vpype gwrite fabian
;generation/hex-35482.svg.gcode
G90
G92 X0 Y0 Z0
G00 X0 Y0 Z0 F2100
G00 X0 Y0 Z5 F500

;Begin Line: layer=0 line=0
G00 X78.7981 Y118.9001 Z2    F2100
G01 X78.7981 Y118.9001 Z-0 F210
G01 X78.6981 Y118.8001 Z-0 F720
G01 X78.6981 Y106.8000 Z-0 F720
G01 X78.7981 Y106.7001 Z-0 F720
G01 X78.8981 Y106.8000 Z-0 F720
G01 X78.8981 Y118.8001 Z-0 F720
G01 X78.7981 Y118.9001 Z-0 F720
G01 X78.7481 Y118.8867 Z-0 F720
G01 X78.7115 Y118.7501 Z-0 F720
G01 X78.8481 Y118.7135 Z-0 F720
G01 X89.2404 Y124.7135 Z-0 F720
G01 X89.2770 Y124.8501 Z-0 F720
G01 X89.1404 Y124.8867 Z-0 F720
G01 X78.7481 Y118.8867 Z-0 F720
G00 X78.7481 Y118.8867 Z2    F500

;Begin Line: layer=0 line=1
G00 X89.0404 Y125.0599 Z2    F2100
G01 X89.0404 Y125.0599 Z-0 F210
G01 X78.6481 Y119.0599 Z-0 F720
G01 X78.5083 Y118.8777 Z-0 F720
G01 X78.5383 Y118.6501 Z-0 F720
G01 X78.7205 Y118.5103 Z-0 F720
G01 X78.9481 Y118.5403 Z-0 F720
G01 X89.3404 Y124.5403 Z-0 F720
G01 X89.4802 Y124.7224 Z-0 F720
G01 X89.4502 Y124.9501 Z-0 F720
G01 X89.2681 Y125.0899 Z-0 F720
G01 X89.0404 Y125.0599 Z-0 F720
G00 X89.0404 Y125.0599 Z2    F500

;Begin Line: layer=0 line=2
G00 X68.1460 Y124.9501 Z2    F2100
G01 X68.1460 Y124.9501 Z-0 F210
G01 X68.1160 Y124.7224 Z-0 F720
G01 X68.2558 Y124.5403 Z-0 F720
G01 X78.6481 Y118.5403 Z-0 F720
G01 X78.8758 Y118.5103 Z-0 F720
G01 X79.0579 Y118.6501 Z-0 F720
G01 X79.0879 Y118.8777 Z-0 F720
G01 X78.9481 Y119.0599 Z-0 F720
G01 X68.5558 Y125.0599 Z-0 F720
G01 X68.3282 Y125.0899 Z-0 F720
G01 X68.1460 Y124.9501 Z-0 F720
G00 X68.1460 Y124.9501 Z2    F500

;Begin Line: layer=0 line=3
G00 X80.0972 Y118.0501 Z2    F2100
G01 X80.0972 Y118.0501 Z-0 F210
G01 X81.3962 Y117.3001 Z-0 F720
G00 X81.3962 Y117.3001 Z2    F500

;Begin Line: layer=0 line=4
G00 X82.6952 Y119.5501 Z2    F2100
G01 X82.6952 Y119.5501 Z-0 F210
G01 X82.6952 Y120.3001 Z-0 F720
G01 X83.3447 Y120.6751 Z-0 F720
G01 X83.9943 Y120.3001 Z-0 F720
G01 X83.9943 Y118.8001 Z-0 F720
G00 X83.9943 Y118.8001 Z2    F500

;Begin Line: layer=0 line=5
G00 X83.9943 Y120.3001 Z2    F2100
G01 X83.9943 Y120.3001 Z-0 F210
G01 X85.2933 Y121.0501 Z-0 F720
G01 X85.9428 Y120.6751 Z-0 F720
G00 X85.9428 Y120.6751 Z2    F500

;Begin Line: layer=0 line=6
G00 X85.2933 Y121.0501 Z2    F2100
G01 X85.2933 Y121.0501 Z-0 F210
G01 X85.2933 Y121.8001 Z-0 F720
G01 X84.6438 Y122.1751 Z-0 F720
G01 X84.6438 Y122.9251 Z-0 F720
G01 X85.2933 Y123.3001 Z-0 F720
G00 X85.2933 Y123.3001 Z2    F500

;Begin Line: layer=0 line=7
G00 X85.9428 Y122.1751 Z2    F2100
G01 X85.9428 Y122.1751 Z-0 F210
G01 X86.5924 Y121.8001 Z-0 F720
G01 X86.5924 Y121.0501 Z-0 F720
G01 X85.9428 Y120.6751 Z-0 F720
G01 X86.5924 Y120.3001 Z-0 F720
G01 X87.8914 Y121.0501 Z-0 F720
G01 X89.1904 Y120.3001 Z-0 F720
G00 X89.1904 Y120.3001 Z2    F500

;Begin Line: layer=0 line=8
G00 X87.8914 Y121.0501 Z2    F2100
G01 X87.8914 Y121.0501 Z-0 F210
G01 X87.8914 Y121.8001 Z-0 F720
G00 X87.8914 Y121.8001 Z2    F500

;Begin Line: layer=0 line=9
G00 X89.1904 Y121.8001 Z2    F2100
G01 X89.1904 Y121.8001 Z-0 F210
G01 X89.8400 Y122.1751 Z-0 F720
G01 X90.4895 Y121.8001 Z-0 F720
G00 X90.4895 Y121.8001 Z2    F500

;Begin Line: layer=0 line=10
G00 X90.4895 Y121.0501 Z2    F2100
G01 X90.4895 Y121.0501 Z-0 F210
G01 X91.1390 Y120.6751 Z-0 F720
G01 X91.7885 Y121.0501 Z-0 F720
G00 X91.7885 Y121.0501 Z2    F500

;Begin Line: layer=0 line=11
G00 X91.7885 Y122.5501 Z2    F2100
G01 X91.7885 Y122.5501 Z-0 F210
G01 X92.4380 Y122.1751 Z-0 F720
G01 X93.0876 Y122.5501 Z-0 F720
G01 X93.0876 Y124.0501 Z-0 F720
G01 X91.7885 Y124.8001 Z-0 F720
G01 X91.7885 Y126.3001 Z-0 F720
G00 X91.7885 Y126.3001 Z2    F500

;Begin Line: layer=0 line=12
G00 X91.7885 Y124.8001 Z2    F2100
G01 X91.7885 Y124.8001 Z-0 F210
G01 X90.4895 Y124.0501 Z-0 F720
G00 X90.4895 Y124.0501 Z2    F500

;Begin Line: layer=0 line=13
G00 X91.1390 Y122.9251 Z2    F2100
G01 X91.1390 Y122.9251 Z-0 F210
G01 X91.1390 Y122.1751 Z-0 F720
G01 X90.4895 Y121.8001 Z-0 F720
G01 X90.4895 Y121.0501 Z-0 F720
G01 X89.1904 Y120.3001 Z-0 F720
G01 X89.1904 Y118.8001 Z-0 F720
G01 X91.7885 Y117.3001 Z-0 F720
G00 X91.7885 Y117.3001 Z2    F500

;Begin Line: layer=0 line=14
G00 X91.7885 Y115.8001 Z2    F2100
G01 X91.7885 Y115.8001 Z-0 F210
G01 X90.4895 Y115.0501 Z-0 F720
G01 X90.4895 Y114.3001 Z-0 F720
G00 X90.4895 Y114.3001 Z2    F500

;Begin Line: layer=0 line=15
G00 X90.4895 Y115.0501 Z2    F2100
G01 X90.4895 Y115.0501 Z-0 F210
G01 X89.8400 Y115.4251 Z-0 F720
G00 X89.8400 Y115.4251 Z2    F500

;Begin Line: layer=0 line=16
G00 X87.2419 Y115.4251 Z2    F2100
G01 X87.2419 Y115.4251 Z-0 F210
G01 X86.5924 Y115.8001 Z-0 F720
G01 X86.5924 Y117.3001 Z-0 F720
G01 X89.1904 Y118.8001 Z-0 F720
G00 X89.1904 Y118.8001 Z2    F500

;Begin Line: layer=0 line=17
G00 X87.8914 Y119.5501 Z2    F2100
G01 X87.8914 Y119.5501 Z-0 F210
G01 X87.2419 Y119.1751 Z-0 F720
G01 X86.5924 Y119.5501 Z-0 F720
G01 X86.5924 Y120.3001 Z-0 F720
G00 X86.5924 Y120.3001 Z2    F500

;Begin Line: layer=0 line=18
G00 X84.6438 Y122.1751 Z2    F2100
G01 X84.6438 Y122.1751 Z-0 F210
G01 X83.9943 Y121.8001 Z-0 F720
G00 X83.9943 Y121.8001 Z2    F500

;Begin Line: layer=0 line=19
G00 X81.3962 Y126.3001 Z2    F2100
G01 X81.3962 Y126.3001 Z-0 F210
G01 X80.0972 Y125.5501 Z-0 F720
G01 X78.7981 Y126.3001 Z-0 F720
G01 X78.7981 Y127.8001 Z-0 F720
G01 X77.4991 Y128.5501 Z-0 F720
G00 X77.4991 Y128.5501 Z2    F500

;Begin Line: layer=0 line=20
G00 X76.8496 Y128.1751 Z2    F2100
G01 X76.8496 Y128.1751 Z-0 F210
G01 X76.2000 Y128.5501 Z-0 F720
G01 X75.5505 Y128.1751 Z-0 F720
G01 X76.2000 Y127.8001 Z-0 F720
G01 X76.2000 Y126.3001 Z-0 F720
G01 X77.4991 Y125.5501 Z-0 F720
G00 X77.4991 Y125.5501 Z2    F500

;Begin Line: layer=0 line=21
G00 X77.4991 Y124.0501 Z2    F2100
G01 X77.4991 Y124.0501 Z-0 F210
G01 X76.8496 Y123.6751 Z-0 F720
G01 X76.2000 Y124.0501 Z-0 F720
G01 X76.2000 Y124.8001 Z-0 F720
G01 X75.5505 Y125.1751 Z-0 F720
G01 X75.5505 Y125.9251 Z-0 F720
G01 X76.2000 Y126.3001 Z-0 F720
G00 X76.2000 Y126.3001 Z2    F500

;Begin Line: layer=0 line=22
G00 X75.5505 Y125.9251 Z2    F2100
G01 X75.5505 Y125.9251 Z-0 F210
G01 X74.9010 Y126.3001 Z-0 F720
G01 X74.9010 Y127.0501 Z-0 F720
G00 X74.9010 Y127.0501 Z2    F500

;Begin Line: layer=0 line=23
G00 X73.6020 Y127.0501 Z2    F2100
G01 X73.6020 Y127.0501 Z-0 F210
G01 X72.9524 Y126.6751 Z-0 F720
G01 X72.3029 Y127.0501 Z-0 F720
G01 X72.3029 Y127.8001 Z-0 F720
G00 X72.3029 Y127.8001 Z2    F500

;Begin Line: layer=0 line=24
G00 X71.6534 Y128.1751 Z2    F2100
G01 X71.6534 Y128.1751 Z-0 F210
G01 X72.3029 Y127.8001 Z-0 F720
G01 X72.9524 Y128.1751 Z-0 F720
G01 X73.6020 Y127.8001 Z-0 F720
G00 X73.6020 Y127.8001 Z2    F500

;Begin Line: layer=0 line=25
G00 X72.9524 Y128.1751 Z2    F2100
G01 X72.9524 Y128.1751 Z-0 F210
G01 X72.9524 Y128.9251 Z-0 F720
G01 X72.3029 Y129.3001 Z-0 F720
G01 X71.6534 Y128.9251 Z-0 F720
G01 X71.0039 Y129.3001 Z-0 F720
G01 X71.0039 Y130.0501 Z-0 F720
G01 X70.3544 Y130.4251 Z-0 F720
G01 X70.3544 Y131.1751 Z-0 F720
G00 X70.3544 Y131.1751 Z2    F500

;Begin Line: layer=0 line=26
G00 X70.3544 Y130.4251 Z2    F2100
G01 X70.3544 Y130.4251 Z-0 F210
G01 X69.7048 Y130.0501 Z-0 F720
G01 X69.7048 Y129.3001 Z-0 F720
G00 X69.7048 Y129.3001 Z2    F500

;Begin Line: layer=0 line=27
G00 X69.0553 Y130.4251 Z2    F2100
G01 X69.0553 Y130.4251 Z-0 F210
G01 X69.7048 Y130.8001 Z-0 F720
G01 X69.7048 Y131.5501 Z-0 F720
G01 X69.0553 Y131.9251 Z-0 F720
G01 X69.0553 Y132.6751 Z-0 F720
G01 X68.4058 Y133.0501 Z-0 F720
G01 X67.7563 Y132.6751 Z-0 F720
G00 X67.7563 Y132.6751 Z2    F500

;Begin Line: layer=0 line=28
G00 X67.1068 Y133.0501 Z2    F2100
G01 X67.1068 Y133.0501 Z-0 F210
G01 X66.4573 Y132.6751 Z-0 F720
G01 X66.4573 Y131.9251 Z-0 F720
G01 X67.1068 Y131.5501 Z-0 F720
G00 X67.1068 Y131.5501 Z2    F500

;Begin Line: layer=0 line=29
G00 X66.4573 Y131.9251 Z2    F2100
G01 X66.4573 Y131.9251 Z-0 F210
G01 X65.8077 Y131.5501 Z-0 F720
G00 X65.8077 Y131.5501 Z2    F500

;Begin Line: layer=0 line=30
G00 X65.8077 Y132.3001 Z2    F2100
G01 X65.8077 Y132.3001 Z-0 F210
G01 X65.8077 Y133.8001 Z-0 F720
G01 X66.4573 Y134.1751 Z-0 F720
G01 X67.1068 Y133.8001 Z-0 F720
G01 X67.1068 Y133.0501 Z-0 F720
G01 X67.7563 Y132.6751 Z-0 F720
G01 X67.7563 Y131.9251 Z-0 F720
G01 X68.4058 Y131.5501 Z-0 F720
G00 X68.4058 Y131.5501 Z2    F500

;Begin Line: layer=0 line=31
G00 X68.5058 Y124.8001 Z2    F2100
G01 X68.5058 Y124.8001 Z-0 F210
G01 X68.5058 Y130.8001 Z-0 F720
G01 X68.4058 Y130.9001 Z-0 F720
G01 X68.3058 Y130.8001 Z-0 F720
G01 X68.3058 Y124.8001 Z-0 F720
G01 X68.4058 Y124.7001 Z-0 F720
G01 X68.5058 Y124.8001 Z-0 F720
G00 X68.5058 Y124.8001 Z2    F500

;Begin Line: layer=0 line=32
G00 X68.4058 Y130.8001 Z2    F2100
G01 X68.4058 Y130.8001 Z-0 F210
G01 X65.8077 Y132.3001 Z-0 F720
G01 X63.2097 Y130.8001 Z-0 F720
G01 X63.2097 Y129.3001 Z-0 F720
G01 X64.5087 Y128.5501 Z-0 F720
G01 X64.5087 Y127.8001 Z-0 F720
G00 X64.5087 Y127.8001 Z2    F500

;Begin Line: layer=0 line=33
G00 X64.5087 Y128.5501 Z2    F2100
G01 X64.5087 Y128.5501 Z-0 F210
G01 X65.1582 Y128.9251 Z-0 F720
G00 X65.1582 Y128.9251 Z2    F500

;Begin Line: layer=0 line=34
G00 X63.2097 Y129.3001 Z2    F2100
G01 X63.2097 Y129.3001 Z-0 F210
G01 X62.5601 Y128.9251 Z-0 F720
G00 X62.5601 Y128.9251 Z2    F500

;Begin Line: layer=0 line=35
G00 X61.2611 Y130.4251 Z2    F2100
G01 X61.2611 Y130.4251 Z-0 F210
G01 X61.2611 Y131.1751 Z-0 F720
G01 X61.9106 Y131.5501 Z-0 F720
G00 X61.9106 Y131.5501 Z2    F500

;Begin Line: layer=0 line=36
G00 X61.9106 Y132.3001 Z2    F2100
G01 X61.9106 Y132.3001 Z-0 F210
G01 X61.9106 Y131.5501 Z-0 F720
G01 X63.2097 Y130.8001 Z-0 F720
G00 X63.2097 Y130.8001 Z2    F500

;Begin Line: layer=0 line=37
G00 X63.8592 Y133.4251 Z2    F2100
G01 X63.8592 Y133.4251 Z-0 F210
G01 X63.8592 Y134.1751 Z-0 F720
G00 X63.8592 Y134.1751 Z2    F500

;Begin Line: layer=0 line=38
G00 X64.5087 Y134.5501 Z2    F2100
G01 X64.5087 Y134.5501 Z-0 F210
G01 X63.8592 Y134.1751 Z-0 F720
G01 X63.2097 Y134.5501 Z-0 F720
G01 X62.5601 Y134.1751 Z-0 F720
G00 X62.5601 Y134.1751 Z2    F500

;Begin Line: layer=0 line=39
G00 X63.2097 Y135.3001 Z2    F2100
G01 X63.2097 Y135.3001 Z-0 F210
G01 X64.5087 Y136.0501 Z-0 F720
G00 X64.5087 Y136.0501 Z2    F500

;Begin Line: layer=0 line=40
G00 X63.8592 Y135.6751 Z2    F2100
G01 X63.8592 Y135.6751 Z-0 F210
G01 X64.5087 Y135.3001 Z-0 F720
G01 X64.5087 Y134.5501 Z-0 F720
G01 X65.8077 Y133.8001 Z-0 F720
G00 X65.8077 Y133.8001 Z2    F500

;Begin Line: layer=0 line=41
G00 X65.8077 Y134.5501 Z2    F2100
G01 X65.8077 Y134.5501 Z-0 F210
G01 X66.4573 Y134.1751 Z-0 F720
G01 X66.4573 Y133.4251 Z-0 F720
G00 X66.4573 Y133.4251 Z2    F500

;Begin Line: layer=0 line=42
G00 X66.4573 Y132.6751 Z2    F2100
G01 X66.4573 Y132.6751 Z-0 F210
G01 X65.8077 Y133.0501 Z-0 F720
G00 X65.8077 Y133.0501 Z2    F500

;Begin Line: layer=0 line=43
G00 X65.1582 Y134.1751 Z2    F2100
G01 X65.1582 Y134.1751 Z-0 F210
G01 X65.8077 Y134.5501 Z-0 F720
G01 X65.8077 Y135.3001 Z-0 F720
G00 X65.8077 Y135.3001 Z2    F500

;Begin Line: layer=0 line=44
G00 X66.4573 Y135.6751 Z2    F2100
G01 X66.4573 Y135.6751 Z-0 F210
G01 X66.4573 Y136.4251 Z-0 F720
G01 X65.8077 Y136.8001 Z-0 F720
G00 X65.8077 Y136.8001 Z2    F500

;Begin Line: layer=0 line=45
G00 X65.8077 Y137.5501 Z2    F2100
G01 X65.8077 Y137.5501 Z-0 F210
G01 X65.1582 Y137.9251 Z-0 F720
G00 X65.1582 Y137.9251 Z2    F500

;Begin Line: layer=0 line=46
G00 X64.5087 Y137.5501 Z2    F2100
G01 X64.5087 Y137.5501 Z-0 F210
G01 X64.5087 Y139.0501 Z-0 F720
G01 X63.2097 Y139.8001 Z-0 F720
G01 X61.9106 Y139.0501 Z-0 F720
G00 X61.9106 Y139.0501 Z2    F500

;Begin Line: layer=0 line=47
G00 X61.9106 Y137.5501 Z2    F2100
G01 X61.9106 Y137.5501 Z-0 F210
G01 X60.6116 Y136.8001 Z-0 F720
G00 X60.6116 Y136.8001 Z2    F500

;Begin Line: layer=0 line=48
G00 X63.2097 Y136.8001 Z2    F2100
G01 X63.2097 Y136.8001 Z-0 F210
G01 X63.2097 Y133.8001 Z-0 F720
G01 X60.6116 Y132.3001 Z-0 F720
G01 X59.3125 Y133.0501 Z-0 F720
G00 X59.3125 Y133.0501 Z2    F500

;Begin Line: layer=0 line=49
G00 X60.6116 Y132.3001 Z2    F2100
G01 X60.6116 Y132.3001 Z-0 F210
G01 X60.6116 Y130.8001 Z-0 F720
G01 X59.9621 Y130.4251 Z-0 F720
G00 X59.9621 Y130.4251 Z2    F500

;Begin Line: layer=0 line=50
G00 X54.7659 Y127.4251 Z2    F2100
G01 X54.7659 Y127.4251 Z-0 F210
G01 X54.1164 Y127.0501 Z-0 F720
G00 X54.1164 Y127.0501 Z2    F500

;Begin Line: layer=0 line=51
G00 X53.4669 Y128.1751 Z2    F2100
G01 X53.4669 Y128.1751 Z-0 F210
G01 X53.4669 Y127.4251 Z-0 F720
G01 X54.1164 Y127.0501 Z-0 F720
G01 X54.1164 Y125.5501 Z-0 F720
G01 X52.8173 Y124.8001 Z-0 F720
G00 X52.8173 Y124.8001 Z2    F500

;Begin Line: layer=0 line=52
G00 X52.8173 Y121.8001 Z2    F2100
G01 X52.8173 Y121.8001 Z-0 F210
G01 X52.8173 Y124.8001 Z-0 F720
G01 X50.2193 Y126.3001 Z-0 F720
G01 X48.9202 Y125.5501 Z-0 F720
G00 X48.9202 Y125.5501 Z2    F500

;Begin Line: layer=0 line=53
G00 X50.2193 Y126.3001 Z2    F2100
G01 X50.2193 Y126.3001 Z-0 F210
G01 X50.2193 Y127.8001 Z-0 F720
G01 X50.8688 Y128.1751 Z-0 F720
G01 X51.5183 Y127.8001 Z-0 F720
G00 X51.5183 Y127.8001 Z2    F500

;Begin Line: layer=0 line=54
G00 X52.7673 Y121.8867 Z2    F2100
G01 X52.7673 Y121.8867 Z-0 F210
G01 X47.5712 Y118.8867 Z-0 F720
G01 X47.5346 Y118.7501 Z-0 F720
G01 X47.6712 Y118.7135 Z-0 F720
G01 X52.8674 Y121.7135 Z-0 F720
G01 X52.9039 Y121.8501 Z-0 F720
G01 X52.7673 Y121.8867 Z-0 F720
G00 X52.7673 Y121.8867 Z2    F500

;Begin Line: layer=0 line=55
G00 X45.6726 Y116.1751 Z2    F2100
G01 X45.6726 Y116.1751 Z-0 F210
G01 X45.6726 Y115.4251 Z-0 F720
G01 X46.3221 Y115.0501 Z-0 F720
G01 X47.6212 Y115.8001 Z-0 F720
G01 X47.6212 Y118.8001 Z-0 F720
G01 X45.0231 Y120.3001 Z-0 F720
G01 X43.7241 Y119.5501 Z-0 F720
G01 X42.4250 Y120.3001 Z-0 F720
G01 X42.4250 Y121.8001 Z-0 F720
G00 X42.4250 Y121.8001 Z2    F500

;Begin Line: layer=0 line=56
G00 X46.9717 Y109.4251 Z2    F2100
G01 X46.9717 Y109.4251 Z-0 F210
G01 X47.6212 Y109.0501 Z-0 F720
G01 X47.6212 Y108.3000 Z-0 F720
G01 X48.9202 Y107.5501 Z-0 F720
G01 X50.2193 Y108.3000 Z-0 F720
G00 X50.2193 Y108.3000 Z2    F500

;Begin Line: layer=0 line=57
G00 X48.9202 Y107.5501 Z2    F2100
G01 X48.9202 Y107.5501 Z-0 F210
G01 X48.9202 Y106.8000 Z-0 F720
G00 X48.9202 Y106.8000 Z2    F500

;Begin Line: layer=0 line=58
G00 X46.9717 Y106.4251 Z2    F2100
G01 X46.9717 Y106.4251 Z-0 F210
G01 X46.3221 Y106.8000 Z-0 F720
G01 X46.3221 Y107.5501 Z-0 F720
G01 X47.6212 Y108.3000 Z-0 F720
G00 X47.6212 Y108.3000 Z2    F500

;Begin Line: layer=0 line=59
G00 X46.3221 Y106.8000 Z2    F2100
G01 X46.3221 Y106.8000 Z-0 F210
G01 X45.6726 Y106.4251 Z-0 F720
G00 X45.6726 Y106.4251 Z2    F500

;Begin Line: layer=0 line=60
G00 X51.5183 Y110.5501 Z2    F2100
G01 X51.5183 Y110.5501 Z-0 F210
G01 X50.2193 Y109.8001 Z-0 F720
G01 X50.2193 Y108.3000 Z-0 F720
G01 X52.8173 Y106.8000 Z-0 F720
G00 X52.8173 Y106.8000 Z2    F500

;Begin Line: layer=0 line=61
G00 X52.8173 Y105.3001 Z2    F2100
G01 X52.8173 Y105.3001 Z-0 F210
G01 X53.4669 Y104.9250 Z-0 F720
G01 X54.1164 Y105.3001 Z-0 F720
G00 X54.1164 Y105.3001 Z2    F500

;Begin Line: layer=0 line=62
G00 X52.8173 Y103.8001 Z2    F2100
G01 X52.8173 Y103.8001 Z-0 F210
G01 X55.4154 Y102.3001 Z-0 F720
G00 X55.4154 Y102.3001 Z2    F500

;Begin Line: layer=0 line=63
G00 X55.4154 Y100.8001 Z2    F2100
G01 X55.4154 Y100.8001 Z-0 F210
G01 X55.4154 Y99.3001 Z-0 F720
G00 X55.4154 Y99.3001 Z2    F500

;Begin Line: layer=0 line=64
G00 X54.7659 Y100.4251 Z2    F2100
G01 X54.7659 Y100.4251 Z-0 F210
G01 X55.4154 Y100.8001 Z-0 F720
G01 X56.0649 Y100.4251 Z-0 F720
G00 X56.0649 Y100.4251 Z2    F500

;Begin Line: layer=0 line=65
G00 X58.0135 Y100.8001 Z2    F2100
G01 X58.0135 Y100.8001 Z-0 F210
G01 X56.7144 Y101.5500 Z-0 F720
G01 X55.4154 Y100.8001 Z-0 F720
G01 X55.4154 Y102.3001 Z-0 F720
G01 X58.0135 Y103.8001 Z-0 F720
G01 X60.6116 Y102.3001 Z-0 F720
G00 X60.6116 Y102.3001 Z2    F500

;Begin Line: layer=0 line=66
G00 X62.5601 Y103.4250 Z2    F2100
G01 X62.5601 Y103.4250 Z-0 F210
G01 X62.5601 Y104.1751 Z-0 F720
G01 X61.9106 Y104.5501 Z-0 F720
G01 X61.9106 Y106.0501 Z-0 F720
G00 X61.9106 Y106.0501 Z2    F500

;Begin Line: layer=0 line=67
G00 X61.2611 Y106.4251 Z2    F2100
G01 X61.2611 Y106.4251 Z-0 F210
