;Generated with vpype gwrite fabian
;generation/trees/hex1.svg.gcode
G90
G92 X0 Y0 Z0
G00 X0 Y0 Z0 F2100
G00 X0 Y0 Z5 F500

;Begin Line: layer=0 line=0
G00 X78.1486 Y109.5001 Z2    F2100
G01 X78.1486 Y109.5001 Z-0 F210
G01 X78.2986 Y109.6501 Z-0 F720
G01 X78.2986 Y121.6501 Z-0 F720
G01 X78.1486 Y121.8001 Z-0 F720
G01 X77.9986 Y121.6501 Z-0 F720
G01 X77.9986 Y109.6501 Z-0 F720
G01 X78.1486 Y109.5001 Z-0 F720
G00 X78.1486 Y109.5001 Z2    F500

;Begin Line: layer=0 line=1
G00 X67.8313 Y103.5202 Z2    F2100
G01 X67.8313 Y103.5202 Z-0 F210
G01 X78.2236 Y109.5201 Z-0 F720
G01 X78.2785 Y109.7251 Z-0 F720
G01 X78.0736 Y109.7800 Z-0 F720
G01 X67.6813 Y103.7800 Z-0 F720
G01 X67.6264 Y103.5751 Z-0 F720
G01 X67.8313 Y103.5202 Z-0 F720
G00 X67.8313 Y103.5202 Z2    F500

;Begin Line: layer=0 line=2
G00 X88.4659 Y103.5202 Z2    F2100
G01 X88.4659 Y103.5202 Z-0 F210
G01 X88.6708 Y103.5751 Z-0 F720
G01 X88.6159 Y103.7800 Z-0 F720
G01 X78.2236 Y109.7800 Z-0 F720
G01 X78.0187 Y109.7251 Z-0 F720
G01 X78.0736 Y109.5201 Z-0 F720
G01 X88.4659 Y103.5202 Z-0 F720
G00 X88.4659 Y103.5202 Z2    F500

;Begin Line: layer=0 line=3
G00 X77.9236 Y110.0398 Z2    F2100
G01 X77.9236 Y110.0398 Z-0 F210
G01 X67.5313 Y104.0398 Z-0 F720
G01 X67.3334 Y103.8040 Z-0 F720
G01 X67.3666 Y103.4250 Z-0 F720
G01 X67.6782 Y103.2069 Z-0 F720
G01 X67.9813 Y103.2603 Z-0 F720
G01 X78.3736 Y109.2604 Z-0 F720
G01 X78.5714 Y109.4962 Z-0 F720
G01 X78.5383 Y109.8751 Z-0 F720
G01 X78.2268 Y110.0932 Z-0 F720
G01 X77.9236 Y110.0398 Z-0 F720
G00 X77.9236 Y110.0398 Z2    F500

;Begin Line: layer=0 line=4
G00 X83.3447 Y109.6501 Z2    F2100
G01 X83.3447 Y109.6501 Z-0 F210
G01 X83.3447 Y106.6501 Z-0 F720
G00 X83.3447 Y106.6501 Z2    F500

;Begin Line: layer=0 line=5
G00 X78.0736 Y103.7800 Z2    F2100
G01 X78.0736 Y103.7800 Z-0 F210
G01 X78.0187 Y103.5751 Z-0 F720
G01 X78.2236 Y103.5202 Z-0 F720
G01 X83.4198 Y106.5201 Z-0 F720
G01 X83.4747 Y106.7251 Z-0 F720
G01 X83.2698 Y106.7800 Z-0 F720
G01 X78.0736 Y103.7800 Z-0 F720
G00 X78.0736 Y103.7800 Z2    F500

;Begin Line: layer=0 line=6
G00 X84.6438 Y106.6501 Z2    F2100
G01 X84.6438 Y106.6501 Z-0 F210
G01 X84.6438 Y105.9001 Z-0 F720
G01 X85.9428 Y105.1501 Z-0 F720
G01 X88.5409 Y106.6501 Z-0 F720
G00 X88.5409 Y106.6501 Z2    F500

;Begin Line: layer=0 line=7
G00 X88.2517 Y91.3053 Z2    F2100
G01 X88.2517 Y91.3053 Z-0 F210
G01 X88.5409 Y91.2000 Z-0 F720
G01 X88.8302 Y91.3053 Z-0 F720
G01 X88.9909 Y91.6500 Z-0 F720
G01 X88.9909 Y103.6500 Z-0 F720
G01 X88.8302 Y103.9948 Z-0 F720
G01 X88.5409 Y104.1001 Z-0 F720
G01 X88.2517 Y103.9948 Z-0 F720
G01 X88.0909 Y103.6500 Z-0 F720
G01 X88.0909 Y91.6500 Z-0 F720
G01 X88.2517 Y91.3053 Z-0 F720
G00 X88.2517 Y91.3053 Z2    F500

;Begin Line: layer=0 line=8
G00 X78.3736 Y110.0398 Z2    F2100
G01 X78.3736 Y110.0398 Z-0 F210
G01 X78.0705 Y110.0932 Z-0 F720
G01 X77.7589 Y109.8751 Z-0 F720
G01 X77.7257 Y109.4962 Z-0 F720
G01 X77.9236 Y109.2604 Z-0 F720
G01 X88.3159 Y103.2603 Z-0 F720
G01 X88.6191 Y103.2069 Z-0 F720
G01 X88.9306 Y103.4250 Z-0 F720
G01 X88.9638 Y103.8040 Z-0 F720
G01 X88.7659 Y104.0398 Z-0 F720
G01 X78.3736 Y110.0398 Z-0 F720
G00 X78.3736 Y110.0398 Z2    F500

;Begin Line: layer=0 line=9
G00 X89.1904 Y103.2751 Z2    F2100
G01 X89.1904 Y103.2751 Z-0 F210
G01 X88.5409 Y102.9001 Z-0 F720
G01 X88.5409 Y102.1500 Z-0 F720
G01 X89.8400 Y101.4001 Z-0 F720
G01 X91.1390 Y102.1500 Z-0 F720
G00 X91.1390 Y102.1500 Z2    F500

;Begin Line: layer=0 line=10
G00 X89.8400 Y101.4001 Z2    F2100
G01 X89.8400 Y101.4001 Z-0 F210
G01 X89.8400 Y100.6500 Z-0 F720
G01 X89.1904 Y100.2750 Z-0 F720
G01 X89.1904 Y99.5251 Z-0 F720
G00 X89.1904 Y99.5251 Z2    F500

;Begin Line: layer=0 line=11
G00 X88.5409 Y100.6500 Z2    F2100
G01 X88.5409 Y100.6500 Z-0 F210
G01 X85.9428 Y102.1500 Z-0 F720
G00 X85.9428 Y102.1500 Z2    F500

;Begin Line: layer=0 line=12
G00 X87.2419 Y101.4001 Z2    F2100
G01 X87.2419 Y101.4001 Z-0 F210
G01 X88.5409 Y102.1500 Z-0 F720
G00 X88.5409 Y102.1500 Z2    F500

;Begin Line: layer=0 line=13
G00 X89.8400 Y100.6500 Z2    F2100
G01 X89.8400 Y100.6500 Z-0 F210
G01 X90.4895 Y100.2750 Z-0 F720
G01 X90.4895 Y99.5251 Z-0 F720
G01 X91.1390 Y99.1501 Z-0 F720
G00 X91.1390 Y99.1501 Z2    F500

;Begin Line: layer=0 line=14
G00 X90.4895 Y100.2750 Z2    F2100
G01 X90.4895 Y100.2750 Z-0 F210
G01 X91.1390 Y100.6500 Z-0 F720
G00 X91.1390 Y100.6500 Z2    F500

;Begin Line: layer=0 line=15
G00 X92.4380 Y101.4001 Z2    F2100
G01 X92.4380 Y101.4001 Z-0 F210
G01 X92.4380 Y102.9001 Z-0 F720
G00 X92.4380 Y102.9001 Z2    F500

;Begin Line: layer=0 line=16
G00 X93.7371 Y103.6500 Z2    F2100
G01 X93.7371 Y103.6500 Z-0 F210
G01 X92.4380 Y102.9001 Z-0 F720
G01 X91.7885 Y103.2751 Z-0 F720
G01 X91.7885 Y104.0251 Z-0 F720
G01 X92.4380 Y104.4001 Z-0 F720
G00 X92.4380 Y104.4001 Z2    F500

;Begin Line: layer=0 line=17
G00 X93.0876 Y105.5250 Z2    F2100
G01 X93.0876 Y105.5250 Z-0 F210
G01 X92.4380 Y105.9001 Z-0 F720
G00 X92.4380 Y105.9001 Z2    F500

;Begin Line: layer=0 line=18
G00 X91.1390 Y105.1501 Z2    F2100
G01 X91.1390 Y105.1501 Z-0 F210
G01 X92.4380 Y105.9001 Z-0 F720
G01 X92.4380 Y107.4001 Z-0 F720
G01 X91.7885 Y107.7751 Z-0 F720
G01 X91.7885 Y108.5251 Z-0 F720
G00 X91.7885 Y108.5251 Z2    F500

;Begin Line: layer=0 line=19
G00 X93.7371 Y109.6501 Z2    F2100
G01 X93.7371 Y109.6501 Z-0 F210
G01 X91.1390 Y111.1501 Z-0 F720
G01 X88.5409 Y109.6501 Z-0 F720
G01 X87.2419 Y110.4000 Z-0 F720
G01 X86.5924 Y110.0251 Z-0 F720
G00 X86.5924 Y110.0251 Z2    F500

;Begin Line: layer=0 line=20
G00 X87.2419 Y110.4000 Z2    F2100
G01 X87.2419 Y110.4000 Z-0 F210
G01 X87.2419 Y111.1501 Z-0 F720
G00 X87.2419 Y111.1501 Z2    F500

;Begin Line: layer=0 line=21
G00 X88.5409 Y109.6501 Z2    F2100
G01 X88.5409 Y109.6501 Z-0 F210
G01 X88.5409 Y106.6501 Z-0 F720
G01 X91.1390 Y105.1501 Z-0 F720
G01 X91.1390 Y102.1500 Z-0 F720
G01 X93.7371 Y100.6500 Z-0 F720
G00 X93.7371 Y100.6500 Z2    F500

;Begin Line: layer=0 line=22
G00 X93.7371 Y99.1501 Z2    F2100
G01 X93.7371 Y99.1501 Z-0 F210
G01 X94.3866 Y98.7750 Z-0 F720
G01 X95.0361 Y99.1501 Z-0 F720
G01 X95.0361 Y99.9001 Z-0 F720
G00 X95.0361 Y99.9001 Z2    F500

;Begin Line: layer=0 line=23
G00 X94.3866 Y98.7750 Z2    F2100
G01 X94.3866 Y98.7750 Z-0 F210
G01 X94.3866 Y98.0251 Z-0 F720
G01 X95.0361 Y97.6501 Z-0 F720
G00 X95.0361 Y97.6501 Z2    F500

;Begin Line: layer=0 line=24
G00 X92.4380 Y98.4001 Z2    F2100
G01 X92.4380 Y98.4001 Z-0 F210
G01 X93.7371 Y99.1501 Z-0 F720
G01 X93.7371 Y100.6500 Z-0 F720
G01 X95.0361 Y101.4001 Z-0 F720
G01 X95.6856 Y101.0251 Z-0 F720
G01 X95.0361 Y101.4001 Z-0 F720
G01 X95.0361 Y102.9001 Z-0 F720
G01 X96.3351 Y103.6500 Z-0 F720
G01 X96.3351 Y105.1501 Z-0 F720
G01 X93.7371 Y106.6501 Z-0 F720
G01 X93.7371 Y109.6501 Z-0 F720
G01 X96.3351 Y111.1501 Z-0 F720
G01 X97.6342 Y110.4000 Z-0 F720
G01 X97.6342 Y109.6501 Z-0 F720
G00 X97.6342 Y109.6501 Z2    F500

;Begin Line: layer=0 line=25
G00 X96.9847 Y109.2751 Z2    F2100
G01 X96.9847 Y109.2751 Z-0 F210
G01 X97.6342 Y108.9001 Z-0 F720
G01 X97.6342 Y108.1501 Z-0 F720
G01 X98.2837 Y107.7751 Z-0 F720
G00 X98.2837 Y107.7751 Z2    F500

;Begin Line: layer=0 line=26
G00 X98.9332 Y108.1501 Z2    F2100
G01 X98.9332 Y108.1501 Z-0 F210
G01 X98.2837 Y107.7751 Z-0 F720
G01 X98.2837 Y107.0250 Z-0 F720
G01 X97.6342 Y106.6501 Z-0 F720
G01 X97.6342 Y105.9001 Z-0 F720
G00 X97.6342 Y105.9001 Z2    F500

;Begin Line: layer=0 line=27
G00 X98.2837 Y105.5250 Z2    F2100
G01 X98.2837 Y105.5250 Z-0 F210
G01 X98.2837 Y104.7751 Z-0 F720
G01 X97.6342 Y104.4001 Z-0 F720
G00 X97.6342 Y104.4001 Z2    F500

;Begin Line: layer=0 line=28
G00 X98.2837 Y104.7751 Z2    F2100
G01 X98.2837 Y104.7751 Z-0 F210
G01 X98.9332 Y104.4001 Z-0 F720
G01 X98.9332 Y103.6500 Z-0 F720
G00 X98.9332 Y103.6500 Z2    F500

;Begin Line: layer=0 line=29
G00 X98.2837 Y104.0251 Z2    F2100
G01 X98.2837 Y104.0251 Z-0 F210
G01 X98.2837 Y103.2751 Z-0 F720
G01 X97.6342 Y102.9001 Z-0 F720
G01 X96.3351 Y103.6500 Z-0 F720
G00 X96.3351 Y103.6500 Z2    F500

;Begin Line: layer=0 line=30
G00 X96.3351 Y105.1501 Z2    F2100
G01 X96.3351 Y105.1501 Z-0 F210
G01 X97.6342 Y105.9001 Z-0 F720
G01 X98.2837 Y105.5250 Z-0 F720
G01 X98.9332 Y105.9001 Z-0 F720
G00 X98.9332 Y105.9001 Z2    F500

;Begin Line: layer=0 line=31
G00 X97.6342 Y106.6501 Z2    F2100
G01 X97.6342 Y106.6501 Z-0 F210
G01 X96.9847 Y107.0250 Z-0 F720
G00 X96.9847 Y107.0250 Z2    F500

;Begin Line: layer=0 line=32
G00 X93.8121 Y106.5201 Z2    F2100
G01 X93.8121 Y106.5201 Z-0 F210
G01 X93.8670 Y106.7251 Z-0 F720
G01 X93.6621 Y106.7800 Z-0 F720
G01 X88.4659 Y103.7800 Z-0 F720
G01 X88.4110 Y103.5751 Z-0 F720
G01 X88.6159 Y103.5202 Z-0 F720
G01 X93.8121 Y106.5201 Z-0 F720
G00 X93.8121 Y106.5201 Z2    F500

;Begin Line: layer=0 line=33
G00 X93.7371 Y105.1501 Z2    F2100
G01 X93.7371 Y105.1501 Z-0 F210
G01 X93.7371 Y103.6500 Z-0 F720
G01 X95.0361 Y102.9001 Z-0 F720
G00 X95.0361 Y102.9001 Z2    F500

;Begin Line: layer=0 line=34
G00 X101.5313 Y99.1501 Z2    F2100
G01 X101.5313 Y99.1501 Z-0 F210
G01 X101.5313 Y96.1501 Z-0 F720
G01 X98.9332 Y94.6501 Z-0 F720
G01 X98.9332 Y91.6500 Z-0 F720
G01 X101.5313 Y90.1500 Z-0 F720
G01 X101.5313 Y88.6500 Z-0 F720
G00 X101.5313 Y88.6500 Z2    F500

;Begin Line: layer=0 line=35
G00 X101.5313 Y87.1500 Z2    F2100
G01 X101.5313 Y87.1500 Z-0 F210
G01 X104.1294 Y85.6500 Z-0 F720
G01 X104.1294 Y82.6501 Z-0 F720
G00 X104.1294 Y82.6501 Z2    F500

;Begin Line: layer=0 line=36
G00 X104.1294 Y85.6500 Z2    F2100
G01 X104.1294 Y85.6500 Z-0 F210
G01 X105.4284 Y86.4001 Z-0 F720
G00 X105.4284 Y86.4001 Z2    F500

;Begin Line: layer=0 line=37
G00 X98.8582 Y85.7799 Z2    F2100
G01 X98.8582 Y85.7799 Z-0 F210
G01 X98.8033 Y85.5751 Z-0 F720
G01 X99.0082 Y85.5202 Z-0 F720
G01 X104.2044 Y88.5201 Z-0 F720
G01 X104.2593 Y88.7251 Z-0 F720
G01 X104.0544 Y88.7800 Z-0 F720
G01 X98.8582 Y85.7799 Z-0 F720
G00 X98.8582 Y85.7799 Z2    F500

;Begin Line: layer=0 line=38
G00 X104.1294 Y88.6500 Z2    F2100
G01 X104.1294 Y88.6500 Z-0 F210
G01 X104.1294 Y91.6500 Z-0 F720
G00 X104.1294 Y91.6500 Z2    F500

;Begin Line: layer=0 line=39
G00 X103.4799 Y89.0250 Z2    F2100
G01 X103.4799 Y89.0250 Z-0 F210
G01 X104.1294 Y89.4001 Z-0 F720
G01 X104.1294 Y90.1500 Z-0 F720
G01 X102.8303 Y90.9001 Z-0 F720
G01 X101.5313 Y90.1500 Z-0 F720
G00 X101.5313 Y90.1500 Z2    F500

;Begin Line: layer=0 line=40
G00 X98.4832 Y85.6500 Z2    F2100
G01 X98.4832 Y85.6500 Z-0 F210
G01 X98.4832 Y73.6500 Z-0 F720
G01 X98.5885 Y73.3608 Z-0 F720
G01 X98.9332 Y73.2000 Z-0 F720
G01 X99.2225 Y73.3053 Z-0 F720
G01 X99.3832 Y73.6500 Z-0 F720
G01 X99.3832 Y85.6500 Z-0 F720
G01 X99.2225 Y85.9948 Z-0 F720
G01 X98.9332 Y86.1000 Z-0 F720
G01 X98.6440 Y85.9948 Z-0 F720
G01 X98.4832 Y85.6500 Z-0 F720
G00 X98.4832 Y85.6500 Z2    F500

;Begin Line: layer=0 line=41
G00 X99.0832 Y73.6500 Z2    F2100
G01 X99.0832 Y73.6500 Z-0 F210
G01 X99.0832 Y85.6500 Z-0 F720
G01 X98.9332 Y85.8001 Z-0 F720
G01 X98.7832 Y85.6500 Z-0 F720
G01 X98.7832 Y73.6500 Z-0 F720
G01 X98.9332 Y73.5000 Z-0 F720
G01 X99.0832 Y73.6500 Z-0 F720
G00 X99.0832 Y73.6500 Z2    F500

;Begin Line: layer=0 line=42
G00 X93.7371 Y85.6500 Z2    F2100
G01 X93.7371 Y85.6500 Z-0 F210
G01 X96.3351 Y84.1500 Z-0 F720
G01 X96.3351 Y81.1501 Z-0 F720
G01 X97.6342 Y80.4000 Z-0 F720
G00 X97.6342 Y80.4000 Z2    F500

;Begin Line: layer=0 line=43
G00 X91.1390 Y84.1500 Z2    F2100
G01 X91.1390 Y84.1500 Z-0 F210
G01 X91.1390 Y81.1501 Z-0 F720
G01 X88.5409 Y79.6501 Z-0 F720
G00 X88.5409 Y79.6501 Z2    F500

;Begin Line: layer=0 line=44
G00 X87.2419 Y80.4000 Z2    F2100
G01 X87.2419 Y80.4000 Z-0 F210
G01 X85.9428 Y81.1501 Z-0 F720
G01 X85.9428 Y84.1500 Z-0 F720
G00 X85.9428 Y84.1500 Z2    F500

;Begin Line: layer=0 line=45
G00 X85.9428 Y81.1501 Z2    F2100
G01 X85.9428 Y81.1501 Z-0 F210
G01 X83.3447 Y79.6501 Z-0 F720
G01 X82.0457 Y80.4000 Z-0 F720
G00 X82.0457 Y80.4000 Z2    F500

;Begin Line: layer=0 line=46
G00 X78.1486 Y82.6501 Z2    F2100
G01 X78.1486 Y82.6501 Z-0 F210
G01 X75.5505 Y81.1501 Z-0 F720
G01 X72.9524 Y82.6501 Z-0 F720
G01 X70.3544 Y81.1501 Z-0 F720
G01 X70.3544 Y78.1500 Z-0 F720
G01 X71.6534 Y78.9000 Z-0 F720
G01 X71.6534 Y80.4000 Z-0 F720
G01 X72.3029 Y80.7750 Z-0 F720
G01 X72.3029 Y81.5250 Z-0 F720
G00 X72.3029 Y81.5250 Z2    F500

;Begin Line: layer=0 line=47
G00 X72.8024 Y82.6501 Z2    F2100
G01 X72.8024 Y82.6501 Z-0 F210
G01 X72.9524 Y82.5000 Z-0 F720
G01 X73.1025 Y82.6501 Z-0 F720
G01 X73.1025 Y88.6500 Z-0 F720
G01 X72.9524 Y88.8000 Z-0 F720
G01 X72.8024 Y88.6500 Z-0 F720
G01 X72.8024 Y82.6501 Z-0 F720
G00 X72.8024 Y82.6501 Z2    F500

;Begin Line: layer=0 line=48
G00 X75.5505 Y81.1501 Z2    F2100
G01 X75.5505 Y81.1501 Z-0 F210
G01 X75.5505 Y79.6501 Z-0 F720
G01 X74.9010 Y79.2750 Z-0 F720
G00 X74.9010 Y79.2750 Z2    F500

;Begin Line: layer=0 line=49
G00 X75.5505 Y79.6501 Z2    F2100
G01 X75.5505 Y79.6501 Z-0 F210
G01 X76.2000 Y79.2750 Z-0 F720
G01 X76.2000 Y78.5250 Z-0 F720
G00 X76.2000 Y78.5250 Z2    F500

;Begin Line: layer=0 line=50
G00 X76.8496 Y81.9000 Z2    F2100
G01 X76.8496 Y81.9000 Z-0 F210
G01 X76.2000 Y82.2750 Z-0 F720
G01 X76.2000 Y83.0251 Z-0 F720
G00 X76.2000 Y83.0251 Z2    F500

;Begin Line: layer=0 line=51
G00 X76.8496 Y83.4000 Z2    F2100
G01 X76.8496 Y83.4000 Z-0 F210
G01 X76.2000 Y83.0251 Z-0 F720
G01 X75.5505 Y83.4000 Z-0 F720
G01 X75.5505 Y84.1500 Z-0 F720
G01 X76.8496 Y84.9000 Z-0 F720
G01 X78.1486 Y84.1500 Z-0 F720
G01 X79.4476 Y84.9000 Z-0 F720
G01 X80.7467 Y84.1500 Z-0 F720
G01 X83.3447 Y85.6500 Z-0 F720
G01 X85.9428 Y84.1500 Z-0 F720
G01 X88.5409 Y85.6500 Z-0 F720
G01 X91.1390 Y84.1500 Z-0 F720
G01 X93.7371 Y85.6500 Z-0 F720
G01 X93.7371 Y88.6500 Z-0 F720
G00 X93.7371 Y88.6500 Z2    F500

;Begin Line: layer=0 line=52
G00 X99.0631 Y91.7251 Z2    F2100
G01 X99.0631 Y91.7251 Z-0 F210
G01 X98.8582 Y91.7800 Z-0 F720
G01 X93.6621 Y88.7800 Z-0 F720
G01 X93.6072 Y88.5751 Z-0 F720
G01 X93.8121 Y88.5201 Z-0 F720
G01 X99.0082 Y91.5201 Z-0 F720
G01 X99.0631 Y91.7251 Z-0 F720
G00 X99.0631 Y91.7251 Z2    F500

;Begin Line: layer=0 line=53
G00 X93.6621 Y88.5201 Z2    F2100
G01 X93.6621 Y88.5201 Z-0 F210
G01 X93.8670 Y88.5751 Z-0 F720
G01 X93.8121 Y88.7800 Z-0 F720
G01 X88.6159 Y91.7800 Z-0 F720
G01 X88.4110 Y91.7251 Z-0 F720
G01 X88.4659 Y91.5201 Z-0 F720
G01 X93.6621 Y88.5201 Z-0 F720
G00 X93.6621 Y88.5201 Z2    F500

;Begin Line: layer=0 line=54
G00 X88.5409 Y91.5001 Z2    F2100
G01 X88.5409 Y91.5001 Z-0 F210
G01 X88.6909 Y91.6500 Z-0 F720
G01 X88.6909 Y103.6500 Z-0 F720
G01 X88.5409 Y103.8001 Z-0 F720
G01 X88.3909 Y103.6500 Z-0 F720
G01 X88.3909 Y91.6500 Z-0 F720
G01 X88.5409 Y91.5001 Z-0 F720
G00 X88.5409 Y91.5001 Z2    F500

;Begin Line: layer=0 line=55
G00 X88.6159 Y91.5201 Z2    F2100
G01 X88.6159 Y91.5201 Z-0 F210
G01 X88.6708 Y91.7251 Z-0 F720
G01 X88.4659 Y91.7800 Z-0 F720
G01 X78.0736 Y85.7799 Z-0 F720
G01 X78.0187 Y85.5751 Z-0 F720
G01 X78.2236 Y85.5202 Z-0 F720
G01 X88.6159 Y91.5201 Z-0 F720
G00 X88.6159 Y91.5201 Z2    F500

;Begin Line: layer=0 line=56
G00 X83.9943 Y98.7750 Z2    F2100
G01 X83.9943 Y98.7750 Z-0 F210
G01 X83.3447 Y99.1501 Z-0 F720
G00 X83.3447 Y99.1501 Z2    F500

;Begin Line: layer=0 line=57
G00 X83.3447 Y100.6500 Z2    F2100
G01 X83.3447 Y100.6500 Z-0 F210
G01 X83.3447 Y99.1501 Z-0 F720
G01 X82.0457 Y98.4001 Z-0 F720
G01 X81.3962 Y98.7750 Z-0 F720
G01 X81.3962 Y99.5251 Z-0 F720
G00 X81.3962 Y99.5251 Z2    F500

;Begin Line: layer=0 line=58
G00 X82.6952 Y101.0251 Z2    F2100
G01 X82.6952 Y101.0251 Z-0 F210
G01 X82.0457 Y101.4001 Z-0 F720
G01 X82.0457 Y102.9001 Z-0 F720
G01 X83.3447 Y103.6500 Z-0 F720
G01 X83.3447 Y105.1501 Z-0 F720
G01 X84.6438 Y105.9001 Z-0 F720
G00 X84.6438 Y105.9001 Z2    F500

;Begin Line: layer=0 line=59
G00 X85.9428 Y105.1501 Z2    F2100
G01 X85.9428 Y105.1501 Z-0 F210
G01 X85.9428 Y102.1500 Z-0 F720
G01 X83.3447 Y100.6500 Z-0 F720
G01 X80.7467 Y102.1500 Z-0 F720
G01 X79.4476 Y101.4001 Z-0 F720
G01 X78.1486 Y102.1500 Z-0 F720
G01 X76.8496 Y101.4001 Z-0 F720
G01 X75.5505 Y102.1500 Z-0 F720
G00 X75.5505 Y102.1500 Z2    F500

;Begin Line: layer=0 line=60
G00 X77.9986 Y103.6500 Z2    F2100
G01 X77.9986 Y103.6500 Z-0 F210
G01 X77.9986 Y97.6501 Z-0 F720
