;Generated with vpype gwrite fabian
;crown/0102.svg.gcode
G90
G92 X0 Y0 Z0
G00 X0 Y0 Z0 F2100
G00 X0 Y0 Z5 F500

;Begin Line: layer=0 line=0
G00 X43.9569 Y8.0330 Z2    F2100
G01 X43.9569 Y8.0330 Z-0 F210
G01 X44.4155 Y8.1778 Z-0 F720
G01 X44.7709 Y8.3094 Z-0 F720
G01 X45.0820 Y8.4456 Z-0 F720
G01 X45.3476 Y8.5862 Z-0 F720
G01 X45.5662 Y8.7312 Z-0 F720
G01 X45.7256 Y8.8873 Z-0 F720
G01 X45.8616 Y9.0420 Z-0 F720
G01 X45.9675 Y9.2080 Z-0 F720
G01 X46.0366 Y9.3978 Z-0 F720
G01 X46.1432 Y10.0985 Z-0 F720
G01 X46.3467 Y11.0511 Z-0 F720
G01 X46.5472 Y11.8156 Z-0 F720
G01 X46.7787 Y12.5807 Z-0 F720
G01 X47.0735 Y13.4406 Z-0 F720
G01 X47.4017 Y14.2977 Z-0 F720
G01 X47.7603 Y15.1501 Z-0 F720
G01 X48.1904 Y16.0895 Z-0 F720
G01 X48.6497 Y17.0182 Z-0 F720
G01 X49.1340 Y17.9335 Z-0 F720
G01 X49.6905 Y18.9219 Z-0 F720
G01 X50.2662 Y19.8874 Z-0 F720
G01 X50.8556 Y20.8267 Z-0 F720
G01 X51.5074 Y21.8173 Z-0 F720
G01 X52.2156 Y22.8453 Z-0 F720
G01 X52.9167 Y23.8208 Z-0 F720
G01 X52.4270 Y23.5267 Z-0 F720
G01 X51.8590 Y23.2383 Z-0 F720
G01 X51.4889 Y23.0894 Z-0 F720
G01 X51.0584 Y22.9655 Z-0 F720
G01 X50.7749 Y22.9181 Z-0 F720
G01 X50.4377 Y22.9004 Z-0 F720
G01 X50.1342 Y22.9172 Z-0 F720
G01 X49.5704 Y22.9783 Z-0 F720
G01 X49.2059 Y22.9804 Z-0 F720
G01 X48.8848 Y22.9317 Z-0 F720
G01 X48.4684 Y22.7955 Z-0 F720
G01 X48.4105 Y23.5148 Z-0 F720
G01 X48.6454 Y23.3361 Z-0 F720
G01 X48.9239 Y23.2179 Z-0 F720
G01 X49.1262 Y23.1741 Z-0 F720
G01 X49.3365 Y23.1593 Z-0 F720
G01 X49.6445 Y23.1965 Z-0 F720
G01 X49.9244 Y23.3021 Z-0 F720
G01 X50.0912 Y23.4061 Z-0 F720
G01 X50.2392 Y23.5341 Z-0 F720
G01 X50.3659 Y23.6833 Z-0 F720
G01 X50.4689 Y23.8512 Z-0 F720
G01 X50.5732 Y24.1324 Z-0 F720
G01 X50.6057 Y24.3356 Z-0 F720
G01 X50.6057 Y24.5461 Z-0 F720
G01 X50.5732 Y24.7489 Z-0 F720
G01 X50.4689 Y25.0288 Z-0 F720
G01 X50.3659 Y25.1955 Z-0 F720
G01 X50.1677 Y25.4097 Z-0 F720
G01 X50.0100 Y25.5249 Z-0 F720
G01 X49.8347 Y25.6150 Z-0 F720
G01 X49.5446 Y25.6977 Z-0 F720
G01 X49.3365 Y25.7142 Z-0 F720
G01 X49.1113 Y25.6944 Z-0 F720
G01 X48.9013 Y25.6373 Z-0 F720
G01 X48.7090 Y25.5461 Z-0 F720
G01 X48.5368 Y25.4244 Z-0 F720
G01 X48.3869 Y25.2753 Z-0 F720
G01 X48.2617 Y25.1023 Z-0 F720
G01 X48.1673 Y25.7157 Z-0 F720
G01 X48.0516 Y26.3188 Z-0 F720
G01 X47.9355 Y26.8137 Z-0 F720
G01 X47.7986 Y27.3017 Z-0 F720
G01 X48.0318 Y27.1066 Z-0 F720
G01 X48.2112 Y27.0076 Z-0 F720
G01 X48.4054 Y26.9379 Z-0 F720
G01 X48.6108 Y26.9013 Z-0 F720
G01 X48.8217 Y26.9011 Z-0 F720
G01 X49.0249 Y26.9367 Z-0 F720
G01 X49.2159 Y27.0048 Z-0 F720
G01 X49.3922 Y27.1022 Z-0 F720
G01 X49.5511 Y27.2256 Z-0 F720
G01 X49.7512 Y27.4527 Z-0 F720
G01 X49.8552 Y27.6274 Z-0 F720
G01 X49.9328 Y27.8169 Z-0 F720
G01 X49.9813 Y28.0181 Z-0 F720
G01 X49.9980 Y28.2277 Z-0 F720
G01 X49.9813 Y28.4358 Z-0 F720
G01 X49.8975 Y28.7260 Z-0 F720
G01 X49.8064 Y28.9012 Z-0 F720
G01 X49.6900 Y29.0589 Z-0 F720
G01 X49.4740 Y29.2571 Z-0 F720
G01 X49.3061 Y29.3601 Z-0 F720
G01 X49.0249 Y29.4644 Z-0 F720
G01 X48.8217 Y29.4969 Z-0 F720
G01 X48.6111 Y29.4969 Z-0 F720
G01 X48.4084 Y29.4644 Z-0 F720
G01 X48.2182 Y29.4018 Z-0 F720
G01 X48.0429 Y29.3117 Z-0 F720
G01 X47.8852 Y29.1966 Z-0 F720
G01 X47.6870 Y28.9824 Z-0 F720
G01 X47.5841 Y28.8156 Z-0 F720
G01 X47.5074 Y28.6326 Z-0 F720
G01 X47.4596 Y28.4358 Z-0 F720
G01 X47.4431 Y28.2277 Z-0 F720
G01 X47.0384 Y29.1669 Z-0 F720
G01 X46.5667 Y30.0633 Z-0 F720
G01 X46.7587 Y29.9820 Z-0 F720
G01 X46.9686 Y29.9317 Z-0 F720
G01 X47.1868 Y29.9145 Z-0 F720
G01 X47.3951 Y29.9312 Z-0 F720
G01 X47.5925 Y29.9796 Z-0 F720
G01 X47.7764 Y30.0572 Z-0 F720
G01 X47.9444 Y30.1613 Z-0 F720
G01 X48.0936 Y30.2892 Z-0 F720
G01 X48.2767 Y30.5202 Z-0 F720
G01 X48.3679 Y30.6965 Z-0 F720
G01 X48.4312 Y30.8875 Z-0 F720
G01 X48.4641 Y31.0907 Z-0 F720
G01 X48.4641 Y31.3013 Z-0 F720
G01 X48.4312 Y31.5040 Z-0 F720
G01 X48.3679 Y31.6943 Z-0 F720
G01 X48.2767 Y31.8695 Z-0 F720
G01 X48.1604 Y32.0272 Z-0 F720
G01 X47.9444 Y32.2254 Z-0 F720
G01 X47.7764 Y32.3284 Z-0 F720
G01 X47.5925 Y32.4050 Z-0 F720
G01 X47.3950 Y32.4528 Z-0 F720
G01 X47.1868 Y32.4693 Z-0 F720
G01 X46.9785 Y32.4528 Z-0 F720
G01 X46.7811 Y32.4050 Z-0 F720
G01 X46.5971 Y32.3284 Z-0 F720
G01 X46.4292 Y32.2254 Z-0 F720
G01 X46.2132 Y32.0272 Z-0 F720
G01 X46.0968 Y31.8695 Z-0 F720
G01 X46.0057 Y31.6943 Z-0 F720
G01 X45.9424 Y31.5040 Z-0 F720
G01 X45.9094 Y31.3013 Z-0 F720
G01 X45.9052 Y31.0885 Z-0 F720
G01 X45.3334 Y31.8417 Z-0 F720
G01 X44.7807 Y32.4693 Z-0 F720
G01 X45.0929 Y32.5204 Z-0 F720
G01 X45.3738 Y32.6421 Z-0 F720
G01 X45.5391 Y32.7577 Z-0 F720
G01 X45.6837 Y32.8975 Z-0 F720
G01 X45.8557 Y33.1466 Z-0 F720
G01 X45.9657 Y33.4343 Z-0 F720
G01 X46.0044 Y33.7509 Z-0 F720
G01 X45.9678 Y34.0594 Z-0 F720
G01 X45.9052 Y34.2504 Z-0 F720
G01 X45.8151 Y34.4267 Z-0 F720
G01 X45.7000 Y34.5856 Z-0 F720
G01 X45.4858 Y34.7857 Z-0 F720
G01 X45.3190 Y34.8897 Z-0 F720
G01 X45.1360 Y34.9673 Z-0 F720
G01 X44.9392 Y35.0158 Z-0 F720
G01 X44.7311 Y35.0325 Z-0 F720
G01 X44.5229 Y35.0158 Z-0 F720
G01 X44.3254 Y34.9673 Z-0 F720
G01 X44.1415 Y34.8897 Z-0 F720
G01 X43.9735 Y34.7857 Z-0 F720
G01 X43.7575 Y34.5856 Z-0 F720
G01 X43.6412 Y34.4267 Z-0 F720
G01 X43.5500 Y34.2504 Z-0 F720
G01 X43.4867 Y34.0594 Z-0 F720
G01 X43.4538 Y33.8562 Z-0 F720
G01 X43.4495 Y33.6517 Z-0 F720
G01 X42.8625 Y34.1108 Z-0 F720
G01 X42.4243 Y34.4124 Z-0 F720
G01 X42.6189 Y34.4946 Z-0 F720
G01 X42.7948 Y34.6042 Z-0 F720
G01 X42.9490 Y34.7388 Z-0 F720
G01 X43.0784 Y34.8963 Z-0 F720
G01 X43.1801 Y35.0743 Z-0 F720
G01 X43.2509 Y35.2706 Z-0 F720
G01 X43.2924 Y35.5947 Z-0 F720
G01 X43.2558 Y35.9032 Z-0 F720
G01 X43.1933 Y36.0942 Z-0 F720
G01 X43.1031 Y36.2705 Z-0 F720
G01 X42.9880 Y36.4294 Z-0 F720
G01 X42.8503 Y36.5683 Z-0 F720
G01 X42.6926 Y36.6847 Z-0 F720
G01 X42.5174 Y36.7758 Z-0 F720
G01 X42.3271 Y36.8391 Z-0 F720
G01 X42.1244 Y36.8721 Z-0 F720
G01 X41.8095 Y36.8596 Z-0 F720
G01 X41.5119 Y36.7758 Z-0 F720
G01 X41.3294 Y36.6847 Z-0 F720
G01 X41.1633 Y36.5683 Z-0 F720
G01 X41.0170 Y36.4294 Z-0 F720
G01 X40.8936 Y36.2705 Z-0 F720
G01 X40.7583 Y36.0004 Z-0 F720
G01 X40.7061 Y35.8030 Z-0 F720
G01 X40.6880 Y35.5947 Z-0 F720
G01 X40.7094 Y35.3539 Z-0 F720
G01 X40.7376 Y35.2392 Z-0 F720
G01 X40.0564 Y35.5029 Z-0 F720
G01 X39.4560 Y35.6939 Z-0 F720
G01 X39.6773 Y35.9091 Z-0 F720
G01 X39.8469 Y36.1664 Z-0 F720
G01 X39.9479 Y36.4588 Z-0 F720
G01 X39.9633 Y36.5628 Z-0 F720
G01 X39.9640 Y36.7749 Z-0 F720
G01 X39.8983 Y37.0753 Z-0 F720
G01 X39.7630 Y37.3454 Z-0 F720
G01 X39.5691 Y37.5764 Z-0 F720
G01 X39.4125 Y37.7044 Z-0 F720
G01 X39.2378 Y37.8084 Z-0 F720
G01 X39.0483 Y37.8860 Z-0 F720
G01 X38.8471 Y37.9344 Z-0 F720
G01 X38.6374 Y37.9512 Z-0 F720
G01 X38.4292 Y37.9344 Z-0 F720
G01 X38.2317 Y37.8860 Z-0 F720
G01 X38.0478 Y37.8084 Z-0 F720
G01 X37.8799 Y37.7044 Z-0 F720
G01 X37.7306 Y37.5764 Z-0 F720
G01 X37.5475 Y37.3454 Z-0 F720
G01 X37.4563 Y37.1691 Z-0 F720
G01 X37.3930 Y36.9781 Z-0 F720
G01 X37.3601 Y36.7749 Z-0 F720
G01 X37.3611 Y36.5655 Z-0 F720
G01 X37.4000 Y36.3642 Z-0 F720
G01 X37.4698 Y36.1746 Z-0 F720
G01 X37.5626 Y35.9999 Z-0 F720
G01 X36.8166 Y36.0517 Z-0 F720
G01 X36.0826 Y36.0577 Z-0 F720
G01 X36.2077 Y36.2190 Z-0 F720
G01 X36.3127 Y36.3914 Z-0 F720
G01 X36.3901 Y36.5757 Z-0 F720
G01 X36.4324 Y36.7728 Z-0 F720
G01 X36.4335 Y36.9816 Z-0 F720
G01 X36.3979 Y37.1843 Z-0 F720
G01 X36.3298 Y37.3745 Z-0 F720
G01 X36.2325 Y37.5498 Z-0 F720
G01 X36.1090 Y37.7075 Z-0 F720
G01 X35.9627 Y37.8452 Z-0 F720
G01 X35.7967 Y37.9603 Z-0 F720
G01 X35.6142 Y38.0504 Z-0 F720
G01 X35.4184 Y38.1130 Z-0 F720
G01 X35.2126 Y38.1454 Z-0 F720
G01 X35.0016 Y38.1454 Z-0 F720
G01 X34.7984 Y38.1130 Z-0 F720
G01 X34.6074 Y38.0504 Z-0 F720
G01 X34.4311 Y37.9603 Z-0 F720
G01 X34.2722 Y37.8452 Z-0 F720
G01 X34.1333 Y37.7075 Z-0 F720
G01 X34.0170 Y37.5498 Z-0 F720
G01 X33.9258 Y37.3745 Z-0 F720
G01 X33.8421 Y37.0843 Z-0 F720
G01 X33.8303 Y36.7637 Z-0 F720
G01 X33.9015 Y36.4458 Z-0 F720
G01 X34.0477 Y36.1629 Z-0 F720
G01 X34.1807 Y35.9969 Z-0 F720
G01 X34.3380 Y35.8510 Z-0 F720
G01 X33.4329 Y35.6631 Z-0 F720
G01 X32.6512 Y35.4376 Z-0 F720
G01 X32.7140 Y35.6332 Z-0 F720
G01 X32.7463 Y35.8435 Z-0 F720
G01 X32.7463 Y36.0556 Z-0 F720
G01 X32.7138 Y36.2588 Z-0 F720
G01 X32.6513 Y36.4498 Z-0 F720
G01 X32.5612 Y36.6260 Z-0 F720
G01 X32.4460 Y36.7849 Z-0 F720
G01 X32.2318 Y36.9850 Z-0 F720
G01 X32.0650 Y37.0891 Z-0 F720
G01 X31.8820 Y37.1667 Z-0 F720
G01 X31.6852 Y37.2151 Z-0 F720
G01 X31.4771 Y37.2318 Z-0 F720
G01 X31.2675 Y37.2151 Z-0 F720
G01 X31.0663 Y37.1667 Z-0 F720
G01 X30.8768 Y37.0891 Z-0 F720
G01 X30.6214 Y36.9239 Z-0 F720
G01 X30.4750 Y36.7849 Z-0 F720
G01 X30.3516 Y36.6260 Z-0 F720
G01 X30.2163 Y36.3559 Z-0 F720
G01 X30.1506 Y36.0556 Z-0 F720
G01 X30.1512 Y35.8388 Z-0 F720
G01 X30.1665 Y35.7310 Z-0 F720
G01 X30.2683 Y35.4320 Z-0 F720
G01 X30.4434 Y35.1749 Z-0 F720
G01 X30.6789 Y34.9665 Z-0 F720
G01 X30.8628 Y34.8580 Z-0 F720
G01 X31.0637 Y34.7762 Z-0 F720
G01 X30.3612 Y34.3719 Z-0 F720
G01 X29.5258 Y33.8005 Z-0 F720
G01 X29.5837 Y34.2139 Z-0 F720
G01 X29.5686 Y34.5273 Z-0 F720
G01 X29.5240 Y34.8327 Z-0 F720
G01 X29.4515 Y35.1288 Z-0 F720
G01 X29.3526 Y35.4142 Z-0 F720
G01 X29.2286 Y35.6875 Z-0 F720
G01 X29.0811 Y35.9475 Z-0 F720
G01 X28.9115 Y36.1926 Z-0 F720
G01 X28.7212 Y36.4216 Z-0 F720
G01 X28.5117 Y36.6331 Z-0 F720
G01 X28.2845 Y36.8258 Z-0 F720
G01 X28.0410 Y36.9982 Z-0 F720
G01 X27.7826 Y37.1491 Z-0 F720
G01 X27.5109 Y37.2770 Z-0 F720
G01 X27.2273 Y37.3807 Z-0 F720
G01 X27.0957 Y39.4543 Z-0 F720
G01 X27.0206 Y41.2254 Z-0 F720
G01 X27.8491 Y41.1941 Z-0 F720
G01 X28.7343 Y41.1397 Z-0 F720
G01 X29.6757 Y41.0582 Z-0 F720
G01 X30.4519 Y40.9691 Z-0 F720
G01 X30.4519 Y42.8625 Z-0 F720
G01 X28.7391 Y42.7270 Z-0 F720
G01 X27.0206 Y42.6558 Z-0 F720
G01 X27.0361 Y43.6634 Z-0 F720
G01 X27.0738 Y44.5926 Z-0 F720
G01 X27.1399 Y45.5253 Z-0 F720
G01 X27.2273 Y46.3434 Z-0 F720
G01 X25.6894 Y46.3434 Z-0 F720
G01 X25.7768 Y45.5253 Z-0 F720
G01 X25.8429 Y44.5926 Z-0 F720
G01 X25.8805 Y43.6634 Z-0 F720
G01 X25.8961 Y42.6558 Z-0 F720
G01 X24.1776 Y42.7270 Z-0 F720
G01 X22.4648 Y42.8625 Z-0 F720
G01 X22.4648 Y40.9691 Z-0 F720
G01 X23.2409 Y41.0582 Z-0 F720
G01 X24.1824 Y41.1397 Z-0 F720
G01 X25.0676 Y41.1941 Z-0 F720
G01 X25.8961 Y41.2254 Z-0 F720
G01 X25.8209 Y39.4543 Z-0 F720
G01 X25.6894 Y37.3807 Z-0 F720
G01 X25.4057 Y37.2770 Z-0 F720
G01 X25.1340 Y37.1491 Z-0 F720
G01 X24.8757 Y36.9982 Z-0 F720
G01 X24.6322 Y36.8258 Z-0 F720
G01 X24.4050 Y36.6331 Z-0 F720
G01 X24.1955 Y36.4216 Z-0 F720
G01 X24.0052 Y36.1926 Z-0 F720
G01 X23.8356 Y35.9475 Z-0 F720
G01 X23.6880 Y35.6875 Z-0 F720
G01 X23.5641 Y35.4142 Z-0 F720
G01 X23.4651 Y35.1288 Z-0 F720
G01 X23.3927 Y34.8327 Z-0 F720
G01 X23.3481 Y34.5273 Z-0 F720
G01 X23.3329 Y34.2139 Z-0 F720
G01 X23.3908 Y33.8005 Z-0 F720
G01 X22.5554 Y34.3719 Z-0 F720
G01 X21.8529 Y34.7762 Z-0 F720
G01 X22.0539 Y34.8580 Z-0 F720
G01 X22.2378 Y34.9665 Z-0 F720
G01 X22.4732 Y35.1749 Z-0 F720
G01 X22.6484 Y35.4320 Z-0 F720
G01 X22.7502 Y35.7310 Z-0 F720
G01 X22.7655 Y35.8388 Z-0 F720
G01 X22.7661 Y36.0556 Z-0 F720
G01 X22.7004 Y36.3559 Z-0 F720
G01 X22.5651 Y36.6260 Z-0 F720
G01 X22.4416 Y36.7849 Z-0 F720
G01 X22.2953 Y36.9239 Z-0 F720
G01 X22.0399 Y37.0891 Z-0 F720
G01 X21.8504 Y37.1667 Z-0 F720
G01 X21.6492 Y37.2151 Z-0 F720
G01 X21.4395 Y37.2318 Z-0 F720
G01 X21.2315 Y37.2151 Z-0 F720
G01 X21.0347 Y37.1667 Z-0 F720
G01 X20.8516 Y37.0891 Z-0 F720
G01 X20.6849 Y36.9850 Z-0 F720
G01 X20.4707 Y36.7849 Z-0 F720
G01 X20.3555 Y36.6260 Z-0 F720
G01 X20.2654 Y36.4498 Z-0 F720
G01 X20.2029 Y36.2588 Z-0 F720
G01 X20.1704 Y36.0556 Z-0 F720
G01 X20.1703 Y35.8435 Z-0 F720
G01 X20.2026 Y35.6332 Z-0 F720
G01 X20.2654 Y35.4376 Z-0 F720
G01 X19.4837 Y35.6631 Z-0 F720
G01 X18.5787 Y35.8510 Z-0 F720
G01 X18.7360 Y35.9969 Z-0 F720
G01 X18.8690 Y36.1629 Z-0 F720
G01 X19.0151 Y36.4458 Z-0 F720
G01 X19.0864 Y36.7637 Z-0 F720
G01 X19.0746 Y37.0843 Z-0 F720
G01 X18.9909 Y37.3745 Z-0 F720
G01 X18.8997 Y37.5498 Z-0 F720
G01 X18.7834 Y37.7075 Z-0 F720
G01 X18.6445 Y37.8452 Z-0 F720
G01 X18.4856 Y37.9603 Z-0 F720
G01 X18.3093 Y38.0504 Z-0 F720
G01 X18.1183 Y38.1130 Z-0 F720
G01 X17.9151 Y38.1454 Z-0 F720
G01 X17.7041 Y38.1454 Z-0 F720
G01 X17.4983 Y38.1130 Z-0 F720
G01 X17.3025 Y38.0504 Z-0 F720
G01 X17.1200 Y37.9603 Z-0 F720
G01 X16.9540 Y37.8452 Z-0 F720
G01 X16.8076 Y37.7075 Z-0 F720
G01 X16.6842 Y37.5498 Z-0 F720
G01 X16.5868 Y37.3745 Z-0 F720
G01 X16.5187 Y37.1843 Z-0 F720
G01 X16.4832 Y36.9816 Z-0 F720
G01 X16.4842 Y36.7728 Z-0 F720
G01 X16.5265 Y36.5757 Z-0 F720
G01 X16.6039 Y36.3914 Z-0 F720
G01 X16.7090 Y36.2190 Z-0 F720
G01 X16.8341 Y36.0577 Z-0 F720
G01 X16.1001 Y36.0517 Z-0 F720
G01 X15.3541 Y35.9999 Z-0 F720
G01 X15.4468 Y36.1746 Z-0 F720
G01 X15.5167 Y36.3642 Z-0 F720
G01 X15.5556 Y36.5655 Z-0 F720
G01 X15.5566 Y36.7749 Z-0 F720
G01 X15.5237 Y36.9781 Z-0 F720
G01 X15.4603 Y37.1691 Z-0 F720
G01 X15.3692 Y37.3454 Z-0 F720
G01 X15.1860 Y37.5764 Z-0 F720
G01 X15.0368 Y37.7044 Z-0 F720
G01 X14.8689 Y37.8084 Z-0 F720
G01 X14.6849 Y37.8860 Z-0 F720
G01 X14.4875 Y37.9344 Z-0 F720
G01 X14.2792 Y37.9512 Z-0 F720
G01 X14.0696 Y37.9344 Z-0 F720
G01 X13.8684 Y37.8860 Z-0 F720
G01 X13.6789 Y37.8084 Z-0 F720
G01 X13.5042 Y37.7044 Z-0 F720
G01 X13.3476 Y37.5764 Z-0 F720
G01 X13.1537 Y37.3454 Z-0 F720
G01 X13.0184 Y37.0753 Z-0 F720
G01 X12.9526 Y36.7749 Z-0 F720
G01 X12.9533 Y36.5628 Z-0 F720
G01 X12.9688 Y36.4588 Z-0 F720
G01 X13.0697 Y36.1664 Z-0 F720
G01 X13.2394 Y35.9091 Z-0 F720
G01 X13.4607 Y35.6939 Z-0 F720
G01 X12.8602 Y35.5029 Z-0 F720
G01 X12.1791 Y35.2392 Z-0 F720
G01 X12.2073 Y35.3539 Z-0 F720
G01 X12.2287 Y35.5947 Z-0 F720
G01 X12.2106 Y35.8030 Z-0 F720
G01 X12.1584 Y36.0004 Z-0 F720
G01 X12.0231 Y36.2705 Z-0 F720
G01 X11.8997 Y36.4294 Z-0 F720
G01 X11.7533 Y36.5683 Z-0 F720
G01 X11.5873 Y36.6847 Z-0 F720
G01 X11.4048 Y36.7758 Z-0 F720
G01 X11.1072 Y36.8596 Z-0 F720
G01 X10.7923 Y36.8721 Z-0 F720
G01 X10.5895 Y36.8391 Z-0 F720
G01 X10.3993 Y36.7758 Z-0 F720
G01 X10.2241 Y36.6847 Z-0 F720
G01 X10.0664 Y36.5683 Z-0 F720
G01 X9.9287 Y36.4294 Z-0 F720
G01 X9.8135 Y36.2705 Z-0 F720
G01 X9.7234 Y36.0942 Z-0 F720
G01 X9.6609 Y35.9032 Z-0 F720
G01 X9.6242 Y35.5947 Z-0 F720
G01 X9.6658 Y35.2706 Z-0 F720
G01 X9.7366 Y35.0743 Z-0 F720
G01 X9.8382 Y34.8963 Z-0 F720
G01 X9.9677 Y34.7388 Z-0 F720
G01 X10.1219 Y34.6042 Z-0 F720
G01 X10.2978 Y34.4946 Z-0 F720
G01 X10.4924 Y34.4124 Z-0 F720
G01 X10.0542 Y34.1108 Z-0 F720
G01 X9.4671 Y33.6517 Z-0 F720
G01 X9.4629 Y33.8562 Z-0 F720
G01 X9.4300 Y34.0594 Z-0 F720
G01 X9.3666 Y34.2504 Z-0 F720
G01 X9.2755 Y34.4267 Z-0 F720
G01 X9.1592 Y34.5856 Z-0 F720
G01 X8.9431 Y34.7857 Z-0 F720
G01 X8.7752 Y34.8897 Z-0 F720
G01 X8.5912 Y34.9673 Z-0 F720
G01 X8.3938 Y35.0158 Z-0 F720
G01 X8.1855 Y35.0325 Z-0 F720
G01 X7.9775 Y35.0158 Z-0 F720
G01 X7.7807 Y34.9673 Z-0 F720
G01 X7.5977 Y34.8897 Z-0 F720
G01 X7.4309 Y34.7857 Z-0 F720
G01 X7.2167 Y34.5856 Z-0 F720
G01 X7.1015 Y34.4267 Z-0 F720
G01 X7.0114 Y34.2504 Z-0 F720
G01 X6.9489 Y34.0594 Z-0 F720
G01 X6.9122 Y33.7509 Z-0 F720
G01 X6.9509 Y33.4343 Z-0 F720
G01 X7.0609 Y33.1466 Z-0 F720
G01 X7.2329 Y32.8975 Z-0 F720
G01 X7.3775 Y32.7577 Z-0 F720
G01 X7.5429 Y32.6421 Z-0 F720
G01 X7.8238 Y32.5204 Z-0 F720
G01 X8.1359 Y32.4693 Z-0 F720
G01 X7.5832 Y31.8417 Z-0 F720
G01 X7.0115 Y31.0885 Z-0 F720
G01 X7.0072 Y31.3013 Z-0 F720
G01 X6.9743 Y31.5040 Z-0 F720
G01 X6.9110 Y31.6943 Z-0 F720
G01 X6.8198 Y31.8695 Z-0 F720
G01 X6.7035 Y32.0272 Z-0 F720
G01 X6.4875 Y32.2254 Z-0 F720
G01 X6.3196 Y32.3284 Z-0 F720
G01 X6.1356 Y32.4050 Z-0 F720
G01 X5.9382 Y32.4528 Z-0 F720
G01 X5.7299 Y32.4693 Z-0 F720
G01 X5.5216 Y32.4528 Z-0 F720
G01 X5.3242 Y32.4050 Z-0 F720
G01 X5.1402 Y32.3284 Z-0 F720
G01 X4.9723 Y32.2254 Z-0 F720
G01 X4.7563 Y32.0272 Z-0 F720
G01 X4.6399 Y31.8695 Z-0 F720
G01 X4.5488 Y31.6943 Z-0 F720
G01 X4.4855 Y31.5040 Z-0 F720
G01 X4.4525 Y31.3013 Z-0 F720
G01 X4.4525 Y31.0907 Z-0 F720
G01 X4.4855 Y30.8875 Z-0 F720
G01 X4.5488 Y30.6965 Z-0 F720
G01 X4.6399 Y30.5202 Z-0 F720
G01 X4.8231 Y30.2892 Z-0 F720
G01 X4.9723 Y30.1613 Z-0 F720
G01 X5.1402 Y30.0572 Z-0 F720
G01 X5.3242 Y29.9796 Z-0 F720
G01 X5.5216 Y29.9312 Z-0 F720
G01 X5.7299 Y29.9145 Z-0 F720
