;Generated with vpype gwrite fabian
;crown/crown-multicolor-test-6x9.svg.gcode
G90
G92 X0 Y0 Z0
G00 X0 Y0 Z0 F2100
G00 X0 Y0 Z5 F500

;Begin Line: layer=0 line=0
G00 X106.0145 Y114.2170 Z2    F2100
G01 X106.0145 Y114.2170 Z-0.5 F210
G01 X105.0216 Y114.3127 Z-0.5 F720
G01 X105.0216 Y109.9136 Z-0.5 F720
G01 X106.8249 Y110.1205 Z-0.5 F720
G01 X109.0122 Y110.3100 Z-0.5 F720
G01 X111.0689 Y110.4364 Z-0.5 F720
G01 X112.9938 Y110.5091 Z-0.5 F720
G01 X112.9247 Y108.5779 Z-0.5 F720
G01 X112.8192 Y106.3943 Z-0.5 F720
G01 X112.6899 Y104.1868 Z-0.5 F720
G01 X112.5135 Y101.5764 Z-0.5 F720
G01 X111.8545 Y101.3356 Z-0.5 F720
G01 X111.2232 Y101.0384 Z-0.5 F720
G01 X110.6230 Y100.6879 Z-0.5 F720
G01 X110.0573 Y100.2872 Z-0.5 F720
G01 X109.5293 Y99.8396 Z-0.5 F720
G01 X109.0427 Y99.3482 Z-0.5 F720
G01 X108.6006 Y98.8161 Z-0.5 F720
G01 X108.2065 Y98.2466 Z-0.5 F720
G01 X107.8637 Y97.6427 Z-0.5 F720
G01 X107.5757 Y97.0077 Z-0.5 F720
G01 X107.3458 Y96.3446 Z-0.5 F720
G01 X107.1774 Y95.6567 Z-0.5 F720
G01 X107.0739 Y94.9471 Z-0.5 F720
G01 X107.0387 Y94.2190 Z-0.5 F720
G01 X107.0540 Y93.9758 Z-0.5 F720
G01 X107.1732 Y93.2585 Z-0.5 F720
G01 X106.2122 Y93.9371 Z-0.5 F720
G01 X105.2322 Y94.5861 Z-0.5 F720
G01 X104.4279 Y95.0739 Z-0.5 F720
G01 X103.6001 Y95.5253 Z-0.5 F720
G01 X104.0670 Y95.7155 Z-0.5 F720
G01 X104.4943 Y95.9676 Z-0.5 F720
G01 X104.8730 Y96.2770 Z-0.5 F720
G01 X105.0413 Y96.4517 Z-0.5 F720
G01 X105.1940 Y96.6390 Z-0.5 F720
G01 X105.3300 Y96.8382 Z-0.5 F720
G01 X105.4483 Y97.0489 Z-0.5 F720
G01 X105.5475 Y97.2704 Z-0.5 F720
G01 X105.6267 Y97.5022 Z-0.5 F720
G01 X105.6847 Y97.7436 Z-0.5 F720
G01 X105.7203 Y97.9941 Z-0.5 F720
G01 X105.7324 Y98.2531 Z-0.5 F720
G01 X105.7217 Y98.4978 Z-0.5 F720
G01 X105.6903 Y98.7370 Z-0.5 F720
G01 X105.6391 Y98.9699 Z-0.5 F720
G01 X105.5690 Y99.1957 Z-0.5 F720
G01 X105.4809 Y99.4137 Z-0.5 F720
G01 X105.2547 Y99.8232 Z-0.5 F720
G01 X104.9679 Y100.1924 Z-0.5 F720
G01 X104.6279 Y100.5151 Z-0.5 F720
G01 X104.2422 Y100.7854 Z-0.5 F720
G01 X104.0345 Y100.8990 Z-0.5 F720
G01 X103.5941 Y101.0792 Z-0.5 F720
G01 X103.1267 Y101.1918 Z-0.5 F720
G01 X102.6396 Y101.2307 Z-0.5 F720
G01 X102.1563 Y101.1918 Z-0.5 F720
G01 X101.6990 Y101.0792 Z-0.5 F720
G01 X101.2737 Y100.8990 Z-0.5 F720
G01 X100.8863 Y100.6572 Z-0.5 F720
G01 X100.7085 Y100.5151 Z-0.5 F720
G01 X100.3886 Y100.1924 Z-0.5 F720
G01 X100.1211 Y99.8232 Z-0.5 F720
G01 X99.9117 Y99.4137 Z-0.5 F720
G01 X99.7664 Y98.9699 Z-0.5 F720
G01 X99.6910 Y98.4978 Z-0.5 F720
G01 X99.6908 Y98.0052 Z-0.5 F720
G01 X99.7659 Y97.5164 Z-0.5 F720
G01 X99.8302 Y97.2831 Z-0.5 F720
G01 X99.9118 Y97.0621 Z-0.5 F720
G01 X99.0075 Y97.3449 Z-0.5 F720
G01 X98.0956 Y97.5858 Z-0.5 F720
G01 X97.1717 Y97.7942 Z-0.5 F720
G01 X95.9929 Y98.0226 Z-0.5 F720
G01 X96.3584 Y98.3614 Z-0.5 F720
G01 X96.6674 Y98.7472 Z-0.5 F720
G01 X96.9117 Y99.1756 Z-0.5 F720
G01 X97.0069 Y99.4044 Z-0.5 F720
G01 X97.0828 Y99.6423 Z-0.5 F720
G01 X97.1383 Y99.8886 Z-0.5 F720
G01 X97.1724 Y100.1429 Z-0.5 F720
G01 X97.1840 Y100.4046 Z-0.5 F720
G01 X97.1451 Y100.8880 Z-0.5 F720
G01 X97.0976 Y101.1202 Z-0.5 F720
G01 X96.9505 Y101.5622 Z-0.5 F720
G01 X96.7388 Y101.9693 Z-0.5 F720
G01 X96.4685 Y102.3357 Z-0.5 F720
G01 X96.1457 Y102.6556 Z-0.5 F720
G01 X95.7765 Y102.9232 Z-0.5 F720
G01 X95.3670 Y103.1325 Z-0.5 F720
G01 X94.9232 Y103.2778 Z-0.5 F720
G01 X94.4511 Y103.3533 Z-0.5 F720
G01 X93.9609 Y103.3533 Z-0.5 F720
G01 X93.4827 Y103.2778 Z-0.5 F720
G01 X93.0278 Y103.1325 Z-0.5 F720
G01 X92.6038 Y102.9232 Z-0.5 F720
G01 X92.2181 Y102.6556 Z-0.5 F720
G01 X91.8781 Y102.3357 Z-0.5 F720
G01 X91.5913 Y101.9693 Z-0.5 F720
G01 X91.3651 Y101.5622 Z-0.5 F720
G01 X91.2069 Y101.1202 Z-0.5 F720
G01 X91.1557 Y100.8880 Z-0.5 F720
G01 X91.1243 Y100.6492 Z-0.5 F720
G01 X91.1136 Y100.4046 Z-0.5 F720
G01 X91.1267 Y100.1641 Z-0.5 F720
G01 X91.1646 Y99.9314 Z-0.5 F720
G01 X91.2250 Y99.7063 Z-0.5 F720
G01 X91.4049 Y99.2779 Z-0.5 F720
G01 X91.6489 Y98.8774 Z-0.5 F720
G01 X91.9396 Y98.5028 Z-0.5 F720
G01 X90.2343 Y98.4887 Z-0.5 F720
G01 X89.4938 Y98.4499 Z-0.5 F720
G01 X88.5011 Y98.3684 Z-0.5 F720
G01 X88.7165 Y98.7744 Z-0.5 F720
G01 X88.8789 Y99.2148 Z-0.5 F720
G01 X88.9342 Y99.4457 Z-0.5 F720
G01 X88.9691 Y99.6825 Z-0.5 F720
G01 X88.9813 Y99.9244 Z-0.5 F720
G01 X88.9715 Y100.1691 Z-0.5 F720
G01 X88.8950 Y100.6411 Z-0.5 F720
G01 X88.7478 Y101.0849 Z-0.5 F720
G01 X88.5361 Y101.4945 Z-0.5 F720
G01 X88.4079 Y101.6845 Z-0.5 F720
G01 X88.1106 Y102.0312 Z-0.5 F720
G01 X87.7638 Y102.3285 Z-0.5 F720
G01 X87.3737 Y102.5703 Z-0.5 F720
G01 X86.9463 Y102.7505 Z-0.5 F720
G01 X86.4876 Y102.8630 Z-0.5 F720
G01 X86.0038 Y102.9019 Z-0.5 F720
G01 X85.5166 Y102.8630 Z-0.5 F720
G01 X85.0492 Y102.7505 Z-0.5 F720
G01 X84.6088 Y102.5703 Z-0.5 F720
G01 X84.2031 Y102.3285 Z-0.5 F720
G01 X83.8393 Y102.0312 Z-0.5 F720
G01 X83.5249 Y101.6845 Z-0.5 F720
G01 X83.3886 Y101.4945 Z-0.5 F720
G01 X83.1624 Y101.0849 Z-0.5 F720
G01 X83.0744 Y100.8669 Z-0.5 F720
G01 X83.0043 Y100.6411 Z-0.5 F720
G01 X82.9530 Y100.4082 Z-0.5 F720
G01 X82.9216 Y100.1691 Z-0.5 F720
G01 X82.9109 Y99.9244 Z-0.5 F720
G01 X82.9232 Y99.6762 Z-0.5 F720
G01 X82.9591 Y99.4346 Z-0.5 F720
G01 X83.0171 Y99.2002 Z-0.5 F720
G01 X83.0958 Y98.9735 Z-0.5 F720
G01 X83.1937 Y98.7553 Z-0.5 F720
G01 X83.3093 Y98.5462 Z-0.5 F720
G01 X83.5878 Y98.1574 Z-0.5 F720
G01 X83.7478 Y97.9791 Z-0.5 F720
G01 X84.1020 Y97.6576 Z-0.5 F720
G01 X83.4008 Y97.4506 Z-0.5 F720
G01 X82.7069 Y97.2138 Z-0.5 F720
G01 X81.1244 Y96.6010 Z-0.5 F720
G01 X81.1899 Y96.8677 Z-0.5 F720
G01 X81.2276 Y97.1440 Z-0.5 F720
G01 X81.2397 Y97.4271 Z-0.5 F720
G01 X81.2290 Y97.6718 Z-0.5 F720
G01 X81.1976 Y97.9109 Z-0.5 F720
G01 X81.1463 Y98.1438 Z-0.5 F720
G01 X81.0763 Y98.3696 Z-0.5 F720
G01 X80.9882 Y98.5876 Z-0.5 F720
G01 X80.7620 Y98.9972 Z-0.5 F720
G01 X80.4752 Y99.3663 Z-0.5 F720
G01 X80.1352 Y99.6891 Z-0.5 F720
G01 X79.7495 Y99.9594 Z-0.5 F720
G01 X79.3254 Y100.1711 Z-0.5 F720
G01 X78.8706 Y100.3183 Z-0.5 F720
G01 X78.6340 Y100.3657 Z-0.5 F720
G01 X78.1469 Y100.4046 Z-0.5 F720
G01 X77.9023 Y100.3948 Z-0.5 F720
G01 X77.4313 Y100.3183 Z-0.5 F720
G01 X76.9893 Y100.1711 Z-0.5 F720
G01 X76.5822 Y99.9594 Z-0.5 F720
G01 X76.2158 Y99.6891 Z-0.5 F720
G01 X75.8959 Y99.3663 Z-0.5 F720
G01 X75.6283 Y98.9972 Z-0.5 F720
G01 X75.4190 Y98.5876 Z-0.5 F720
G01 X75.2737 Y98.1438 Z-0.5 F720
G01 X75.1982 Y97.6718 Z-0.5 F720
G01 X75.1885 Y97.4271 Z-0.5 F720
G01 X75.1995 Y97.1678 Z-0.5 F720
G01 X75.2321 Y96.9166 Z-0.5 F720
G01 X75.2852 Y96.6741 Z-0.5 F720
G01 X75.3580 Y96.4410 Z-0.5 F720
G01 X75.4496 Y96.2179 Z-0.5 F720
G01 X75.5591 Y96.0054 Z-0.5 F720
G01 X75.6857 Y95.8043 Z-0.5 F720
G01 X75.9865 Y95.4385 Z-0.5 F720
G01 X76.3448 Y95.1257 Z-0.5 F720
G01 X76.7535 Y94.8712 Z-0.5 F720
G01 X77.2056 Y94.6801 Z-0.5 F720
G01 X76.7900 Y94.4110 Z-0.5 F720
G01 X76.1875 Y93.9793 Z-0.5 F720
G01 X74.8235 Y92.9127 Z-0.5 F720
G01 X74.8137 Y93.3880 Z-0.5 F720
G01 X74.7372 Y93.8600 Z-0.5 F720
G01 X74.5901 Y94.3038 Z-0.5 F720
G01 X74.3783 Y94.7133 Z-0.5 F720
G01 X74.1080 Y95.0825 Z-0.5 F720
G01 X73.7853 Y95.4053 Z-0.5 F720
G01 X73.6061 Y95.5474 Z-0.5 F720
G01 X73.2160 Y95.7891 Z-0.5 F720
G01 X72.7886 Y95.9693 Z-0.5 F720
G01 X72.3299 Y96.0819 Z-0.5 F720
G01 X71.8460 Y96.1208 Z-0.5 F720
G01 X71.3626 Y96.0819 Z-0.5 F720
G01 X70.9054 Y95.9693 Z-0.5 F720
G01 X70.4801 Y95.7891 Z-0.5 F720
G01 X70.0926 Y95.5474 Z-0.5 F720
G01 X69.9149 Y95.4053 Z-0.5 F720
G01 X69.5950 Y95.0825 Z-0.5 F720
G01 X69.3275 Y94.7133 Z-0.5 F720
G01 X69.1181 Y94.3038 Z-0.5 F720
G01 X68.9728 Y93.8600 Z-0.5 F720
G01 X68.8974 Y93.3880 Z-0.5 F720
G01 X68.8876 Y93.1433 Z-0.5 F720
G01 X68.8979 Y92.8919 Z-0.5 F720
G01 X68.9281 Y92.6464 Z-0.5 F720
G01 X68.9776 Y92.4076 Z-0.5 F720
G01 X69.0454 Y92.1762 Z-0.5 F720
G01 X69.2331 Y91.7392 Z-0.5 F720
G01 X69.3514 Y91.5352 Z-0.5 F720
G01 X69.6328 Y91.1605 Z-0.5 F720
G01 X69.9687 Y90.8356 Z-0.5 F720
G01 X70.3528 Y90.5670 Z-0.5 F720
G01 X70.7788 Y90.3614 Z-0.5 F720
G01 X71.0054 Y90.2843 Z-0.5 F720
G01 X71.2402 Y90.2255 Z-0.5 F720
G01 X71.4822 Y90.1856 Z-0.5 F720
G01 X71.7307 Y90.1657 Z-0.5 F720
G01 X71.0746 Y89.4473 Z-0.5 F720
G01 X70.4466 Y88.7075 Z-0.5 F720
G01 X69.8433 Y87.9450 Z-0.5 F720
G01 X69.1182 Y86.9576 Z-0.5 F720
G01 X69.1083 Y87.4519 Z-0.5 F720
G01 X69.0319 Y87.9229 Z-0.5 F720
G01 X68.8847 Y88.3649 Z-0.5 F720
G01 X68.6730 Y88.7720 Z-0.5 F720
G01 X68.4027 Y89.1385 Z-0.5 F720
G01 X68.2475 Y89.3046 Z-0.5 F720
G01 X67.9007 Y89.5990 Z-0.5 F720
G01 X67.5106 Y89.8382 Z-0.5 F720
G01 X67.0832 Y90.0162 Z-0.5 F720
G01 X66.6245 Y90.1274 Z-0.5 F720
G01 X66.1406 Y90.1657 Z-0.5 F720
G01 X65.6568 Y90.1274 Z-0.5 F720
G01 X65.1981 Y90.0162 Z-0.5 F720
G01 X64.7706 Y89.8382 Z-0.5 F720
G01 X64.3805 Y89.5990 Z-0.5 F720
G01 X64.0338 Y89.3046 Z-0.5 F720
G01 X63.8786 Y89.1385 Z-0.5 F720
G01 X63.6083 Y88.7720 Z-0.5 F720
G01 X63.3965 Y88.3649 Z-0.5 F720
G01 X63.2494 Y87.9229 Z-0.5 F720
G01 X63.1729 Y87.4519 Z-0.5 F720
G01 X63.1729 Y86.9627 Z-0.5 F720
G01 X63.2494 Y86.4906 Z-0.5 F720
G01 X63.3966 Y86.0468 Z-0.5 F720
G01 X63.6083 Y85.6373 Z-0.5 F720
G01 X63.7365 Y85.4473 Z-0.5 F720
G01 X64.0338 Y85.1005 Z-0.5 F720
G01 X64.3805 Y84.8032 Z-0.5 F720
G01 X64.7706 Y84.5615 Z-0.5 F720
G01 X65.1981 Y84.3813 Z-0.5 F720
G01 X65.6567 Y84.2687 Z-0.5 F720
G01 X66.1406 Y84.2298 Z-0.5 F720
G01 X66.6476 Y84.2698 Z-0.5 F720
G01 X67.1353 Y84.3867 Z-0.5 F720
G01 X67.3649 Y84.4724 Z-0.5 F720
G01 X67.5814 Y84.5756 Z-0.5 F720
G01 X67.0125 Y83.5435 Z-0.5 F720
G01 X66.4855 Y82.4931 Z-0.5 F720
G01 X65.9973 Y81.4178 Z-0.5 F720
G01 X65.5451 Y80.3110 Z-0.5 F720
G01 X65.5068 Y80.7943 Z-0.5 F720
G01 X65.3957 Y81.2515 Z-0.5 F720
G01 X65.2176 Y81.6768 Z-0.5 F720
G01 X64.9784 Y82.0643 Z-0.5 F720
G01 X64.8378 Y82.2421 Z-0.5 F720
G01 X64.5179 Y82.5620 Z-0.5 F720
G01 X64.1515 Y82.8295 Z-0.5 F720
G01 X63.7443 Y83.0388 Z-0.5 F720
G01 X63.3024 Y83.1842 Z-0.5 F720
G01 X62.8314 Y83.2596 Z-0.5 F720
G01 X62.3421 Y83.2596 Z-0.5 F720
G01 X61.8700 Y83.1842 Z-0.5 F720
G01 X61.6442 Y83.1199 Z-0.5 F720
G01 X61.2168 Y82.9418 Z-0.5 F720
G01 X60.8267 Y82.7027 Z-0.5 F720
G01 X60.6475 Y82.5620 Z-0.5 F720
G01 X60.3247 Y82.2421 Z-0.5 F720
G01 X60.0544 Y81.8756 Z-0.5 F720
G01 X59.8427 Y81.4685 Z-0.5 F720
G01 X59.6955 Y81.0265 Z-0.5 F720
G01 X59.6481 Y80.7943 Z-0.5 F720
G01 X59.6092 Y80.3110 Z-0.5 F720
G01 X59.6481 Y79.8239 Z-0.5 F720
G01 X59.7606 Y79.3564 Z-0.5 F720
G01 X59.9409 Y78.9161 Z-0.5 F720
G01 X60.1826 Y78.5103 Z-0.5 F720
G01 X60.4799 Y78.1465 Z-0.5 F720
G01 X60.6475 Y77.9827 Z-0.5 F720
G01 X61.0167 Y77.6959 Z-0.5 F720
G01 X61.4262 Y77.4696 Z-0.5 F720
G01 X61.8700 Y77.3115 Z-0.5 F720
G01 X62.1029 Y77.2603 Z-0.5 F720
G01 X62.3421 Y77.2288 Z-0.5 F720
G01 X62.5868 Y77.2182 Z-0.5 F720
G01 X62.8322 Y77.2292 Z-0.5 F720
G01 X63.0734 Y77.2617 Z-0.5 F720
G01 X63.3093 Y77.3144 Z-0.5 F720
G01 X63.7605 Y77.4763 Z-0.5 F720
G01 X64.1774 Y77.7062 Z-0.5 F720
G01 X64.3702 Y77.8439 Z-0.5 F720
G01 X64.7191 Y78.1595 Z-0.5 F720
G01 X64.4012 Y77.0257 Z-0.5 F720
G01 X64.1315 Y75.8759 Z-0.5 F720
G01 X63.8626 Y74.4747 Z-0.5 F720
G01 X63.6433 Y73.0496 Z-0.5 F720
G01 X63.3524 Y73.4514 Z-0.5 F720
G01 X63.1851 Y73.6320 Z-0.5 F720
G01 X63.0041 Y73.7977 Z-0.5 F720
G01 X62.8102 Y73.9476 Z-0.5 F720
G01 X62.6039 Y74.0806 Z-0.5 F720
G01 X62.3860 Y74.1959 Z-0.5 F720
G01 X62.1572 Y74.2924 Z-0.5 F720
G01 X61.9181 Y74.3691 Z-0.5 F720
G01 X61.6694 Y74.4252 Z-0.5 F720
G01 X61.4118 Y74.4595 Z-0.5 F720
G01 X61.1460 Y74.4711 Z-0.5 F720
G01 X60.6627 Y74.4328 Z-0.5 F720
G01 X60.4304 Y74.3860 Z-0.5 F720
G01 X59.9885 Y74.2407 Z-0.5 F720
G01 X59.5813 Y74.0313 Z-0.5 F720
G01 X59.2149 Y73.7638 Z-0.5 F720
G01 X58.8950 Y73.4439 Z-0.5 F720
G01 X58.7544 Y73.2661 Z-0.5 F720
G01 X58.5152 Y72.8786 Z-0.5 F720
G01 X58.3371 Y72.4534 Z-0.5 F720
G01 X58.2728 Y72.2284 Z-0.5 F720
G01 X58.1974 Y71.7574 Z-0.5 F720
G01 X58.1974 Y71.2681 Z-0.5 F720
G01 X58.2728 Y70.7961 Z-0.5 F720
G01 X58.3371 Y70.5702 Z-0.5 F720
G01 X58.5152 Y70.1428 Z-0.5 F720
G01 X58.7544 Y69.7527 Z-0.5 F720
G01 X59.0488 Y69.4060 Z-0.5 F720
G01 X59.3927 Y69.1087 Z-0.5 F720
G01 X59.7802 Y68.8669 Z-0.5 F720
G01 X60.2055 Y68.6867 Z-0.5 F720
G01 X60.4304 Y68.6216 Z-0.5 F720
G01 X60.9015 Y68.5451 Z-0.5 F720
G01 X61.1460 Y68.5352 Z-0.5 F720
G01 X61.6347 Y68.5696 Z-0.5 F720
G01 X62.1047 Y68.6713 Z-0.5 F720
G01 X62.5455 Y68.8385 Z-0.5 F720
G01 X62.7517 Y68.9460 Z-0.5 F720
G01 X63.1290 Y69.2076 Z-0.5 F720
G01 X63.2975 Y69.3613 Z-0.5 F720
G01 X63.1631 Y67.6900 Z-0.5 F720
G01 X62.6031 Y67.8958 Z-0.5 F720
G01 X62.1956 Y68.0065 Z-0.5 F720
G01 X61.8124 Y68.0792 Z-0.5 F720
G01 X61.4494 Y68.1195 Z-0.5 F720
G01 X61.1024 Y68.1329 Z-0.5 F720
G01 X60.6027 Y68.1147 Z-0.5 F720
G01 X59.2928 Y67.9727 Z-0.5 F720
G01 X58.5875 Y67.9337 Z-0.5 F720
G01 X58.2078 Y67.9415 Z-0.5 F720
G01 X57.8043 Y67.9749 Z-0.5 F720
G01 X57.1455 Y68.0850 Z-0.5 F720
G01 X56.6645 Y68.2065 Z-0.5 F720
G01 X56.1452 Y68.3729 Z-0.5 F720
G01 X55.2854 Y68.7188 Z-0.5 F720
G01 X54.6520 Y69.0217 Z-0.5 F720
G01 X53.9658 Y69.3888 Z-0.5 F720
G01 X52.8281 Y70.0720 Z-0.5 F720
G01 X54.4570 Y67.8058 Z-0.5 F720
G01 X56.1022 Y65.4174 Z-0.5 F720
G01 X57.6166 Y63.1158 Z-0.5 F720
G01 X58.9859 Y60.9335 Z-0.5 F720
G01 X60.3237 Y58.6902 Z-0.5 F720
G01 X61.6165 Y56.3939 Z-0.5 F720
G01 X62.7418 Y54.2673 Z-0.5 F720
G01 X63.8090 Y52.1097 Z-0.5 F720
G01 X64.7116 Y50.1463 Z-0.5 F720
G01 X65.5520 Y48.1673 Z-0.5 F720
G01 X66.3228 Y46.1769 Z-0.5 F720
G01 X67.0168 Y44.1795 Z-0.5 F720
G01 X67.5633 Y42.4019 Z-0.5 F720
G01 X67.9830 Y40.8474 Z-0.5 F720
G01 X68.2965 Y39.5172 Z-0.5 F720
G01 X68.5236 Y38.4113 Z-0.5 F720
G01 X68.7532 Y37.0885 Z-0.5 F720
G01 X68.7694 Y36.8130 Z-0.5 F720
G01 X68.8128 Y36.5625 Z-0.5 F720
G01 X68.8815 Y36.3331 Z-0.5 F720
G01 X68.9734 Y36.1214 Z-0.5 F720
G01 X69.0867 Y35.9235 Z-0.5 F720
G01 X69.3696 Y35.5547 Z-0.5 F720
G01 X69.7147 Y35.1974 Z-0.5 F720
G01 X69.9058 Y35.0138 Z-0.5 F720
G01 X70.3345 Y34.7244 Z-0.5 F720
G01 X70.7532 Y34.4889 Z-0.5 F720
G01 X71.3277 Y34.2133 Z-0.5 F720
G01 X71.9791 Y33.9453 Z-0.5 F720
G01 X72.7054 Y33.6852 Z-0.5 F720
G01 X73.5047 Y33.4329 Z-0.5 F720
G01 X74.3751 Y33.1887 Z-0.5 F720
G01 X75.3146 Y32.9525 Z-0.5 F720
G01 X76.3213 Y32.7246 Z-0.5 F720
G01 X77.3934 Y32.5051 Z-0.5 F720
G01 X78.5289 Y32.2939 Z-0.5 F720
G01 X79.7259 Y32.0913 Z-0.5 F720
G01 X81.1975 Y31.8659 Z-0.5 F720
G01 X83.9000 Y31.5074 Z-0.5 F720
G01 X87.0688 Y31.1597 Z-0.5 F720
G01 X90.1997 Y30.8771 Z-0.5 F720
G01 X93.7965 Y30.6137 Z-0.5 F720
G01 X97.5872 Y30.3957 Z-0.5 F720
G01 X101.5525 Y30.2242 Z-0.5 F720
G01 X105.6727 Y30.1004 Z-0.5 F720
G01 X109.5967 Y30.0293 Z-0.5 F720
G01 X113.6207 Y30.0006 Z-0.5 F720
G01 X118.0062 Y30.0181 Z-0.5 F720
G01 X122.2810 Y30.0857 Z-0.5 F720
G01 X126.4234 Y30.2020 Z-0.5 F720
G01 X130.4137 Y30.3662 Z-0.5 F720
G01 X134.2326 Y30.5772 Z-0.5 F720
G01 X137.8605 Y30.8337 Z-0.5 F720
G01 X141.2778 Y31.1347 Z-0.5 F720
G01 X144.4650 Y31.4792 Z-0.5 F720
G01 X147.4027 Y31.8659 Z-0.5 F720
G01 X148.8743 Y32.0913 Z-0.5 F720
G01 X150.0712 Y32.2939 Z-0.5 F720
G01 X151.2067 Y32.5051 Z-0.5 F720
G01 X152.2788 Y32.7246 Z-0.5 F720
G01 X153.4469 Y32.9913 Z-0.5 F720
G01 X154.3750 Y33.2288 Z-0.5 F720
G01 X155.2336 Y33.4744 Z-0.5 F720
G01 X156.0209 Y33.7280 Z-0.5 F720
G01 X156.7348 Y33.9894 Z-0.5 F720
G01 X157.3735 Y34.2587 Z-0.5 F720
G01 X157.9351 Y34.5356 Z-0.5 F720
G01 X158.4176 Y34.8200 Z-0.5 F720
G01 X158.6943 Y35.0138 Z-0.5 F720
G01 X159.2305 Y35.5547 Z-0.5 F720
G01 X159.5134 Y35.9235 Z-0.5 F720
G01 X159.6267 Y36.1214 Z-0.5 F720
G01 X159.7186 Y36.3331 Z-0.5 F720
G01 X159.7873 Y36.5625 Z-0.5 F720
G01 X159.8307 Y36.8130 Z-0.5 F720
G01 X159.8469 Y37.0885 Z-0.5 F720
G01 X160.0765 Y38.4113 Z-0.5 F720
G01 X160.2557 Y39.2958 Z-0.5 F720
G01 X160.5078 Y40.4037 Z-0.5 F720
G01 X160.7313 Y41.2913 Z-0.5 F720
G01 X161.0369 Y42.4019 Z-0.5 F720
G01 X161.3015 Y43.2908 Z-0.5 F720
G01 X161.6564 Y44.4017 Z-0.5 F720
G01 X162.3593 Y46.3984 Z-0.5 F720
G01 X162.7831 Y47.5049 Z-0.5 F720
G01 X163.2291 Y48.6082 Z-0.5 F720
G01 X164.1828 Y50.8028 Z-0.5 F720
G01 X165.2104 Y52.9761 Z-0.5 F720
G01 X166.1903 Y54.9088 Z-0.5 F720
G01 X167.3310 Y57.0250 Z-0.5 F720
G01 X168.5167 Y59.1022 Z-0.5 F720
G01 X169.8612 Y61.3350 Z-0.5 F720
G01 X171.2349 Y63.5054 Z-0.5 F720
G01 X172.6245 Y65.6051 Z-0.5 F720
