;Generated with vpype gwrite fabian
G90 ; Use absolute position
G92 X0 Y0 Z0 ; Set the current position as (0,0,0)
G0   X000.0000   Y000.0000   Z003.0000   F500

;Begin Line: layer=0 line=0
G0   X051.3675   Y119.4069   Z003.0000   F2100
G0   X051.3675   Y119.4069   Z000.0000   F210
G0   X051.7989   Y118.0070   Z000.0000   F720
G0   X052.4050   Y116.5098   Z000.0000   F720
G0   X052.9193   Y115.0934   Z000.0000   F720
G0   X052.9193   Y115.0934   Z003.0000   F500

;Begin Line: layer=0 line=1
G0   X053.4016   Y115.1649   Z003.0000   F2100
G0   X053.4016   Y115.1649   Z000.0000   F210
G0   X053.3233   Y115.4154   Z000.0000   F720
G0   X052.8302   Y116.7000   Z000.0000   F720
G0   X052.5125   Y117.4796   Z000.0000   F720
G0   X052.5125   Y117.4796   Z003.0000   F500

;Begin Line: layer=0 line=2
G0   X053.8878   Y118.1660   Z003.0000   F2100
G0   X053.8878   Y118.1660   Z000.0000   F210
G0   X054.7363   Y116.4664   Z000.0000   F720
G0   X054.9959   Y115.8841   Z000.0000   F720
G0   X055.2209   Y115.2760   Z000.0000   F720
G0   X055.2209   Y115.2760   Z003.0000   F500

;Begin Line: layer=0 line=3
G0   X055.3721   Y115.2835   Z003.0000   F2100
G0   X055.3721   Y115.2835   Z000.0000   F210
G0   X055.2405   Y115.6738   Z000.0000   F720
G0   X054.8261   Y116.5732   Z000.0000   F720
G0   X053.8873   Y118.4143   Z000.0000   F720
G0   X053.6036   Y119.0058   Z000.0000   F720
G0   X053.3107   Y119.6822   Z000.0000   F720
G0   X053.3107   Y119.6822   Z003.0000   F500

;Begin Line: layer=0 line=4
G0   X053.6152   Y119.6971   Z003.0000   F2100
G0   X053.6152   Y119.6971   Z000.0000   F210
G0   X053.9593   Y118.9826   Z000.0000   F720
G0   X054.2632   Y118.4050   Z000.0000   F720
G0   X054.2632   Y118.4050   Z003.0000   F500

;Begin Line: layer=0 line=5
G0   X054.1013   Y118.6316   Z003.0000   F2100
G0   X054.1013   Y118.6316   Z000.0000   F210
G0   X055.1468   Y116.6614   Z000.0000   F720
G0   X055.4930   Y115.9258   Z000.0000   F720
G0   X055.7161   Y115.3003   Z000.0000   F720
G0   X055.7161   Y115.3003   Z003.0000   F500

;Begin Line: layer=0 line=6
G0   X055.8408   Y115.3065   Z003.0000   F2100
G0   X055.8408   Y115.3065   Z000.0000   F210
G0   X055.8175   Y115.3953   Z000.0000   F720
G0   X055.8175   Y115.3953   Z003.0000   F500

;Begin Line: layer=0 line=7
G0   X055.6016   Y115.2947   Z003.0000   F2100
G0   X055.6016   Y115.2947   Z000.0000   F210
G0   X055.4826   Y115.6634   Z000.0000   F720
G0   X055.1589   Y116.4027   Z000.0000   F720
G0   X055.1589   Y116.4027   Z003.0000   F500

;Begin Line: layer=0 line=8
G0   X056.0619   Y116.4130   Z003.0000   F2100
G0   X056.0619   Y116.4130   Z000.0000   F210
G0   X055.8092   Y116.9560   Z000.0000   F720
G0   X055.3959   Y117.7397   Z000.0000   F720
G0   X054.2460   Y119.7282   Z000.0000   F720
G0   X054.2460   Y119.7282   Z003.0000   F500

;Begin Line: layer=0 line=9
G0   X054.7233   Y119.7516   Z003.0000   F2100
G0   X054.7233   Y119.7516   Z000.0000   F210
G0   X055.2530   Y118.8893   Z000.0000   F720
G0   X055.7706   Y118.0072   Z000.0000   F720
G0   X055.7706   Y118.0072   Z003.0000   F500

;Begin Line: layer=0 line=10
G0   X055.9458   Y118.7407   Z003.0000   F2100
G0   X055.9458   Y118.7407   Z000.0000   F210
G0   X055.3130   Y119.7806   Z000.0000   F720
G0   X055.3130   Y119.7806   Z003.0000   F500

;Begin Line: layer=0 line=11
G0   X055.4682   Y119.7882   Z003.0000   F2100
G0   X055.4682   Y119.7882   Z000.0000   F210
G0   X055.9071   Y119.0760   Z000.0000   F720
G0   X056.3881   Y118.2399   Z000.0000   F720
G0   X056.7577   Y117.4767   Z000.0000   F720
G0   X057.1112   Y116.6408   Z000.0000   F720
G0   X057.3172   Y116.0282   Z000.0000   F720
G0   X057.4352   Y115.4904   Z000.0000   F720
G0   X057.4481   Y115.3561   Z000.0000   F720
G0   X057.4481   Y115.3561   Z003.0000   F500

;Begin Line: layer=0 line=12
G0   X057.4588   Y115.3644   Z003.0000   F2100
G0   X057.4588   Y115.3644   Z000.0000   F210
G0   X057.3650   Y115.8727   Z000.0000   F720
G0   X057.2611   Y116.2610   Z000.0000   F720
G0   X057.0428   Y116.8562   Z000.0000   F720
G0   X056.6311   Y117.7931   Z000.0000   F720
G0   X056.1948   Y118.6203   Z000.0000   F720
G0   X055.4856   Y119.7890   Z000.0000   F720
G0   X055.4856   Y119.7890   Z003.0000   F500

;Begin Line: layer=0 line=13
G0   X055.5104   Y119.7902   Z003.0000   F2100
G0   X055.5104   Y119.7902   Z000.0000   F210
G0   X056.0103   Y118.9744   Z000.0000   F720
G0   X056.4694   Y118.1608   Z000.0000   F720
G0   X056.8600   Y117.3347   Z000.0000   F720
G0   X057.1637   Y116.5994   Z000.0000   F720
G0   X057.1637   Y116.5994   Z003.0000   F500

;Begin Line: layer=0 line=14
G0   X056.8883   Y116.4033   Z003.0000   F2100
G0   X056.8883   Y116.4033   Z000.0000   F210
G0   X057.0598   Y115.8478   Z000.0000   F720
G0   X057.1536   Y115.3726   Z000.0000   F720
G0   X057.1536   Y115.3726   Z003.0000   F500

;Begin Line: layer=0 line=15
G0   X057.2417   Y115.4263   Z003.0000   F2100
G0   X057.2417   Y115.4263   Z000.0000   F210
G0   X057.1505   Y115.8857   Z000.0000   F720
G0   X056.8935   Y116.6342   Z000.0000   F720
G0   X056.4231   Y117.7225   Z000.0000   F720
G0   X056.0815   Y118.3856   Z000.0000   F720
G0   X055.7512   Y118.9607   Z000.0000   F720
G0   X055.2487   Y119.7774   Z000.0000   F720
G0   X055.2487   Y119.7774   Z003.0000   F500

;Begin Line: layer=0 line=16
G0   X055.1687   Y119.7735   Z003.0000   F2100
G0   X055.1687   Y119.7735   Z000.0000   F210
G0   X055.6134   Y119.0586   Z000.0000   F720
G0   X056.0602   Y118.2955   Z000.0000   F720
G0   X056.4318   Y117.5669   Z000.0000   F720
G0   X056.4318   Y117.5669   Z003.0000   F500

;Begin Line: layer=0 line=17
G0   X056.2081   Y116.8240   Z003.0000   F2100
G0   X056.2081   Y116.8240   Z000.0000   F210
G0   X055.6592   Y117.8865   Z000.0000   F720
G0   X055.3470   Y118.4452   Z000.0000   F720
G0   X054.5609   Y119.7436   Z000.0000   F720
G0   X054.5609   Y119.7436   Z003.0000   F500

;Begin Line: layer=0 line=18
G0   X054.3846   Y119.7350   Z003.0000   F2100
G0   X054.3846   Y119.7350   Z000.0000   F210
G0   X055.3013   Y118.1852   Z000.0000   F720
G0   X055.8357   Y117.2088   Z000.0000   F720
G0   X056.3392   Y116.1643   Z000.0000   F720
G0   X056.5986   Y115.3437   Z000.0000   F720
G0   X056.5986   Y115.3437   Z003.0000   F500

;Begin Line: layer=0 line=19
G0   X056.1669   Y113.0725   Z003.0000   F2100
G0   X056.1669   Y113.0725   Z000.0000   F210
G0   X056.1940   Y111.9666   Z000.0000   F720
G0   X056.2973   Y111.4714   Z000.0000   F720
G0   X056.4426   Y111.1127   Z000.0000   F720
G0   X056.5986   Y110.8437   Z000.0000   F720
G0   X056.5986   Y110.8437   Z003.0000   F500

;Begin Line: layer=0 line=20
G0   X056.1517   Y111.5460   Z003.0000   F2100
G0   X056.1517   Y111.5460   Z000.0000   F210
G0   X056.3007   Y111.1113   Z000.0000   F720
G0   X056.3007   Y111.1113   Z003.0000   F500

;Begin Line: layer=0 line=21
G0   X056.4304   Y110.8354   Z003.0000   F2100
G0   X056.4304   Y110.8354   Z000.0000   F210
G0   X056.3936   Y110.8898   Z000.0000   F720
G0   X056.1517   Y111.5460   Z000.0000   F720
G0   X056.1517   Y111.5460   Z003.0000   F500

;Begin Line: layer=0 line=22
G0   X053.5556   Y110.6440   Z003.0000   F2100
G0   X053.5556   Y110.6440   Z000.0000   F210
G0   X053.3479   Y111.4870   Z000.0000   F720
G0   X053.0795   Y112.8452   Z000.0000   F720
G0   X053.0795   Y112.8452   Z003.0000   F500

;Begin Line: layer=0 line=23
G0   X052.8743   Y112.8148   Z003.0000   F2100
G0   X052.8743   Y112.8148   Z000.0000   F210
G0   X053.2452   Y111.0051   Z000.0000   F720
G0   X053.3485   Y110.6133   Z000.0000   F720
G0   X053.3485   Y110.6133   Z003.0000   F500

;Begin Line: layer=0 line=24
G0   X053.3942   Y110.6200   Z003.0000   F2100
G0   X053.3942   Y110.6200   Z000.0000   F210
G0   X053.2124   Y111.3599   Z000.0000   F720
G0   X053.2124   Y111.3599   Z003.0000   F500

;Begin Line: layer=0 line=25
G0   X053.5289   Y111.6566   Z003.0000   F2100
G0   X053.5289   Y111.6566   Z000.0000   F210
G0   X053.7701   Y110.6758   Z000.0000   F720
G0   X053.7701   Y110.6758   Z003.0000   F500

;Begin Line: layer=0 line=26
G0   X054.5154   Y110.7414   Z003.0000   F2100
G0   X054.5154   Y110.7414   Z000.0000   F210
G0   X054.3660   Y111.1437   Z000.0000   F720
G0   X054.1470   Y112.0580   Z000.0000   F720
G0   X053.9685   Y112.9645   Z000.0000   F720
G0   X053.9685   Y112.9645   Z003.0000   F500

;Begin Line: layer=0 line=27
G0   X054.3042   Y112.9810   Z003.0000   F2100
G0   X054.3042   Y112.9810   Z000.0000   F210
G0   X054.6436   Y111.2262   Z000.0000   F720
G0   X054.8257   Y110.7566   Z000.0000   F720
G0   X054.8257   Y110.7566   Z003.0000   F500

;Begin Line: layer=0 line=28
G0   X056.1624   Y110.8364   Z003.0000   F2100
G0   X056.1624   Y110.8364   Z000.0000   F210
G0   X055.9717   Y111.2289   Z000.0000   F720
G0   X055.8024   Y111.8887   Z000.0000   F720
G0   X055.7062   Y113.0499   Z000.0000   F720
G0   X055.7062   Y113.0499   Z003.0000   F500

;Begin Line: layer=0 line=29
G0   X055.9943   Y113.0640   Z003.0000   F2100
G0   X055.9943   Y113.0640   Z000.0000   F210
G0   X056.0414   Y112.1186   Z000.0000   F720
G0   X056.1492   Y111.5534   Z000.0000   F720
G0   X056.1492   Y111.5534   Z003.0000   F500

;Begin Line: layer=0 line=30
G0   X056.1492   Y111.5534   Z003.0000   F2100
G0   X056.1492   Y111.5534   Z000.0000   F210
G0   X056.0541   Y112.1834   Z000.0000   F720
G0   X056.0541   Y112.1834   Z003.0000   F500

;Begin Line: layer=0 line=31
G0   X056.4781   Y111.7541   Z003.0000   F2100
G0   X056.4781   Y111.7541   Z000.0000   F210
G0   X056.6305   Y111.2036   Z000.0000   F720
G0   X056.8341   Y110.8553   Z000.0000   F720
G0   X056.8341   Y110.8553   Z003.0000   F500

;Begin Line: layer=0 line=32
G0   X057.2846   Y110.8641   Z003.0000   F2100
G0   X057.2846   Y110.8641   Z000.0000   F210
G0   X057.0696   Y111.2066   Z000.0000   F720
G0   X056.9443   Y111.5361   Z000.0000   F720
G0   X056.9001   Y112.1014   Z000.0000   F720
G0   X056.9487   Y112.5911   Z000.0000   F720
G0   X057.0367   Y113.1152   Z000.0000   F720
G0   X057.0367   Y113.1152   Z003.0000   F500

;Begin Line: layer=0 line=33
G0   X058.0624   Y113.0759   Z003.0000   F2100
G0   X058.0624   Y113.0759   Z000.0000   F210
G0   X057.9079   Y112.7701   Z000.0000   F720
G0   X057.7367   Y112.3338   Z000.0000   F720
G0   X057.6735   Y112.0604   Z000.0000   F720
G0   X057.6590   Y111.7815   Z000.0000   F720
G0   X057.6874   Y111.6073   Z000.0000   F720
G0   X057.7495   Y111.4097   Z000.0000   F720
G0   X057.8341   Y111.2444   Z000.0000   F720
G0   X057.9450   Y111.0889   Z000.0000   F720
G0   X058.1269   Y110.8998   Z000.0000   F720
G0   X058.1269   Y110.8998   Z003.0000   F500

;Begin Line: layer=0 line=34
G0   X062.2564   Y103.0014   Z003.0000   F2100
G0   X062.2564   Y103.0014   Z000.0000   F210
G0   X063.4888   Y102.6219   Z000.0000   F720
G0   X064.8983   Y102.2374   Z000.0000   F720
G0   X065.6946   Y101.9965   Z000.0000   F720
G0   X066.3869   Y101.7399   Z000.0000   F720
G0   X066.9059   Y101.4786   Z000.0000   F720
G0   X067.3613   Y101.2014   Z000.0000   F720
G0   X068.2468   Y100.5968   Z000.0000   F720
G0   X068.9638   Y099.9971   Z000.0000   F720
G0   X068.9638   Y099.9971   Z003.0000   F500

;Begin Line: layer=0 line=35
G0   X068.9638   Y099.9971   Z003.0000   F2100
G0   X068.9638   Y099.9971   Z000.0000   F210
G0   X068.6881   Y100.2586   Z000.0000   F720
G0   X068.0278   Y100.7805   Z000.0000   F720
G0   X067.2937   Y101.2728   Z000.0000   F720
G0   X066.7277   Y101.5973   Z000.0000   F720
G0   X066.0394   Y101.8914   Z000.0000   F720
G0   X066.0394   Y101.8914   Z003.0000   F500

;Begin Line: layer=0 line=36
G0   X063.1019   Y100.4625   Z003.0000   F2100
G0   X063.1019   Y100.4625   Z000.0000   F210
G0   X060.4560   Y101.0075   Z000.0000   F720
G0   X059.5358   Y101.1507   Z000.0000   F720
G0   X058.6563   Y101.2077   Z000.0000   F720
G0   X058.1257   Y101.1960   Z000.0000   F720
G0   X057.1157   Y101.1011   Z000.0000   F720
G0   X056.4245   Y101.0649   Z000.0000   F720
G0   X055.7731   Y101.0950   Z000.0000   F720
G0   X055.1286   Y101.1817   Z000.0000   F720
G0   X055.1286   Y101.1817   Z003.0000   F500

;Begin Line: layer=0 line=37
G0   X054.3148   Y101.9515   Z003.0000   F2100
G0   X054.3148   Y101.9515   Z000.0000   F210
G0   X055.5030   Y101.8332   Z000.0000   F720
G0   X055.9179   Y101.8204   Z000.0000   F720
G0   X056.7077   Y101.8404   Z000.0000   F720
G0   X058.3931   Y102.0227   Z000.0000   F720
G0   X058.9231   Y102.0198   Z000.0000   F720
G0   X059.6288   Y101.9512   Z000.0000   F720
G0   X060.1818   Y101.8551   Z000.0000   F720
G0   X061.0913   Y101.6620   Z000.0000   F720
G0   X061.9286   Y101.4602   Z000.0000   F720
G0   X061.9286   Y101.4602   Z003.0000   F500

;Begin Line: layer=0 line=38
G0   X061.5448   Y100.8352   Z003.0000   F2100
G0   X061.5448   Y100.8352   Z000.0000   F210
G0   X064.4096   Y100.2235   Z000.0000   F720
G0   X065.5860   Y099.8788   Z000.0000   F720
G0   X066.4474   Y099.4299   Z000.0000   F720
G0   X067.4645   Y098.7936   Z000.0000   F720
G0   X069.3475   Y097.5343   Z000.0000   F720
G0   X070.2569   Y096.8578   Z000.0000   F720
G0   X070.2569   Y096.8578   Z003.0000   F500

;Begin Line: layer=0 line=39
G0   X070.5609   Y096.9875   Z003.0000   F2100
G0   X070.5609   Y096.9875   Z000.0000   F210
G0   X071.6198   Y096.0845   Z000.0000   F720
G0   X072.5086   Y095.4086   Z000.0000   F720
G0   X073.9818   Y094.3665   Z000.0000   F720
G0   X074.6014   Y093.9841   Z000.0000   F720
G0   X075.2536   Y093.6376   Z000.0000   F720
G0   X076.0004   Y093.2975   Z000.0000   F720
G0   X076.0004   Y093.2975   Z003.0000   F500

;Begin Line: layer=0 line=40
G0   X076.3798   Y092.8090   Z003.0000   F2100
G0   X076.3798   Y092.8090   Z000.0000   F210
G0   X076.8490   Y092.6931   Z000.0000   F720
G0   X077.2948   Y092.6414   Z000.0000   F720
G0   X077.7539   Y092.6433   Z000.0000   F720
G0   X077.9998   Y092.6682   Z000.0000   F720
G0   X077.9998   Y092.6682   Z003.0000   F500

;Begin Line: layer=0 line=41
G0   X077.8590   Y092.9031   Z003.0000   F2100
G0   X077.8590   Y092.9031   Z000.0000   F210
G0   X077.2343   Y092.9098   Z000.0000   F720
G0   X076.6767   Y093.0053   Z000.0000   F720
G0   X076.2713   Y093.1184   Z000.0000   F720
G0   X075.7251   Y093.3331   Z000.0000   F720
G0   X075.0724   Y093.6434   Z000.0000   F720
G0   X074.2423   Y094.1233   Z000.0000   F720
G0   X073.5173   Y094.6093   Z000.0000   F720
G0   X072.2746   Y095.4928   Z000.0000   F720
G0   X072.2746   Y095.4928   Z003.0000   F500

;Begin Line: layer=0 line=42
G0   X072.0459   Y095.7776   Z003.0000   F2100
G0   X072.0459   Y095.7776   Z000.0000   F210
G0   X073.1473   Y094.9718   Z000.0000   F720
G0   X073.7955   Y094.5180   Z000.0000   F720
G0   X074.4669   Y094.0864   Z000.0000   F720
G0   X074.9924   Y093.7975   Z000.0000   F720
G0   X075.6205   Y093.4933   Z000.0000   F720
G0   X076.4328   Y093.1611   Z000.0000   F720
G0   X076.9657   Y093.0333   Z000.0000   F720
G0   X077.4815   Y092.9848   Z000.0000   F720
G0   X077.8025   Y092.9973   Z000.0000   F720
G0   X077.8025   Y092.9973   Z003.0000   F500

;Begin Line: layer=0 line=43
G0   X077.5182   Y092.6273   Z003.0000   F2100
G0   X077.5182   Y092.6273   Z000.0000   F210
G0   X078.0080   Y092.6544   Z000.0000   F720
G0   X078.0080   Y092.6544   Z003.0000   F500

;Begin Line: layer=0 line=44
G0   X078.3847   Y092.0260   Z003.0000   F2100
G0   X078.3847   Y092.0260   Z000.0000   F210
G0   X078.0282   Y091.9918   Z000.0000   F720
G0   X078.0282   Y091.9918   Z003.0000   F500

;Begin Line: layer=0 line=45
G0   X076.5032   Y091.3556   Z003.0000   F2100
G0   X076.5032   Y091.3556   Z000.0000   F210
G0   X076.1755   Y091.4761   Z000.0000   F720
G0   X075.7561   Y091.6617   Z000.0000   F720
G0   X074.5917   Y092.2685   Z000.0000   F720
G0   X073.9252   Y092.6619   Z000.0000   F720
G0   X072.4369   Y093.6358   Z000.0000   F720
G0   X071.4531   Y094.2364   Z000.0000   F720
G0   X070.0199   Y095.0025   Z000.0000   F720
G0   X070.0199   Y095.0025   Z003.0000   F500

