;Generated with vpype gwrite fabian
G90 ; Use absolute position
G92 X0 Y0 Z0 ; Set the current position as (0,0,0)
G0   X000.0000   Y000.0000   Z003.0000   F500

;Begin Line: layer=0 line=0
G0   X024.3826   Y137.1396   Z003.0000   F2100
G0   X024.3826   Y137.1396   Z000.0000   F210
G0   X025.4059   Y137.2061   Z000.0000   F720
G0   X026.5191   Y137.2208   Z000.0000   F720
G0   X027.5357   Y137.1932   Z000.0000   F720
G0   X028.3794   Y137.1369   Z000.0000   F720
G0   X029.5238   Y137.0125   Z000.0000   F720
G0   X030.2599   Y136.8747   Z000.0000   F720
G0   X031.1199   Y136.6672   Z000.0000   F720
G0   X031.1199   Y136.6672   Z003.0000   F500

;Begin Line: layer=0 line=1
G0   X031.2124   Y136.8628   Z003.0000   F2100
G0   X031.2124   Y136.8628   Z000.0000   F210
G0   X030.3732   Y137.1055   Z000.0000   F720
G0   X029.6033   Y137.2751   Z000.0000   F720
G0   X028.8216   Y137.4032   Z000.0000   F720
G0   X027.8018   Y137.5082   Z000.0000   F720
G0   X026.4065   Y137.5733   Z000.0000   F720
G0   X025.4399   Y137.5863   Z000.0000   F720
G0   X024.5823   Y137.5619   Z000.0000   F720
G0   X024.5823   Y137.5619   Z003.0000   F500

;Begin Line: layer=0 line=2
G0   X025.1509   Y138.7640   Z003.0000   F2100
G0   X025.1509   Y138.7640   Z000.0000   F210
G0   X026.7290   Y138.6124   Z000.0000   F720
G0   X027.5800   Y138.4864   Z000.0000   F720
G0   X028.5821   Y138.3063   Z000.0000   F720
G0   X029.8012   Y138.0246   Z000.0000   F720
G0   X030.4267   Y137.8254   Z000.0000   F720
G0   X031.4818   Y137.4324   Z000.0000   F720
G0   X031.5002   Y137.4713   Z000.0000   F720
G0   X030.8566   Y137.7334   Z000.0000   F720
G0   X030.2556   Y137.9504   Z000.0000   F720
G0   X029.0656   Y138.2734   Z000.0000   F720
G0   X027.9260   Y138.5051   Z000.0000   F720
G0   X027.1343   Y138.6411   Z000.0000   F720
G0   X025.9108   Y138.7984   Z000.0000   F720
G0   X025.1941   Y138.8554   Z000.0000   F720
G0   X025.1941   Y138.8554   Z003.0000   F500

;Begin Line: layer=0 line=3
G0   X025.6691   Y139.8597   Z003.0000   F2100
G0   X025.6691   Y139.8597   Z000.0000   F210
G0   X026.2272   Y139.7536   Z000.0000   F720
G0   X027.3728   Y139.4828   Z000.0000   F720
G0   X028.8328   Y139.0655   Z000.0000   F720
G0   X029.5455   Y138.8152   Z000.0000   F720
G0   X030.2699   Y138.5296   Z000.0000   F720
G0   X031.3245   Y138.0630   Z000.0000   F720
G0   X031.6900   Y137.8726   Z000.0000   F720
G0   X031.6900   Y137.8726   Z003.0000   F500

;Begin Line: layer=0 line=4
G0   X031.8189   Y138.1210   Z003.0000   F2100
G0   X031.8189   Y138.1210   Z000.0000   F210
G0   X031.4659   Y138.3299   Z000.0000   F720
G0   X030.4221   Y138.8733   Z000.0000   F720
G0   X029.2570   Y139.3928   Z000.0000   F720
G0   X028.4789   Y139.7071   Z000.0000   F720
G0   X027.2236   Y140.1502   Z000.0000   F720
G0   X025.9579   Y140.4703   Z000.0000   F720
G0   X025.9579   Y140.4703   Z003.0000   F500

;Begin Line: layer=0 line=5
G0   X026.3450   Y141.2279   Z003.0000   F2100
G0   X026.3450   Y141.2279   Z000.0000   F210
G0   X027.8077   Y140.6971   Z000.0000   F720
G0   X028.6561   Y140.3102   Z000.0000   F720
G0   X029.9403   Y139.6676   Z000.0000   F720
G0   X031.0460   Y139.0208   Z000.0000   F720
G0   X031.6484   Y138.6257   Z000.0000   F720
G0   X031.6484   Y138.6257   Z003.0000   F500

;Begin Line: layer=0 line=6
G0   X032.0865   Y138.5674   Z003.0000   F2100
G0   X032.0865   Y138.5674   Z000.0000   F210
G0   X030.8851   Y139.4441   Z000.0000   F720
G0   X029.8628   Y140.1021   Z000.0000   F720
G0   X028.9910   Y140.6049   Z000.0000   F720
G0   X028.0846   Y141.0704   Z000.0000   F720
G0   X026.9028   Y141.5867   Z000.0000   F720
G0   X026.9028   Y141.5867   Z003.0000   F500

;Begin Line: layer=0 line=7
G0   X029.2582   Y141.6451   Z003.0000   F2100
G0   X029.2582   Y141.6451   Z000.0000   F210
G0   X029.9710   Y141.1436   Z000.0000   F720
G0   X031.1734   Y140.1824   Z000.0000   F720
G0   X032.3698   Y139.0400   Z000.0000   F720
G0   X032.3863   Y139.0676   Z000.0000   F720
G0   X031.3788   Y140.0529   Z000.0000   F720
G0   X030.8214   Y140.5706   Z000.0000   F720
G0   X030.1358   Y141.1430   Z000.0000   F720
G0   X028.7999   Y142.0222   Z000.0000   F720
G0   X027.5933   Y142.7022   Z000.0000   F720
G0   X027.3048   Y142.8293   Z000.0000   F720
G0   X027.3048   Y142.8293   Z003.0000   F500

;Begin Line: layer=0 line=8
G0   X028.0139   Y144.0123   Z003.0000   F2100
G0   X028.0139   Y144.0123   Z000.0000   F210
G0   X029.1058   Y143.2724   Z000.0000   F720
G0   X029.9741   Y142.5935   Z000.0000   F720
G0   X030.8777   Y141.7760   Z000.0000   F720
G0   X031.7054   Y140.8827   Z000.0000   F720
G0   X032.7133   Y139.6131   Z000.0000   F720
G0   X032.7133   Y139.6131   Z003.0000   F500

;Begin Line: layer=0 line=9
G0   X032.7969   Y139.7526   Z003.0000   F2100
G0   X032.7969   Y139.7526   Z000.0000   F210
G0   X032.0306   Y140.7811   Z000.0000   F720
G0   X031.1325   Y141.8276   Z000.0000   F720
G0   X030.2251   Y142.7098   Z000.0000   F720
G0   X029.3326   Y143.4547   Z000.0000   F720
G0   X028.1743   Y144.2799   Z000.0000   F720
G0   X028.1834   Y144.2950   Z000.0000   F720
G0   X028.5508   Y144.0456   Z000.0000   F720
G0   X029.9292   Y143.0114   Z000.0000   F720
G0   X030.9655   Y142.0526   Z000.0000   F720
G0   X031.5787   Y141.3610   Z000.0000   F720
G0   X032.3791   Y140.3349   Z000.0000   F720
G0   X032.3791   Y140.3349   Z003.0000   F500

;Begin Line: layer=0 line=10
G0   X032.3982   Y141.2469   Z003.0000   F2100
G0   X032.3982   Y141.2469   Z000.0000   F210
G0   X033.0780   Y140.2216   Z000.0000   F720
G0   X033.0763   Y140.2188   Z000.0000   F720
G0   X032.3982   Y141.2469   Z000.0000   F720
G0   X032.3982   Y141.2469   Z003.0000   F500

;Begin Line: layer=0 line=11
G0   X032.2670   Y141.4380   Z003.0000   F2100
G0   X032.2670   Y141.4380   Z000.0000   F210
G0   X032.3982   Y141.2469   Z000.0000   F720
G0   X032.3982   Y141.2469   Z000.0000   F720
G0   X032.2670   Y141.4380   Z000.0000   F720
G0   X032.2670   Y141.4380   Z003.0000   F500

;Begin Line: layer=0 line=12
G0   X030.1394   Y143.9008   Z003.0000   F2100
G0   X030.1394   Y143.9008   Z000.0000   F210
G0   X028.7019   Y145.1601   Z000.0000   F720
G0   X028.7162   Y145.1839   Z000.0000   F720
G0   X029.8102   Y144.2284   Z000.0000   F720
G0   X030.1394   Y143.9008   Z000.0000   F720
G0   X030.1394   Y143.9008   Z000.0000   F720
G0   X030.4270   Y143.6463   Z000.0000   F720
G0   X030.7335   Y143.3094   Z000.0000   F720
G0   X030.7335   Y143.3094   Z000.0000   F720
G0   X031.0824   Y142.9621   Z000.0000   F720
G0   X031.3464   Y142.6357   Z000.0000   F720
G0   X031.3464   Y142.6357   Z000.0000   F720
G0   X031.6245   Y142.2918   Z000.0000   F720
G0   X031.6245   Y142.2918   Z000.0000   F720
G0   X031.9967   Y141.8317   Z000.0000   F720
G0   X032.2670   Y141.4380   Z000.0000   F720
G0   X032.2670   Y141.4380   Z000.0000   F720
G0   X031.6245   Y142.2918   Z000.0000   F720
G0   X031.6245   Y142.2918   Z000.0000   F720
G0   X031.3464   Y142.6357   Z000.0000   F720
G0   X031.3464   Y142.6357   Z000.0000   F720
G0   X030.7335   Y143.3094   Z000.0000   F720
G0   X030.7335   Y143.3094   Z000.0000   F720
G0   X030.1394   Y143.9008   Z000.0000   F720
G0   X030.1394   Y143.9008   Z003.0000   F500

;Begin Line: layer=0 line=13
G0   X029.0213   Y145.6929   Z003.0000   F2100
G0   X029.0213   Y145.6929   Z000.0000   F210
G0   X029.7091   Y145.0452   Z000.0000   F720
G0   X031.0618   Y143.6225   Z000.0000   F720
G0   X031.9962   Y142.4250   Z000.0000   F720
G0   X032.6098   Y141.5055   Z000.0000   F720
G0   X033.2406   Y140.4928   Z000.0000   F720
G0   X033.2406   Y140.4928   Z003.0000   F500

;Begin Line: layer=0 line=14
G0   X033.5565   Y141.0198   Z003.0000   F2100
G0   X033.5565   Y141.0198   Z000.0000   F210
G0   X032.7262   Y142.4464   Z000.0000   F720
G0   X032.0488   Y143.5147   Z000.0000   F720
G0   X031.1670   Y144.7513   Z000.0000   F720
G0   X029.6405   Y146.5431   Z000.0000   F720
G0   X029.6405   Y146.5431   Z003.0000   F500

;Begin Line: layer=0 line=15
G0   X029.9223   Y146.9231   Z003.0000   F2100
G0   X029.9223   Y146.9231   Z000.0000   F210
G0   X030.4286   Y146.3360   Z000.0000   F720
G0   X031.4241   Y145.0197   Z000.0000   F720
G0   X032.3160   Y143.6884   Z000.0000   F720
G0   X033.1476   Y142.3091   Z000.0000   F720
G0   X033.7178   Y141.2890   Z000.0000   F720
G0   X033.7178   Y141.2890   Z003.0000   F500

;Begin Line: layer=0 line=16
G0   X033.6171   Y141.1210   Z003.0000   F2100
G0   X033.6171   Y141.1210   Z000.0000   F210
G0   X032.8463   Y142.4689   Z000.0000   F720
G0   X032.3591   Y143.2741   Z000.0000   F720
G0   X031.6608   Y144.3290   Z000.0000   F720
G0   X030.4152   Y145.9428   Z000.0000   F720
G0   X029.7667   Y146.7133   Z000.0000   F720
G0   X029.7929   Y146.7486   Z000.0000   F720
G0   X030.8110   Y145.5605   Z000.0000   F720
G0   X031.8933   Y144.0783   Z000.0000   F720
G0   X031.8933   Y144.0783   Z003.0000   F500

;Begin Line: layer=0 line=17
G0   X032.6024   Y145.9055   Z003.0000   F2100
G0   X032.6024   Y145.9055   Z000.0000   F210
G0   X032.1780   Y146.6047   Z000.0000   F720
G0   X032.1780   Y146.6047   Z000.0000   F720
G0   X032.6024   Y145.9055   Z000.0000   F720
G0   X032.6024   Y145.9055   Z003.0000   F500

;Begin Line: layer=0 line=18
G0   X032.4071   Y146.8063   Z003.0000   F2100
G0   X032.4071   Y146.8063   Z000.0000   F210
G0   X031.2576   Y148.7235   Z000.0000   F720
G0   X031.2785   Y148.7517   Z000.0000   F720
G0   X032.8244   Y146.1448   Z000.0000   F720
G0   X033.4367   Y145.0525   Z000.0000   F720
G0   X033.4367   Y145.0525   Z003.0000   F500

;Begin Line: layer=0 line=19
G0   X033.3355   Y144.6268   Z003.0000   F2100
G0   X033.3355   Y144.6268   Z000.0000   F210
G0   X032.9078   Y145.4025   Z000.0000   F720
G0   X032.6024   Y145.9055   Z000.0000   F720
G0   X032.6024   Y145.9055   Z000.0000   F720
G0   X033.3355   Y144.6268   Z000.0000   F720
G0   X033.3355   Y144.6268   Z003.0000   F500

;Begin Line: layer=0 line=20
G0   X034.4535   Y142.4696   Z003.0000   F2100
G0   X034.4535   Y142.4696   Z000.0000   F210
G0   X033.4703   Y144.3822   Z000.0000   F720
G0   X033.4703   Y144.3822   Z000.0000   F720
G0   X033.3355   Y144.6268   Z000.0000   F720
G0   X033.3355   Y144.6268   Z000.0000   F720
G0   X033.4703   Y144.3822   Z000.0000   F720
G0   X033.4703   Y144.3822   Z000.0000   F720
G0   X033.7441   Y143.8855   Z000.0000   F720
G0   X034.4615   Y142.4804   Z000.0000   F720
G0   X034.4770   Y142.5012   Z000.0000   F720
G0   X033.6510   Y144.1228   Z000.0000   F720
G0   X032.7234   Y145.7735   Z000.0000   F720
G0   X032.1731   Y146.7033   Z000.0000   F720
G0   X031.0700   Y148.4705   Z000.0000   F720
G0   X031.0404   Y148.4307   Z000.0000   F720
G0   X032.1780   Y146.6047   Z000.0000   F720
G0   X032.1780   Y146.6047   Z000.0000   F720
G0   X031.0394   Y148.4293   Z000.0000   F720
G0   X031.0394   Y148.4293   Z003.0000   F500

;Begin Line: layer=0 line=21
G0   X032.3837   Y147.0852   Z003.0000   F2100
G0   X032.3837   Y147.0852   Z000.0000   F210
G0   X031.3471   Y148.8442   Z000.0000   F720
G0   X031.3471   Y148.8442   Z003.0000   F500

;Begin Line: layer=0 line=22
G0   X031.4304   Y148.9566   Z003.0000   F2100
G0   X031.4304   Y148.9566   Z000.0000   F210
G0   X033.1918   Y145.9237   Z000.0000   F720
G0   X033.9444   Y144.5438   Z000.0000   F720
G0   X034.7695   Y142.8957   Z000.0000   F720
G0   X034.7695   Y142.8957   Z003.0000   F500

;Begin Line: layer=0 line=23
G0   X034.9301   Y143.1123   Z003.0000   F2100
G0   X034.9301   Y143.1123   Z000.0000   F210
G0   X033.9747   Y145.0270   Z000.0000   F720
G0   X031.6273   Y149.2220   Z000.0000   F720
G0   X031.6273   Y149.2220   Z003.0000   F500

;Begin Line: layer=0 line=24
G0   X031.8922   Y149.5792   Z003.0000   F2100
G0   X031.8922   Y149.5792   Z000.0000   F210
G0   X032.8025   Y147.8560   Z000.0000   F720
G0   X034.3271   Y145.0978   Z000.0000   F720
G0   X035.1576   Y143.4190   Z000.0000   F720
G0   X035.1576   Y143.4190   Z003.0000   F500

;Begin Line: layer=0 line=25
G0   X035.4135   Y143.7641   Z003.0000   F2100
G0   X035.4135   Y143.7641   Z000.0000   F210
G0   X034.5283   Y145.5499   Z000.0000   F720
G0   X032.9243   Y148.5335   Z000.0000   F720
G0   X032.1902   Y149.9810   Z000.0000   F720
G0   X032.1902   Y149.9810   Z003.0000   F500

;Begin Line: layer=0 line=26
G0   X032.8135   Y149.5138   Z003.0000   F2100
G0   X032.8135   Y149.5138   Z000.0000   F210
G0   X033.6040   Y147.9453   Z000.0000   F720
G0   X035.0355   Y145.2650   Z000.0000   F720
G0   X035.6310   Y144.0572   Z000.0000   F720
G0   X035.5735   Y143.9798   Z000.0000   F720
G0   X035.3188   Y144.5122   Z000.0000   F720
G0   X034.6707   Y145.7834   Z000.0000   F720
G0   X033.6368   Y147.6829   Z000.0000   F720
G0   X032.9355   Y149.0408   Z000.0000   F720
G0   X032.3605   Y150.2106   Z000.0000   F720
G0   X032.3605   Y150.2106   Z003.0000   F500

;Begin Line: layer=0 line=27
G0   X032.4775   Y150.3454   Z003.0000   F2100
G0   X032.4775   Y150.3454   Z000.0000   F210
G0   X033.4836   Y148.2988   Z000.0000   F720
G0   X034.6001   Y146.2178   Z000.0000   F720
G0   X035.4697   Y144.5472   Z000.0000   F720
G0   X035.6752   Y144.1170   Z000.0000   F720
G0   X035.6752   Y144.1170   Z003.0000   F500

;Begin Line: layer=0 line=28
G0   X036.4112   Y145.1092   Z003.0000   F2100
G0   X036.4112   Y145.1092   Z000.0000   F210
G0   X034.7367   Y148.3689   Z000.0000   F720
G0   X034.2155   Y149.4383   Z000.0000   F720
G0   X033.3579   Y151.3167   Z000.0000   F720
G0   X033.3579   Y151.3167   Z003.0000   F500

;Begin Line: layer=0 line=29
G0   X033.4317   Y151.3981   Z003.0000   F2100
G0   X033.4317   Y151.3981   Z000.0000   F210
G0   X034.5194   Y149.0426   Z000.0000   F720
G0   X035.0847   Y147.9012   Z000.0000   F720
G0   X036.4778   Y145.1991   Z000.0000   F720
G0   X036.4778   Y145.1991   Z003.0000   F500

;Begin Line: layer=0 line=30
G0   X035.9811   Y144.5294   Z003.0000   F2100
G0   X035.9811   Y144.5294   Z000.0000   F210
G0   X035.3751   Y145.7427   Z000.0000   F720
G0   X033.9054   Y148.5355   Z000.0000   F720
G0   X032.8493   Y150.7556   Z000.0000   F720
G0   X032.8493   Y150.7556   Z003.0000   F500

;Begin Line: layer=0 line=31
G0   X033.2085   Y150.8139   Z003.0000   F2100
G0   X033.2085   Y150.8139   Z000.0000   F210
G0   X034.0432   Y149.0316   Z000.0000   F720
G0   X034.8449   Y147.4311   Z000.0000   F720
G0   X035.7827   Y145.6621   Z000.0000   F720
G0   X036.1981   Y144.8220   Z000.0000   F720
G0   X036.1764   Y144.7926   Z000.0000   F720
G0   X035.8182   Y145.5217   Z000.0000   F720
G0   X034.4756   Y148.0722   Z000.0000   F720
G0   X033.8807   Y149.2730   Z000.0000   F720
G0   X033.0758   Y151.0054   Z000.0000   F720
G0   X033.0758   Y151.0054   Z003.0000   F500

;Begin Line: layer=0 line=32
G0   X032.9903   Y150.9111   Z003.0000   F2100
G0   X032.9903   Y150.9111   Z000.0000   F210
G0   X033.4506   Y149.9173   Z000.0000   F720
G0   X034.4750   Y147.7993   Z000.0000   F720
G0   X034.4750   Y147.7993   Z003.0000   F500

;Begin Line: layer=0 line=33
G0   X036.7569   Y145.5754   Z003.0000   F2100
G0   X036.7569   Y145.5754   Z000.0000   F210
G0   X035.2891   Y148.4662   Z000.0000   F720
G0   X034.5848   Y149.9597   Z000.0000   F720
G0   X033.7677   Y151.7689   Z000.0000   F720
G0   X033.7677   Y151.7689   Z003.0000   F500

;Begin Line: layer=0 line=34
G0   X033.8575   Y151.8679   Z003.0000   F2100
G0   X033.8575   Y151.8679   Z000.0000   F210
G0   X034.4874   Y150.4328   Z000.0000   F720
G0   X035.1946   Y148.9091   Z000.0000   F720
G0   X035.8010   Y147.6761   Z000.0000   F720
G0   X036.8345   Y145.6801   Z000.0000   F720
G0   X036.8345   Y145.6801   Z003.0000   F500

;Begin Line: layer=0 line=35
G0   X037.1936   Y146.1641   Z003.0000   F2100
G0   X037.1936   Y146.1641   Z000.0000   F210
G0   X036.4072   Y147.6841   Z000.0000   F720
G0   X035.5946   Y149.4001   Z000.0000   F720
G0   X034.6681   Y151.4606   Z000.0000   F720
G0   X034.2955   Y152.3512   Z000.0000   F720
G0   X034.2955   Y152.3512   Z003.0000   F500

