;Generated with vpype gwrite fabian
G90 ; Use absolute position
G92 X0 Y0 Z0 ; Set the current position as (0,0,0)
G0   X000.0000   Y000.0000   Z003.0000   F500

;Begin Line: layer=0 line=0
G0   X022.3981   Y142.1067   Z003.0000   F2100
G0   X022.3981   Y142.1067   Z000.0000   F210
G0   X023.0038   Y141.6265   Z000.0000   F720
G0   X023.0038   Y141.6265   Z003.0000   F500

;Begin Line: layer=0 line=1
G0   X029.0957   Y139.7361   Z003.0000   F2100
G0   X029.0957   Y139.7361   Z000.0000   F210
G0   X030.5767   Y138.8969   Z000.0000   F720
G0   X031.7003   Y138.1882   Z000.0000   F720
G0   X032.5856   Y137.5383   Z000.0000   F720
G0   X033.4813   Y136.7966   Z000.0000   F720
G0   X035.1114   Y135.2759   Z000.0000   F720
G0   X035.9047   Y134.1867   Z000.0000   F720
G0   X036.4295   Y133.2196   Z000.0000   F720
G0   X036.4295   Y133.2196   Z003.0000   F500

;Begin Line: layer=0 line=2
G0   X036.7445   Y133.8857   Z003.0000   F2100
G0   X036.7445   Y133.8857   Z000.0000   F210
G0   X036.5937   Y134.1868   Z000.0000   F720
G0   X036.0540   Y135.0437   Z000.0000   F720
G0   X035.4627   Y135.8003   Z000.0000   F720
G0   X035.4627   Y135.8003   Z003.0000   F500

;Begin Line: layer=0 line=3
G0   X034.4566   Y135.2560   Z003.0000   F2100
G0   X034.4566   Y135.2560   Z000.0000   F210
G0   X033.3388   Y136.3519   Z000.0000   F720
G0   X032.0416   Y137.4455   Z000.0000   F720
G0   X031.1107   Y138.1308   Z000.0000   F720
G0   X030.3348   Y138.6344   Z000.0000   F720
G0   X028.9400   Y139.4603   Z000.0000   F720
G0   X028.9400   Y139.4603   Z003.0000   F500

;Begin Line: layer=0 line=4
G0   X028.9373   Y139.4547   Z003.0000   F2100
G0   X028.9373   Y139.4547   Z000.0000   F210
G0   X029.0297   Y139.3930   Z000.0000   F720
G0   X029.0297   Y139.3930   Z003.0000   F500

;Begin Line: layer=0 line=5
G0   X028.5453   Y138.6258   Z003.0000   F2100
G0   X028.5453   Y138.6258   Z000.0000   F210
G0   X029.5677   Y137.8768   Z000.0000   F720
G0   X030.3921   Y137.2490   Z000.0000   F720
G0   X031.5621   Y136.1917   Z000.0000   F720
G0   X032.9017   Y134.7487   Z000.0000   F720
G0   X033.8689   Y133.4269   Z000.0000   F720
G0   X033.8689   Y133.4269   Z003.0000   F500

;Begin Line: layer=0 line=6
G0   X033.3391   Y134.0632   Z003.0000   F2100
G0   X033.3391   Y134.0632   Z000.0000   F210
G0   X034.4022   Y132.4030   Z000.0000   F720
G0   X034.8178   Y131.5460   Z000.0000   F720
G0   X035.2066   Y130.4619   Z000.0000   F720
G0   X035.2066   Y130.4619   Z003.0000   F500

;Begin Line: layer=0 line=7
G0   X035.2781   Y130.6615   Z003.0000   F2100
G0   X035.2781   Y130.6615   Z000.0000   F210
G0   X034.8482   Y131.7599   Z000.0000   F720
G0   X034.3579   Y132.7142   Z000.0000   F720
G0   X033.7547   Y133.7330   Z000.0000   F720
G0   X032.7450   Y135.0303   Z000.0000   F720
G0   X031.7862   Y136.0685   Z000.0000   F720
G0   X031.0071   Y136.8386   Z000.0000   F720
G0   X030.1766   Y137.5327   Z000.0000   F720
G0   X030.1766   Y137.5327   Z003.0000   F500

;Begin Line: layer=0 line=8
G0   X030.5685   Y138.1413   Z003.0000   F2100
G0   X030.5685   Y138.1413   Z000.0000   F210
G0   X031.5053   Y137.4626   Z000.0000   F720
G0   X032.6232   Y136.5141   Z000.0000   F720
G0   X033.7033   Y135.4821   Z000.0000   F720
G0   X034.6842   Y134.3111   Z000.0000   F720
G0   X035.4549   Y133.0479   Z000.0000   F720
G0   X035.9206   Y132.1436   Z000.0000   F720
G0   X035.9206   Y132.1436   Z003.0000   F500

;Begin Line: layer=0 line=9
G0   X036.1930   Y132.7197   Z003.0000   F2100
G0   X036.1930   Y132.7197   Z000.0000   F210
G0   X035.8566   Y133.3915   Z000.0000   F720
G0   X035.8566   Y133.3915   Z003.0000   F500

;Begin Line: layer=0 line=10
G0   X033.7037   Y132.2217   Z003.0000   F2100
G0   X033.7037   Y132.2217   Z000.0000   F210
G0   X032.7231   Y133.7567   Z000.0000   F720
G0   X031.5205   Y135.3321   Z000.0000   F720
G0   X030.5279   Y136.4215   Z000.0000   F720
G0   X029.7190   Y137.1647   Z000.0000   F720
G0   X028.3755   Y138.2668   Z000.0000   F720
G0   X028.3755   Y138.2668   Z003.0000   F500

;Begin Line: layer=0 line=11
G0   X028.4004   Y138.3193   Z003.0000   F2100
G0   X028.4004   Y138.3193   Z000.0000   F210
G0   X029.5772   Y137.3699   Z000.0000   F720
G0   X030.1875   Y136.8384   Z000.0000   F720
G0   X030.7944   Y136.2308   Z000.0000   F720
G0   X032.0155   Y134.8461   Z000.0000   F720
G0   X032.0155   Y134.8461   Z003.0000   F500

;Begin Line: layer=0 line=12
G0   X032.1680   Y132.4784   Z003.0000   F2100
G0   X032.1680   Y132.4784   Z000.0000   F210
G0   X032.7184   Y131.4843   Z000.0000   F720
G0   X033.1007   Y130.6467   Z000.0000   F720
G0   X033.4190   Y129.8321   Z000.0000   F720
G0   X033.7592   Y128.8623   Z000.0000   F720
G0   X033.9947   Y128.0099   Z000.0000   F720
G0   X034.1201   Y127.4251   Z000.0000   F720
G0   X034.1201   Y127.4251   Z003.0000   F500

;Begin Line: layer=0 line=13
G0   X034.1344   Y127.4651   Z003.0000   F2100
G0   X034.1344   Y127.4651   Z000.0000   F210
G0   X034.0418   Y127.9008   Z000.0000   F720
G0   X033.8145   Y128.7627   Z000.0000   F720
G0   X033.5245   Y129.6173   Z000.0000   F720
G0   X033.2559   Y130.3432   Z000.0000   F720
G0   X032.8835   Y131.2101   Z000.0000   F720
G0   X032.8835   Y131.2101   Z003.0000   F500

;Begin Line: layer=0 line=14
G0   X034.2655   Y129.5342   Z003.0000   F2100
G0   X034.2655   Y129.5342   Z000.0000   F210
G0   X034.5055   Y128.5024   Z000.0000   F720
G0   X034.5055   Y128.5024   Z003.0000   F500

;Begin Line: layer=0 line=15
G0   X033.7306   Y128.1013   Z003.0000   F2100
G0   X033.7306   Y128.1013   Z000.0000   F210
G0   X033.9790   Y127.0033   Z000.0000   F720
G0   X033.9790   Y127.0033   Z003.0000   F500

;Begin Line: layer=0 line=16
G0   X033.9134   Y126.7416   Z003.0000   F2100
G0   X033.9134   Y126.7416   Z000.0000   F210
G0   X033.7348   Y127.5446   Z000.0000   F720
G0   X033.4441   Y128.5621   Z000.0000   F720
G0   X032.9584   Y129.7645   Z000.0000   F720
G0   X032.9584   Y129.7645   Z003.0000   F500

;Begin Line: layer=0 line=17
G0   X033.0008   Y129.1792   Z003.0000   F2100
G0   X033.0008   Y129.1792   Z000.0000   F210
G0   X032.7151   Y129.8403   Z000.0000   F720
G0   X032.3465   Y130.6368   Z000.0000   F720
G0   X031.7245   Y131.8603   Z000.0000   F720
G0   X031.1949   Y132.8099   Z000.0000   F720
G0   X030.5346   Y133.9112   Z000.0000   F720
G0   X029.6521   Y135.1239   Z000.0000   F720
G0   X028.8957   Y136.0670   Z000.0000   F720
G0   X027.8802   Y137.2195   Z000.0000   F720
G0   X027.8802   Y137.2195   Z003.0000   F500

;Begin Line: layer=0 line=18
G0   X028.0551   Y137.5894   Z003.0000   F2100
G0   X028.0551   Y137.5894   Z000.0000   F210
G0   X028.5034   Y137.1342   Z000.0000   F720
G0   X028.5034   Y137.1342   Z003.0000   F500

;Begin Line: layer=0 line=19
G0   X028.2809   Y132.7198   Z003.0000   F2100
G0   X028.2809   Y132.7198   Z000.0000   F210
G0   X029.4985   Y131.0939   Z000.0000   F720
G0   X030.3964   Y129.9358   Z000.0000   F720
G0   X031.3336   Y128.6093   Z000.0000   F720
G0   X032.0059   Y127.4480   Z000.0000   F720
G0   X032.3546   Y126.6621   Z000.0000   F720
G0   X032.3546   Y126.6621   Z003.0000   F500

;Begin Line: layer=0 line=20
G0   X032.6335   Y127.0259   Z003.0000   F2100
G0   X032.6335   Y127.0259   Z000.0000   F210
G0   X032.2262   Y128.0199   Z000.0000   F720
G0   X031.7416   Y128.9263   Z000.0000   F720
G0   X031.1616   Y129.8284   Z000.0000   F720
G0   X030.3508   Y131.0358   Z000.0000   F720
G0   X029.5279   Y132.1120   Z000.0000   F720
G0   X028.8078   Y133.0862   Z000.0000   F720
G0   X027.0688   Y135.5041   Z000.0000   F720
G0   X027.0688   Y135.5041   Z003.0000   F500

;Begin Line: layer=0 line=21
G0   X026.8731   Y135.0902   Z003.0000   F2100
G0   X026.8731   Y135.0902   Z000.0000   F210
G0   X028.8573   Y132.3624   Z000.0000   F720
G0   X030.0590   Y130.8456   Z000.0000   F720
G0   X031.1159   Y129.3595   Z000.0000   F720
G0   X031.7647   Y128.3582   Z000.0000   F720
G0   X032.1823   Y127.5164   Z000.0000   F720
G0   X032.6397   Y126.4105   Z000.0000   F720
G0   X032.6397   Y126.4105   Z003.0000   F500

;Begin Line: layer=0 line=22
G0   X032.4960   Y126.5026   Z003.0000   F2100
G0   X032.4960   Y126.5026   Z000.0000   F210
G0   X033.3348   Y124.4317   Z000.0000   F720
G0   X033.3348   Y124.4317   Z003.0000   F500

;Begin Line: layer=0 line=23
G0   X033.4321   Y124.8202   Z003.0000   F2100
G0   X033.4321   Y124.8202   Z000.0000   F210
G0   X032.9850   Y126.1737   Z000.0000   F720
G0   X032.9850   Y126.1737   Z003.0000   F500

;Begin Line: layer=0 line=24
G0   X032.5427   Y125.8990   Z003.0000   F2100
G0   X032.5427   Y125.8990   Z000.0000   F210
G0   X032.0848   Y126.8701   Z000.0000   F720
G0   X031.6482   Y127.7492   Z000.0000   F720
G0   X030.6023   Y129.2398   Z000.0000   F720
G0   X029.5621   Y130.6377   Z000.0000   F720
G0   X028.2579   Y132.3253   Z000.0000   F720
G0   X027.2895   Y133.6421   Z000.0000   F720
G0   X027.2895   Y133.6421   Z003.0000   F500

;Begin Line: layer=0 line=25
G0   X027.1608   Y133.8214   Z003.0000   F2100
G0   X027.1608   Y133.8214   Z000.0000   F210
G0   X026.6299   Y134.5084   Z000.0000   F720
G0   X026.6299   Y134.5084   Z003.0000   F500

;Begin Line: layer=0 line=26
G0   X026.6484   Y134.5602   Z003.0000   F2100
G0   X026.6484   Y134.5602   Z000.0000   F210
G0   X028.0142   Y132.7719   Z000.0000   F720
G0   X028.7044   Y131.8287   Z000.0000   F720
G0   X029.5009   Y130.8711   Z000.0000   F720
G0   X030.5296   Y129.5212   Z000.0000   F720
G0   X031.6387   Y127.9501   Z000.0000   F720
G0   X031.6387   Y127.9501   Z003.0000   F500

;Begin Line: layer=0 line=27
G0   X032.9088   Y128.2140   Z003.0000   F2100
G0   X032.9088   Y128.2140   Z000.0000   F210
G0   X033.0200   Y127.9149   Z000.0000   F720
G0   X033.3287   Y126.8711   Z000.0000   F720
G0   X033.6493   Y125.6870   Z000.0000   F720
G0   X033.6493   Y125.6870   Z003.0000   F500

;Begin Line: layer=0 line=28
G0   X033.4914   Y125.0570   Z003.0000   F2100
G0   X033.4914   Y125.0570   Z000.0000   F210
G0   X033.2804   Y125.7630   Z000.0000   F720
G0   X032.9242   Y126.8518   Z000.0000   F720
G0   X032.5532   Y127.8878   Z000.0000   F720
G0   X032.1462   Y128.7611   Z000.0000   F720
G0   X030.8909   Y130.8350   Z000.0000   F720
G0   X029.9449   Y132.1940   Z000.0000   F720
G0   X029.1957   Y133.2289   Z000.0000   F720
G0   X029.1957   Y133.2289   Z003.0000   F500

;Begin Line: layer=0 line=29
G0   X029.7402   Y134.0173   Z003.0000   F2100
G0   X029.7402   Y134.0173   Z000.0000   F210
G0   X028.7056   Y135.4183   Z000.0000   F720
G0   X028.1555   Y136.1396   Z000.0000   F720
G0   X027.6593   Y136.7524   Z000.0000   F720
G0   X027.6593   Y136.7524   Z003.0000   F500

;Begin Line: layer=0 line=30
G0   X027.6099   Y136.6481   Z003.0000   F2100
G0   X027.6099   Y136.6481   Z000.0000   F210
G0   X028.0773   Y136.0650   Z000.0000   F720
G0   X028.9397   Y134.9171   Z000.0000   F720
G0   X029.9831   Y133.4848   Z000.0000   F720
G0   X031.0071   Y131.8936   Z000.0000   F720
G0   X031.8510   Y130.3514   Z000.0000   F720
G0   X032.3928   Y129.3214   Z000.0000   F720
G0   X032.9088   Y128.2140   Z000.0000   F720
G0   X032.9088   Y128.2140   Z003.0000   F500

;Begin Line: layer=0 line=31
G0   X032.9088   Y128.2140   Z003.0000   F2100
G0   X032.9088   Y128.2140   Z000.0000   F210
G0   X032.7621   Y128.6083   Z000.0000   F720
G0   X032.7621   Y128.6083   Z003.0000   F500

;Begin Line: layer=0 line=32
G0   X032.7206   Y128.4389   Z003.0000   F2100
G0   X032.7206   Y128.4389   Z000.0000   F210
G0   X032.3350   Y129.2581   Z000.0000   F720
G0   X031.3858   Y131.0271   Z000.0000   F720
G0   X030.3678   Y132.6846   Z000.0000   F720
G0   X029.6390   Y133.7613   Z000.0000   F720
G0   X029.0605   Y134.5642   Z000.0000   F720
G0   X028.1678   Y135.7768   Z000.0000   F720
G0   X027.6234   Y136.4853   Z000.0000   F720
G0   X027.6234   Y136.4853   Z003.0000   F500

;Begin Line: layer=0 line=33
G0   X027.4988   Y136.4133   Z003.0000   F2100
G0   X027.4988   Y136.4133   Z000.0000   F210
G0   X028.4018   Y135.2069   Z000.0000   F720
G0   X029.3121   Y133.9483   Z000.0000   F720
G0   X029.8994   Y133.1103   Z000.0000   F720
G0   X030.8593   Y131.6597   Z000.0000   F720
G0   X030.8593   Y131.6597   Z003.0000   F500

;Begin Line: layer=0 line=34
G0   X029.3854   Y131.0952   Z003.0000   F2100
G0   X029.3854   Y131.0952   Z000.0000   F210
G0   X030.3430   Y129.8759   Z000.0000   F720
G0   X031.4025   Y128.3822   Z000.0000   F720
G0   X032.1868   Y126.9698   Z000.0000   F720
G0   X032.6358   Y125.9582   Z000.0000   F720
G0   X033.3116   Y124.3392   Z000.0000   F720
G0   X033.3116   Y124.3392   Z003.0000   F500

;Begin Line: layer=0 line=35
G0   X033.1914   Y123.8591   Z003.0000   F2100
G0   X033.1914   Y123.8591   Z000.0000   F210
G0   X033.0088   Y124.1641   Z000.0000   F720
G0   X032.5833   Y125.0090   Z000.0000   F720
G0   X031.1555   Y127.3850   Z000.0000   F720
G0   X030.2626   Y128.5760   Z000.0000   F720
G0   X030.2626   Y128.5760   Z003.0000   F500

;Begin Line: layer=0 line=36
G0   X029.0096   Y129.1024   Z003.0000   F2100
G0   X029.0096   Y129.1024   Z000.0000   F210
G0   X027.9638   Y130.4014   Z000.0000   F720
G0   X026.9213   Y131.9016   Z000.0000   F720
G0   X026.1016   Y133.0320   Z000.0000   F720
G0   X026.1016   Y133.0320   Z003.0000   F500

;Begin Line: layer=0 line=37
G0   X026.3763   Y133.6480   Z003.0000   F2100
G0   X026.3763   Y133.6480   Z000.0000   F210
G0   X027.0156   Y132.8167   Z000.0000   F720
G0   X027.8550   Y131.5951   Z000.0000   F720
G0   X029.2242   Y129.8552   Z000.0000   F720
G0   X030.1204   Y128.6133   Z000.0000   F720
G0   X031.0009   Y127.4656   Z000.0000   F720
G0   X031.4536   Y126.7410   Z000.0000   F720
G0   X031.4536   Y126.7410   Z003.0000   F500

;Begin Line: layer=0 line=38
G0   X031.6386   Y125.4171   Z003.0000   F2100
G0   X031.6386   Y125.4171   Z000.0000   F210
G0   X032.1661   Y124.7439   Z000.0000   F720
G0   X032.9681   Y123.5604   Z000.0000   F720
G0   X033.0837   Y123.4293   Z000.0000   F720
G0   X033.0837   Y123.4293   Z003.0000   F500

;Begin Line: layer=0 line=39
G0   X033.1423   Y123.6634   Z003.0000   F2100
G0   X033.1423   Y123.6634   Z000.0000   F210
G0   X032.9561   Y123.9269   Z000.0000   F720
G0   X032.5978   Y124.5435   Z000.0000   F720
G0   X031.1116   Y126.6570   Z000.0000   F720
G0   X030.4971   Y127.4697   Z000.0000   F720
G0   X029.5738   Y128.5746   Z000.0000   F720
G0   X028.3553   Y130.1565   Z000.0000   F720
G0   X027.5863   Y131.1247   Z000.0000   F720
G0   X027.5863   Y131.1247   Z003.0000   F500

;Begin Line: layer=0 line=40
G0   X026.6050   Y129.8846   Z003.0000   F2100
G0   X026.6050   Y129.8846   Z000.0000   F210
G0   X025.4866   Y131.3131   Z000.0000   F720
G0   X025.4866   Y131.3131   Z003.0000   F500

;Begin Line: layer=0 line=41
G0   X025.5589   Y131.5152   Z003.0000   F2100
G0   X025.5589   Y131.5152   Z000.0000   F210
G0   X026.4786   Y130.3290   Z000.0000   F720
G0   X028.2519   Y128.2776   Z000.0000   F720
G0   X028.2519   Y128.2776   Z003.0000   F500

;Begin Line: layer=0 line=42
G0   X028.0215   Y127.3023   Z003.0000   F2100
G0   X028.0215   Y127.3023   Z000.0000   F210
G0   X029.1537   Y126.2207   Z000.0000   F720
G0   X030.3943   Y125.1382   Z000.0000   F720
G0   X031.4473   Y124.1542   Z000.0000   F720
G0   X032.4491   Y123.1435   Z000.0000   F720
G0   X032.9244   Y122.7221   Z000.0000   F720
G0   X032.9244   Y122.7221   Z003.0000   F500

;Begin Line: layer=0 line=43
G0   X032.9305   Y122.7630   Z003.0000   F2100
G0   X032.9305   Y122.7630   Z000.0000   F210
G0   X032.3664   Y123.2748   Z000.0000   F720
G0   X032.3664   Y123.2748   Z003.0000   F500

;Begin Line: layer=0 line=44
G0   X032.5265   Y123.1298   Z003.0000   F2100
G0   X032.5265   Y123.1298   Z000.0000   F210
G0   X031.8315   Y123.8435   Z000.0000   F720
G0   X030.5917   Y125.0261   Z000.0000   F720
G0   X029.5101   Y125.9900   Z000.0000   F720
G0   X028.2566   Y127.1414   Z000.0000   F720
G0   X028.2566   Y127.1414   Z003.0000   F500

;Begin Line: layer=0 line=45
