;Generated with vpype gwrite fabian
G90 ; Use absolute position
G92 X0 Y0 Z0 ; Set the current position as (0,0,0)
G0   X000.0000   Y000.0000   Z003.0000   F500

;Begin Line: layer=0 line=0
G0   X010.0746   Y099.7739   Z003.0000   F2100
G0   X010.0746   Y099.7739   Z000.0000   F210
G0   X011.0100   Y098.7328   Z000.0000   F720
G0   X012.9810   Y096.2262   Z000.0000   F720
G0   X013.9534   Y095.1629   Z000.0000   F720
G0   X015.2460   Y093.8386   Z000.0000   F720
G0   X015.8909   Y093.0178   Z000.0000   F720
G0   X016.6093   Y092.2081   Z000.0000   F720
G0   X017.9413   Y091.0221   Z000.0000   F720
G0   X018.8666   Y090.4143   Z000.0000   F720
G0   X020.6515   Y089.1860   Z000.0000   F720
G0   X020.6515   Y089.1860   Z003.0000   F500

;Begin Line: layer=0 line=1
G0   X019.4205   Y089.1531   Z003.0000   F2100
G0   X019.4205   Y089.1531   Z000.0000   F210
G0   X018.6786   Y089.6354   Z000.0000   F720
G0   X016.6494   Y090.8026   Z000.0000   F720
G0   X015.4779   Y091.7823   Z000.0000   F720
G0   X013.9599   Y093.4315   Z000.0000   F720
G0   X013.1967   Y094.1308   Z000.0000   F720
G0   X012.0042   Y095.0955   Z000.0000   F720
G0   X008.2275   Y099.0808   Z000.0000   F720
G0   X008.2275   Y099.0808   Z003.0000   F500

;Begin Line: layer=0 line=2
G0   X007.1500   Y098.7579   Z003.0000   F2100
G0   X007.1500   Y098.7579   Z000.0000   F210
G0   X010.2604   Y095.4623   Z000.0000   F720
G0   X011.8330   Y093.9308   Z000.0000   F720
G0   X013.3005   Y092.7247   Z000.0000   F720
G0   X014.7434   Y091.2669   Z000.0000   F720
G0   X014.7434   Y091.2669   Z003.0000   F500

;Begin Line: layer=0 line=3
G0   X015.3412   Y090.2500   Z003.0000   F2100
G0   X015.3412   Y090.2500   Z000.0000   F210
G0   X014.4329   Y090.9378   Z000.0000   F720
G0   X013.1930   Y092.1614   Z000.0000   F720
G0   X012.2400   Y093.0286   Z000.0000   F720
G0   X010.9839   Y094.1038   Z000.0000   F720
G0   X009.9254   Y095.1680   Z000.0000   F720
G0   X008.6877   Y096.5310   Z000.0000   F720
G0   X007.1500   Y098.1602   Z000.0000   F720
G0   X007.1500   Y098.1602   Z003.0000   F500

;Begin Line: layer=0 line=4
G0   X007.1500   Y097.6575   Z003.0000   F2100
G0   X007.1500   Y097.6575   Z000.0000   F210
G0   X007.8089   Y096.9845   Z000.0000   F720
G0   X009.1483   Y095.4847   Z000.0000   F720
G0   X010.5795   Y093.9147   Z000.0000   F720
G0   X012.0402   Y092.5818   Z000.0000   F720
G0   X012.0402   Y092.5818   Z003.0000   F500

;Begin Line: layer=0 line=5
G0   X013.3152   Y090.7675   Z003.0000   F2100
G0   X013.3152   Y090.7675   Z000.0000   F210
G0   X014.2586   Y089.9662   Z000.0000   F720
G0   X015.1563   Y089.3323   Z000.0000   F720
G0   X016.1520   Y088.7807   Z000.0000   F720
G0   X018.2147   Y087.8575   Z000.0000   F720
G0   X019.1351   Y087.3765   Z000.0000   F720
G0   X019.9908   Y086.9694   Z000.0000   F720
G0   X020.8631   Y086.6165   Z000.0000   F720
G0   X021.5852   Y086.4028   Z000.0000   F720
G0   X022.4560   Y086.2293   Z000.0000   F720
G0   X023.6716   Y086.1119   Z000.0000   F720
G0   X024.8087   Y086.0661   Z000.0000   F720
G0   X026.1114   Y086.0359   Z000.0000   F720
G0   X027.0321   Y085.9733   Z000.0000   F720
G0   X027.0321   Y085.9733   Z003.0000   F500

;Begin Line: layer=0 line=6
G0   X024.7004   Y086.7099   Z003.0000   F2100
G0   X024.7004   Y086.7099   Z000.0000   F210
G0   X023.4603   Y086.8802   Z000.0000   F720
G0   X022.6909   Y087.0218   Z000.0000   F720
G0   X021.6500   Y087.4062   Z000.0000   F720
G0   X020.8108   Y087.8815   Z000.0000   F720
G0   X019.4589   Y088.7689   Z000.0000   F720
G0   X018.5511   Y089.3410   Z000.0000   F720
G0   X017.8908   Y089.7291   Z000.0000   F720
G0   X016.7184   Y090.3407   Z000.0000   F720
G0   X015.7179   Y090.9726   Z000.0000   F720
G0   X014.7114   Y091.9050   Z000.0000   F720
G0   X013.5438   Y093.1371   Z000.0000   F720
G0   X012.0775   Y094.3147   Z000.0000   F720
G0   X012.0775   Y094.3147   Z003.0000   F500

;Begin Line: layer=0 line=7
G0   X010.7734   Y093.6913   Z003.0000   F2100
G0   X010.7734   Y093.6913   Z000.0000   F210
G0   X012.6525   Y091.9957   Z000.0000   F720
G0   X013.9549   Y090.7659   Z000.0000   F720
G0   X014.6673   Y090.2041   Z000.0000   F720
G0   X015.7307   Y089.4984   Z000.0000   F720
G0   X016.4755   Y089.1212   Z000.0000   F720
G0   X017.8017   Y088.5095   Z000.0000   F720
G0   X020.1573   Y087.2413   Z000.0000   F720
G0   X021.2536   Y086.7351   Z000.0000   F720
G0   X022.2558   Y086.4461   Z000.0000   F720
G0   X022.2558   Y086.4461   Z003.0000   F500

;Begin Line: layer=0 line=8
G0   X022.6345   Y084.4403   Z003.0000   F2100
G0   X022.6345   Y084.4403   Z000.0000   F210
G0   X023.7447   Y084.3878   Z000.0000   F720
G0   X027.0961   Y084.3088   Z000.0000   F720
G0   X027.7470   Y084.2431   Z000.0000   F720
G0   X028.4825   Y084.1170   Z000.0000   F720
G0   X029.2437   Y083.8975   Z000.0000   F720
G0   X029.8395   Y083.6140   Z000.0000   F720
G0   X030.2839   Y083.3179   Z000.0000   F720
G0   X030.7359   Y082.9636   Z000.0000   F720
G0   X030.7359   Y082.9636   Z003.0000   F500

;Begin Line: layer=0 line=9
G0   X029.6801   Y081.7633   Z003.0000   F2100
G0   X029.6801   Y081.7633   Z000.0000   F210
G0   X028.7163   Y082.0904   Z000.0000   F720
G0   X027.7974   Y082.2399   Z000.0000   F720
G0   X026.9631   Y082.2730   Z000.0000   F720
G0   X024.7708   Y082.1590   Z000.0000   F720
G0   X023.8045   Y082.1856   Z000.0000   F720
G0   X021.3406   Y082.3865   Z000.0000   F720
G0   X020.4299   Y082.4971   Z000.0000   F720
G0   X019.6505   Y082.6244   Z000.0000   F720
G0   X019.0369   Y082.7507   Z000.0000   F720
G0   X018.3636   Y082.9207   Z000.0000   F720
G0   X018.3636   Y082.9207   Z003.0000   F500

;Begin Line: layer=0 line=10
G0   X015.5878   Y082.5043   Z003.0000   F2100
G0   X015.5878   Y082.5043   Z000.0000   F210
G0   X016.3752   Y082.1821   Z000.0000   F720
G0   X017.6462   Y081.8083   Z000.0000   F720
G0   X018.7128   Y081.5888   Z000.0000   F720
G0   X020.8233   Y081.2368   Z000.0000   F720
G0   X021.5293   Y081.1349   Z000.0000   F720
G0   X022.8266   Y081.0067   Z000.0000   F720
G0   X024.2584   Y080.9421   Z000.0000   F720
G0   X024.2584   Y080.9421   Z003.0000   F500

;Begin Line: layer=0 line=11
G0   X025.4399   Y081.4374   Z003.0000   F2100
G0   X025.4399   Y081.4374   Z000.0000   F210
G0   X026.5384   Y081.5882   Z000.0000   F720
G0   X027.4679   Y081.6375   Z000.0000   F720
G0   X028.2546   Y081.5774   Z000.0000   F720
G0   X029.4162   Y081.3338   Z000.0000   F720
G0   X030.3651   Y080.9373   Z000.0000   F720
G0   X031.2743   Y080.3797   Z000.0000   F720
G0   X032.9683   Y079.0918   Z000.0000   F720
G0   X033.9098   Y078.3097   Z000.0000   F720
G0   X034.5496   Y077.6436   Z000.0000   F720
G0   X035.5032   Y076.5951   Z000.0000   F720
G0   X036.5533   Y075.3725   Z000.0000   F720
G0   X036.5533   Y075.3725   Z003.0000   F500

;Begin Line: layer=0 line=12
G0   X037.6466   Y078.5803   Z003.0000   F2100
G0   X037.6466   Y078.5803   Z000.0000   F210
G0   X039.6117   Y076.2681   Z000.0000   F720
G0   X040.8277   Y074.9807   Z000.0000   F720
G0   X042.1540   Y073.6357   Z000.0000   F720
G0   X043.1015   Y072.8153   Z000.0000   F720
G0   X043.9262   Y072.1734   Z000.0000   F720
G0   X045.1946   Y071.1432   Z000.0000   F720
G0   X046.2854   Y070.1186   Z000.0000   F720
G0   X047.5714   Y068.5346   Z000.0000   F720
G0   X048.4449   Y067.6280   Z000.0000   F720
G0   X048.4449   Y067.6280   Z003.0000   F500

;Begin Line: layer=0 line=13
G0   X050.3175   Y067.5571   Z003.0000   F2100
G0   X050.3175   Y067.5571   Z000.0000   F210
G0   X049.4303   Y068.3438   Z000.0000   F720
G0   X049.4303   Y068.3438   Z000.0000   F720
G0   X049.2643   Y068.5041   Z000.0000   F720
G0   X049.2643   Y068.5041   Z000.0000   F720
G0   X048.8748   Y068.8803   Z000.0000   F720
G0   X047.5405   Y070.3793   Z000.0000   F720
G0   X047.5405   Y070.3793   Z000.0000   F720
G0   X048.4887   Y069.3220   Z000.0000   F720
G0   X049.2643   Y068.5041   Z000.0000   F720
G0   X049.2643   Y068.5041   Z000.0000   F720
G0   X049.4303   Y068.3438   Z000.0000   F720
G0   X049.4303   Y068.3438   Z000.0000   F720
G0   X049.7607   Y068.0248   Z000.0000   F720
G0   X050.3175   Y067.5571   Z000.0000   F720
G0   X050.3175   Y067.5571   Z003.0000   F500

;Begin Line: layer=0 line=14
G0   X050.5383   Y067.3718   Z003.0000   F2100
G0   X050.5383   Y067.3718   Z000.0000   F210
G0   X050.3175   Y067.5571   Z000.0000   F720
G0   X050.3175   Y067.5571   Z000.0000   F720
G0   X050.5383   Y067.3718   Z000.0000   F720
G0   X050.5383   Y067.3718   Z003.0000   F500

;Begin Line: layer=0 line=15
G0   X050.7838   Y067.1655   Z003.0000   F2100
G0   X050.7838   Y067.1655   Z000.0000   F210
G0   X050.5383   Y067.3718   Z000.0000   F720
G0   X050.5383   Y067.3718   Z000.0000   F720
G0   X051.2139   Y066.8660   Z000.0000   F720
G0   X052.1725   Y066.2411   Z000.0000   F720
G0   X053.0501   Y065.6115   Z000.0000   F720
G0   X053.7725   Y064.8665   Z000.0000   F720
G0   X053.7725   Y064.8665   Z003.0000   F500

;Begin Line: layer=0 line=16
G0   X053.0723   Y063.8878   Z003.0000   F2100
G0   X053.0723   Y063.8878   Z000.0000   F210
G0   X053.4395   Y063.1934   Z000.0000   F720
G0   X053.6428   Y062.5987   Z000.0000   F720
G0   X053.7592   Y062.0190   Z000.0000   F720
G0   X053.8170   Y061.2832   Z000.0000   F720
G0   X053.7903   Y060.2412   Z000.0000   F720
G0   X053.6789   Y059.0557   Z000.0000   F720
G0   X053.5055   Y057.5630   Z000.0000   F720
G0   X053.4166   Y056.3012   Z000.0000   F720
G0   X053.4631   Y055.4249   Z000.0000   F720
G0   X053.6291   Y053.9157   Z000.0000   F720
G0   X053.7206   Y053.3711   Z000.0000   F720
G0   X053.8106   Y053.0594   Z000.0000   F720
G0   X053.8106   Y053.0594   Z003.0000   F500

;Begin Line: layer=0 line=17
G0   X053.2603   Y052.4992   Z003.0000   F2100
G0   X053.2603   Y052.4992   Z000.0000   F210
G0   X053.0729   Y052.6374   Z000.0000   F720
G0   X052.7582   Y052.9084   Z000.0000   F720
G0   X052.4231   Y053.2852   Z000.0000   F720
G0   X052.2361   Y053.5641   Z000.0000   F720
G0   X051.9759   Y054.0378   Z000.0000   F720
G0   X051.7426   Y054.5905   Z000.0000   F720
G0   X051.5769   Y055.0406   Z000.0000   F720
G0   X051.3932   Y055.6492   Z000.0000   F720
G0   X051.2702   Y056.1586   Z000.0000   F720
G0   X051.1570   Y057.0805   Z000.0000   F720
G0   X051.1088   Y058.3584   Z000.0000   F720
G0   X051.1088   Y058.3584   Z003.0000   F500

;Begin Line: layer=0 line=18
G0   X050.8497   Y059.0253   Z003.0000   F2100
G0   X050.8497   Y059.0253   Z000.0000   F210
G0   X050.6991   Y059.9036   Z000.0000   F720
G0   X050.5664   Y060.4059   Z000.0000   F720
G0   X050.2254   Y061.2282   Z000.0000   F720
G0   X050.0193   Y061.6437   Z000.0000   F720
G0   X049.7523   Y062.1007   Z000.0000   F720
G0   X049.4660   Y062.5382   Z000.0000   F720
G0   X048.4567   Y063.8734   Z000.0000   F720
G0   X047.9891   Y064.5211   Z000.0000   F720
G0   X047.3692   Y065.3269   Z000.0000   F720
G0   X046.6099   Y066.1654   Z000.0000   F720
G0   X046.0069   Y066.8786   Z000.0000   F720
G0   X046.0069   Y066.8786   Z003.0000   F500

;Begin Line: layer=0 line=19
G0   X047.7582   Y065.6901   Z003.0000   F2100
G0   X047.7582   Y065.6901   Z000.0000   F210
G0   X048.9829   Y064.1394   Z000.0000   F720
G0   X049.5398   Y063.4843   Z000.0000   F720
G0   X050.0181   Y062.8638   Z000.0000   F720
G0   X050.3723   Y062.3059   Z000.0000   F720
G0   X050.7776   Y061.5472   Z000.0000   F720
G0   X051.0882   Y060.7543   Z000.0000   F720
G0   X051.2415   Y060.1242   Z000.0000   F720
G0   X051.3907   Y059.1287   Z000.0000   F720
G0   X051.4410   Y057.4489   Z000.0000   F720
G0   X051.4904   Y056.7932   Z000.0000   F720
G0   X051.6406   Y055.7998   Z000.0000   F720
G0   X051.6406   Y055.7998   Z003.0000   F500

;Begin Line: layer=0 line=20
G0   X046.9630   Y054.9887   Z003.0000   F2100
G0   X046.9630   Y054.9887   Z000.0000   F210
G0   X046.0168   Y056.0682   Z000.0000   F720
G0   X045.8270   Y056.3132   Z000.0000   F720
G0   X045.7374   Y056.4654   Z000.0000   F720
G0   X045.6640   Y056.6323   Z000.0000   F720
G0   X045.5927   Y056.8587   Z000.0000   F720
G0   X045.5339   Y057.2663   Z000.0000   F720
G0   X045.5184   Y057.5528   Z000.0000   F720
G0   X045.5184   Y057.5528   Z003.0000   F500

;Begin Line: layer=0 line=21
G0   X046.9827   Y056.7924   Z003.0000   F2100
G0   X046.9827   Y056.7924   Z000.0000   F210
G0   X046.8899   Y057.1226   Z000.0000   F720
G0   X046.8045   Y057.5946   Z000.0000   F720
G0   X046.7191   Y058.9198   Z000.0000   F720
G0   X046.6190   Y059.5848   Z000.0000   F720
G0   X046.4575   Y060.3323   Z000.0000   F720
G0   X046.0359   Y062.1007   Z000.0000   F720
G0   X046.0359   Y062.1007   Z003.0000   F500

;Begin Line: layer=0 line=22
G0   X045.7654   Y061.3433   Z003.0000   F2100
G0   X045.7654   Y061.3433   Z000.0000   F210
G0   X045.5231   Y062.8065   Z000.0000   F720
G0   X045.3752   Y063.4687   Z000.0000   F720
G0   X045.0860   Y064.2743   Z000.0000   F720
G0   X044.5594   Y065.4810   Z000.0000   F720
G0   X044.1761   Y066.4914   Z000.0000   F720
G0   X043.6936   Y067.9008   Z000.0000   F720
G0   X043.3195   Y068.7004   Z000.0000   F720
G0   X042.7854   Y069.5084   Z000.0000   F720
G0   X041.8071   Y070.7126   Z000.0000   F720
G0   X040.9273   Y071.7009   Z000.0000   F720
G0   X039.6998   Y073.1252   Z000.0000   F720
G0   X039.6998   Y073.1252   Z003.0000   F500

;Begin Line: layer=0 line=23
G0   X040.2418   Y072.7974   Z003.0000   F2100
G0   X040.2418   Y072.7974   Z000.0000   F210
G0   X038.2151   Y075.0505   Z000.0000   F720
G0   X036.7623   Y076.8445   Z000.0000   F720
G0   X034.8738   Y079.0955   Z000.0000   F720
G0   X034.2692   Y079.7479   Z000.0000   F720
G0   X033.5274   Y080.4132   Z000.0000   F720
G0   X032.0129   Y081.7232   Z000.0000   F720
G0   X030.3505   Y083.0727   Z000.0000   F720
G0   X029.9367   Y083.3713   Z000.0000   F720
G0   X029.9367   Y083.3713   Z003.0000   F500

;Begin Line: layer=0 line=24
G0   X031.6668   Y085.4648   Z003.0000   F2100
G0   X031.6668   Y085.4648   Z000.0000   F210
G0   X031.2192   Y085.8513   Z000.0000   F720
G0   X030.7624   Y086.1527   Z000.0000   F720
G0   X028.9161   Y087.0631   Z000.0000   F720
G0   X027.8087   Y087.5099   Z000.0000   F720
G0   X026.8843   Y087.8344   Z000.0000   F720
G0   X025.1822   Y088.3748   Z000.0000   F720
G0   X024.1287   Y088.7993   Z000.0000   F720
G0   X022.9556   Y089.4288   Z000.0000   F720
G0   X022.9556   Y089.4288   Z003.0000   F500

;Begin Line: layer=0 line=25
G0   X023.6865   Y087.9638   Z003.0000   F2100
G0   X023.6865   Y087.9638   Z000.0000   F210
G0   X022.1128   Y088.7414   Z000.0000   F720
G0   X020.9234   Y089.5008   Z000.0000   F720
G0   X018.5128   Y091.1896   Z000.0000   F720
G0   X017.7213   Y091.7760   Z000.0000   F720
G0   X016.5846   Y093.0196   Z000.0000   F720
G0   X015.8724   Y093.9940   Z000.0000   F720
G0   X013.6248   Y096.7086   Z000.0000   F720
G0   X012.4628   Y098.1763   Z000.0000   F720
G0   X012.4628   Y098.1763   Z003.0000   F500

;Begin Line: layer=0 line=26
G0   X013.3959   Y096.7661   Z003.0000   F2100
G0   X013.3959   Y096.7661   Z000.0000   F210
G0   X011.7241   Y098.9091   Z000.0000   F720
G0   X009.6158   Y101.4369   Z000.0000   F720
G0   X008.8699   Y102.4357   Z000.0000   F720
G0   X008.2691   Y103.3403   Z000.0000   F720
G0   X007.6985   Y104.2760   Z000.0000   F720
G0   X007.1500   Y105.1334   Z000.0000   F720
G0   X007.1500   Y105.1334   Z003.0000   F500

;Begin Line: layer=0 line=27
G0   X007.1500   Y104.9227   Z003.0000   F2100
G0   X007.1500   Y104.9227   Z000.0000   F210
G0   X007.9582   Y103.5826   Z000.0000   F720
G0   X008.9707   Y101.9861   Z000.0000   F720
G0   X009.7668   Y100.9693   Z000.0000   F720
G0   X009.7668   Y100.9693   Z003.0000   F500

;Begin Line: layer=0 line=28
G0   X007.1500   Y100.7661   Z003.0000   F2100
G0   X007.1500   Y100.7661   Z000.0000   F210
G0   X010.7061   Y096.9946   Z000.0000   F720
G0   X011.6235   Y095.9178   Z000.0000   F720
G0   X011.6235   Y095.9178   Z003.0000   F500

;Begin Line: layer=0 line=29
