;Generated with vpype gwrite fabian
G90 ; Use absolute position
G92 X0 Y0 Z0 ; Set the current position as (0,0,0)
G0   X000.0000   Y000.0000   Z003.0000   F500

;Begin Line: layer=0 line=0
G0   X079.6499   Y115.8152   Z003.0000   F2100
G0   X079.6499   Y115.8152   Z000.0000   F210
G0   X080.9652   Y109.2737   Z000.0000   F720
G0   X081.2556   Y107.9832   Z000.0000   F720
G0   X081.4305   Y107.3361   Z000.0000   F720
G0   X081.7590   Y106.3222   Z000.0000   F720
G0   X082.3642   Y104.6896   Z000.0000   F720
G0   X082.4921   Y104.3035   Z000.0000   F720
G0   X082.6276   Y103.7728   Z000.0000   F720
G0   X082.6731   Y103.5056   Z000.0000   F720
G0   X082.7018   Y103.0291   Z000.0000   F720
G0   X082.6867   Y102.8000   Z000.0000   F720
G0   X082.6518   Y102.5827   Z000.0000   F720
G0   X082.5723   Y102.3132   Z000.0000   F720
G0   X082.4910   Y102.1100   Z000.0000   F720
G0   X082.3920   Y101.9196   Z000.0000   F720
G0   X082.3004   Y101.7773   Z000.0000   F720
G0   X082.1045   Y101.5284   Z000.0000   F720
G0   X081.8666   Y101.2840   Z000.0000   F720
G0   X081.5597   Y101.0184   Z000.0000   F720
G0   X080.6469   Y100.3297   Z000.0000   F720
G0   X080.2175   Y099.9732   Z000.0000   F720
G0   X079.7737   Y099.5359   Z000.0000   F720
G0   X079.5520   Y099.2798   Z000.0000   F720
G0   X079.5520   Y099.2798   Z003.0000   F500

;Begin Line: layer=0 line=1
G0   X079.3688   Y098.2974   Z003.0000   F2100
G0   X079.3688   Y098.2974   Z000.0000   F210
G0   X079.7424   Y098.5736   Z000.0000   F720
G0   X080.1227   Y098.7808   Z000.0000   F720
G0   X080.3678   Y098.8757   Z000.0000   F720
G0   X080.5909   Y098.9419   Z000.0000   F720
G0   X081.0463   Y099.0234   Z000.0000   F720
G0   X081.5603   Y099.0501   Z000.0000   F720
G0   X081.8625   Y099.0440   Z000.0000   F720
G0   X084.3489   Y098.8645   Z000.0000   F720
G0   X086.4070   Y098.8009   Z000.0000   F720
G0   X087.1084   Y098.7412   Z000.0000   F720
G0   X087.5444   Y098.6806   Z000.0000   F720
G0   X088.0949   Y098.5671   Z000.0000   F720
G0   X088.4253   Y098.4787   Z000.0000   F720
G0   X088.9650   Y098.3069   Z000.0000   F720
G0   X089.5372   Y098.0892   Z000.0000   F720
G0   X090.6279   Y097.6057   Z000.0000   F720
G0   X090.6279   Y097.6057   Z003.0000   F500

;Begin Line: layer=0 line=2
G0   X092.0874   Y093.4911   Z003.0000   F2100
G0   X092.0874   Y093.4911   Z000.0000   F210
G0   X090.0869   Y094.8159   Z000.0000   F720
G0   X088.0005   Y096.2567   Z000.0000   F720
G0   X087.3454   Y096.6822   Z000.0000   F720
G0   X086.8185   Y096.9907   Z000.0000   F720
G0   X086.2722   Y097.2731   Z000.0000   F720
G0   X085.4505   Y097.6234   Z000.0000   F720
G0   X085.0689   Y097.7616   Z000.0000   F720
G0   X084.4503   Y097.9558   Z000.0000   F720
G0   X083.5270   Y098.2035   Z000.0000   F720
G0   X083.5270   Y098.2035   Z003.0000   F500

;Begin Line: layer=0 line=3
G0   X083.2589   Y099.2305   Z003.0000   F2100
G0   X083.2589   Y099.2305   Z000.0000   F210
G0   X083.8914   Y099.2295   Z000.0000   F720
G0   X084.7850   Y099.2786   Z000.0000   F720
G0   X085.5086   Y099.3588   Z000.0000   F720
G0   X086.8747   Y099.5449   Z000.0000   F720
G0   X087.3025   Y099.5850   Z000.0000   F720
G0   X087.8689   Y099.6041   Z000.0000   F720
G0   X088.2570   Y099.5946   Z000.0000   F720
G0   X088.8231   Y099.5372   Z000.0000   F720
G0   X089.3861   Y099.4350   Z000.0000   F720
G0   X089.9154   Y099.3040   Z000.0000   F720
G0   X089.9154   Y099.3040   Z003.0000   F500

;Begin Line: layer=0 line=4
G0   X086.8530   Y105.5556   Z003.0000   F2100
G0   X086.8530   Y105.5556   Z000.0000   F210
G0   X086.9301   Y104.9015   Z000.0000   F720
G0   X086.9526   Y104.4529   Z000.0000   F720
G0   X086.9488   Y104.1750   Z000.0000   F720
G0   X086.8936   Y103.7027   Z000.0000   F720
G0   X086.8029   Y103.3606   Z000.0000   F720
G0   X086.6497   Y102.9846   Z000.0000   F720
G0   X086.5541   Y102.8050   Z000.0000   F720
G0   X086.3632   Y102.5097   Z000.0000   F720
G0   X086.1258   Y102.2074   Z000.0000   F720
G0   X085.8262   Y101.8854   Z000.0000   F720
G0   X085.3658   Y101.4780   Z000.0000   F720
G0   X084.9487   Y101.1751   Z000.0000   F720
G0   X084.3940   Y100.8457   Z000.0000   F720
G0   X083.8786   Y100.6108   Z000.0000   F720
G0   X083.4526   Y100.4573   Z000.0000   F720
G0   X082.8285   Y100.2861   Z000.0000   F720
G0   X082.3011   Y100.1706   Z000.0000   F720
G0   X082.3011   Y100.1706   Z003.0000   F500

;Begin Line: layer=0 line=5
G0   X081.8718   Y099.8717   Z003.0000   F2100
G0   X081.8718   Y099.8717   Z000.0000   F210
G0   X083.2521   Y100.0856   Z000.0000   F720
G0   X083.5911   Y100.1576   Z000.0000   F720
G0   X084.0088   Y100.2703   Z000.0000   F720
G0   X084.5091   Y100.4475   Z000.0000   F720
G0   X084.9053   Y100.6207   Z000.0000   F720
G0   X085.4274   Y100.8964   Z000.0000   F720
G0   X085.7708   Y101.1091   Z000.0000   F720
G0   X086.2551   Y101.4526   Z000.0000   F720
G0   X086.6496   Y101.7729   Z000.0000   F720
G0   X087.0492   Y102.1542   Z000.0000   F720
G0   X087.3115   Y102.4584   Z000.0000   F720
G0   X087.4975   Y102.7366   Z000.0000   F720
G0   X087.5763   Y102.8855   Z000.0000   F720
G0   X087.6952   Y103.1937   Z000.0000   F720
G0   X087.7731   Y103.5828   Z000.0000   F720
G0   X087.7831   Y103.8835   Z000.0000   F720
G0   X087.7831   Y103.8835   Z003.0000   F500

;Begin Line: layer=0 line=6
G0   X088.5760   Y102.2836   Z003.0000   F2100
G0   X088.5760   Y102.2836   Z000.0000   F210
G0   X088.2544   Y102.0246   Z000.0000   F720
G0   X087.8793   Y101.7692   Z000.0000   F720
G0   X087.4061   Y101.4752   Z000.0000   F720
G0   X086.6404   Y101.0328   Z000.0000   F720
G0   X086.6404   Y101.0328   Z000.0000   F720
G0   X086.0611   Y100.7181   Z000.0000   F720
G0   X085.5996   Y100.4919   Z000.0000   F720
G0   X085.0193   Y100.2520   Z000.0000   F720
G0   X084.5877   Y100.1061   Z000.0000   F720
G0   X084.1556   Y099.9895   Z000.0000   F720
G0   X083.4724   Y099.8588   Z000.0000   F720
G0   X081.7912   Y099.6828   Z000.0000   F720
G0   X081.1398   Y099.5731   Z000.0000   F720
G0   X080.7280   Y099.4567   Z000.0000   F720
G0   X080.4894   Y099.3653   Z000.0000   F720
G0   X080.1829   Y099.2098   Z000.0000   F720
G0   X079.8970   Y099.0255   Z000.0000   F720
G0   X079.7033   Y098.8797   Z000.0000   F720
G0   X079.4154   Y098.6221   Z000.0000   F720
G0   X079.1013   Y098.2924   Z000.0000   F720
G0   X078.7351   Y097.8501   Z000.0000   F720
G0   X076.0900   Y094.2485   Z000.0000   F720
G0   X075.4594   Y093.3289   Z000.0000   F720
G0   X075.1560   Y092.8439   Z000.0000   F720
G0   X074.5075   Y091.6811   Z000.0000   F720
G0   X074.1466   Y090.9620   Z000.0000   F720
G0   X073.0545   Y088.6939   Z000.0000   F720
G0   X071.7909   Y086.1208   Z000.0000   F720
G0   X071.3481   Y085.1477   Z000.0000   F720
G0   X070.2229   Y082.5245   Z000.0000   F720
G0   X069.8898   Y081.7121   Z000.0000   F720
G0   X069.4074   Y080.4264   Z000.0000   F720
G0   X069.0872   Y079.4334   Z000.0000   F720
G0   X068.4242   Y077.1459   Z000.0000   F720
G0   X067.7265   Y074.9436   Z000.0000   F720
G0   X067.3318   Y073.5138   Z000.0000   F720
G0   X067.2096   Y072.9514   Z000.0000   F720
G0   X067.0631   Y072.1484   Z000.0000   F720
G0   X066.9765   Y071.4903   Z000.0000   F720
G0   X066.8976   Y070.6342   Z000.0000   F720
G0   X066.8533   Y069.7079   Z000.0000   F720
G0   X066.8595   Y068.1045   Z000.0000   F720
G0   X066.9056   Y067.4963   Z000.0000   F720
G0   X067.0145   Y066.6388   Z000.0000   F720
G0   X067.2142   Y065.7221   Z000.0000   F720
G0   X067.4641   Y064.9875   Z000.0000   F720
G0   X067.6557   Y064.5637   Z000.0000   F720
G0   X067.9505   Y063.9959   Z000.0000   F720
G0   X068.2272   Y063.5470   Z000.0000   F720
G0   X068.6484   Y062.9444   Z000.0000   F720
G0   X069.1357   Y062.3511   Z000.0000   F720
G0   X069.6381   Y061.8273   Z000.0000   F720
G0   X070.0483   Y061.4544   Z000.0000   F720
G0   X070.6360   Y060.9679   Z000.0000   F720
G0   X071.2866   Y060.4834   Z000.0000   F720
G0   X072.4340   Y059.6806   Z000.0000   F720
G0   X073.1329   Y059.1718   Z000.0000   F720
G0   X073.8853   Y058.5845   Z000.0000   F720
G0   X074.3693   Y058.1769   Z000.0000   F720
G0   X075.6564   Y057.0299   Z000.0000   F720
G0   X078.1913   Y054.6391   Z000.0000   F720
G0   X079.6000   Y053.2607   Z000.0000   F720
G0   X081.2478   Y051.5844   Z000.0000   F720
G0   X082.6210   Y050.1252   Z000.0000   F720
G0   X084.9560   Y047.5296   Z000.0000   F720
G0   X085.9778   Y046.4770   Z000.0000   F720
G0   X088.0546   Y044.4636   Z000.0000   F720
G0   X088.6652   Y043.8250   Z000.0000   F720
G0   X090.5129   Y041.7889   Z000.0000   F720
G0   X090.4824   Y041.7031   Z000.0000   F720
G0   X088.7166   Y043.6444   Z000.0000   F720
G0   X087.9055   Y044.4818   Z000.0000   F720
G0   X086.3372   Y045.9829   Z000.0000   F720
G0   X085.2316   Y047.0829   Z000.0000   F720
G0   X084.5155   Y047.8523   Z000.0000   F720
G0   X082.6783   Y049.9007   Z000.0000   F720
G0   X080.8905   Y051.7971   Z000.0000   F720
G0   X079.4349   Y053.2624   Z000.0000   F720
G0   X077.7110   Y054.9389   Z000.0000   F720
G0   X076.3853   Y056.1919   Z000.0000   F720
G0   X075.0451   Y057.4217   Z000.0000   F720
G0   X074.6031   Y057.8142   Z000.0000   F720
G0   X073.8086   Y058.4767   Z000.0000   F720
G0   X072.9412   Y059.1513   Z000.0000   F720
G0   X072.4789   Y059.4846   Z000.0000   F720
G0   X070.8601   Y060.5911   Z000.0000   F720
G0   X070.3485   Y060.9654   Z000.0000   F720
G0   X069.7604   Y061.4438   Z000.0000   F720
G0   X069.1802   Y061.9845   Z000.0000   F720
G0   X068.6073   Y062.6105   Z000.0000   F720
G0   X068.2265   Y063.0791   Z000.0000   F720
G0   X067.9417   Y063.4672   Z000.0000   F720
G0   X067.5638   Y064.0796   Z000.0000   F720
G0   X067.3393   Y064.4929   Z000.0000   F720
G0   X067.0305   Y065.2271   Z000.0000   F720
G0   X066.8648   Y065.7053   Z000.0000   F720
G0   X066.6824   Y066.4577   Z000.0000   F720
G0   X066.5648   Y067.2038   Z000.0000   F720
G0   X066.4942   Y068.0758   Z000.0000   F720
G0   X066.4733   Y069.0020   Z000.0000   F720
G0   X066.4960   Y070.0749   Z000.0000   F720
G0   X066.5549   Y071.0101   Z000.0000   F720
G0   X066.6475   Y071.8461   Z000.0000   F720
G0   X066.7976   Y072.7405   Z000.0000   F720
G0   X066.9127   Y073.3058   Z000.0000   F720
G0   X067.0588   Y073.9151   Z000.0000   F720
G0   X067.2200   Y074.5112   Z000.0000   F720
G0   X068.1758   Y077.5742   Z000.0000   F720
G0   X068.6836   Y079.3013   Z000.0000   F720
G0   X069.0499   Y080.4184   Z000.0000   F720
G0   X069.4973   Y081.6212   Z000.0000   F720
G0   X070.8171   Y084.8237   Z000.0000   F720
G0   X071.5145   Y086.4253   Z000.0000   F720
G0   X071.9214   Y087.2790   Z000.0000   F720
G0   X073.4140   Y090.2984   Z000.0000   F720
G0   X073.4140   Y090.2984   Z000.0000   F720
G0   X074.6888   Y092.8891   Z000.0000   F720
G0   X075.3284   Y094.0332   Z000.0000   F720
G0   X076.3915   Y095.7974   Z000.0000   F720
G0   X076.6474   Y096.2680   Z000.0000   F720
G0   X076.8410   Y096.6649   Z000.0000   F720
G0   X077.0322   Y097.1065   Z000.0000   F720
G0   X077.2954   Y097.8796   Z000.0000   F720
G0   X077.4055   Y098.3116   Z000.0000   F720
G0   X077.4939   Y098.7600   Z000.0000   F720
G0   X077.5992   Y099.6209   Z000.0000   F720
G0   X077.6352   Y100.1873   Z000.0000   F720
G0   X077.6470   Y101.1320   Z000.0000   F720
G0   X077.6013   Y102.2176   Z000.0000   F720
G0   X077.5512   Y102.8557   Z000.0000   F720
G0   X077.1002   Y106.9457   Z000.0000   F720
G0   X076.7070   Y110.9410   Z000.0000   F720
G0   X076.5933   Y112.3379   Z000.0000   F720
G0   X076.4160   Y115.2675   Z000.0000   F720
G0   X076.3207   Y116.5254   Z000.0000   F720
G0   X076.2281   Y117.4006   Z000.0000   F720
G0   X076.0423   Y118.8410   Z000.0000   F720
G0   X075.9181   Y119.5827   Z000.0000   F720
G0   X075.9181   Y119.5827   Z003.0000   F500

;Begin Line: layer=0 line=7
G0   X074.1431   Y121.0329   Z003.0000   F2100
G0   X074.1431   Y121.0329   Z000.0000   F210
G0   X074.4049   Y119.5617   Z000.0000   F720
G0   X074.5316   Y118.7055   Z000.0000   F720
G0   X074.6426   Y117.7496   Z000.0000   F720
G0   X074.7340   Y116.5074   Z000.0000   F720
G0   X074.7763   Y115.4656   Z000.0000   F720
G0   X074.8366   Y108.1932   Z000.0000   F720
G0   X074.7412   Y103.5658   Z000.0000   F720
G0   X074.7478   Y100.1835   Z000.0000   F720
G0   X074.7226   Y099.4489   Z000.0000   F720
G0   X074.6553   Y098.6669   Z000.0000   F720
G0   X074.5557   Y097.9888   Z000.0000   F720
G0   X074.4105   Y097.3210   Z000.0000   F720
G0   X074.2509   Y096.7490   Z000.0000   F720
G0   X073.9806   Y095.9799   Z000.0000   F720
G0   X073.6740   Y095.2151   Z000.0000   F720
G0   X073.1029   Y093.8950   Z000.0000   F720
G0   X072.6890   Y092.9855   Z000.0000   F720
G0   X072.2581   Y092.0790   Z000.0000   F720
G0   X070.8569   Y089.2769   Z000.0000   F720
G0   X070.3908   Y088.2568   Z000.0000   F720
G0   X070.0910   Y087.5558   Z000.0000   F720
G0   X069.7368   Y086.6634   Z000.0000   F720
G0   X067.6683   Y081.2592   Z000.0000   F720
G0   X067.2428   Y080.0881   Z000.0000   F720
G0   X066.9958   Y079.3412   Z000.0000   F720
G0   X065.8871   Y075.7731   Z000.0000   F720
G0   X065.7156   Y075.1697   Z000.0000   F720
G0   X065.5039   Y074.3262   Z000.0000   F720
G0   X065.2910   Y073.1899   Z000.0000   F720
G0   X065.2910   Y073.1899   Z000.0000   F720
G0   X065.1039   Y072.1909   Z000.0000   F720
G0   X064.9807   Y071.2059   Z000.0000   F720
G0   X064.9058   Y070.1425   Z000.0000   F720
G0   X064.8827   Y069.1995   Z000.0000   F720
G0   X064.8924   Y068.3428   Z000.0000   F720
G0   X064.9310   Y067.6973   Z000.0000   F720
G0   X064.9997   Y067.0657   Z000.0000   F720
G0   X065.1429   Y066.2183   Z000.0000   F720
G0   X065.3871   Y065.3170   Z000.0000   F720
G0   X065.5883   Y064.8278   Z000.0000   F720
G0   X065.9068   Y064.1935   Z000.0000   F720
G0   X066.2911   Y063.5909   Z000.0000   F720
G0   X066.6422   Y063.1399   Z000.0000   F720
G0   X067.2023   Y062.5064   Z000.0000   F720
G0   X067.5522   Y062.1670   Z000.0000   F720
G0   X068.1271   Y061.6492   Z000.0000   F720
G0   X068.7386   Y061.1570   Z000.0000   F720
G0   X069.2435   Y060.7927   Z000.0000   F720
G0   X070.0061   Y060.2842   Z000.0000   F720
G0   X071.7385   Y059.2412   Z000.0000   F720
G0   X072.7253   Y058.5949   Z000.0000   F720
G0   X073.3932   Y058.1097   Z000.0000   F720
G0   X074.0099   Y057.6190   Z000.0000   F720
G0   X074.5863   Y057.1288   Z000.0000   F720
G0   X075.5877   Y056.2294   Z000.0000   F720
G0   X078.4350   Y053.5561   Z000.0000   F720
G0   X080.1439   Y051.8956   Z000.0000   F720
G0   X080.8941   Y051.1341   Z000.0000   F720
G0   X082.2416   Y049.7140   Z000.0000   F720
G0   X084.5172   Y047.2230   Z000.0000   F720
G0   X085.1986   Y046.5227   Z000.0000   F720
G0   X087.6278   Y044.2145   Z000.0000   F720
G0   X088.3743   Y043.4610   Z000.0000   F720
G0   X090.3344   Y041.3470   Z000.0000   F720
G0   X090.3261   Y041.3284   Z000.0000   F720
G0   X088.6121   Y043.1830   Z000.0000   F720
G0   X088.0245   Y043.7950   Z000.0000   F720
G0   X087.3460   Y044.4640   Z000.0000   F720
G0   X085.5295   Y046.1739   Z000.0000   F720
G0   X084.9302   Y046.7694   Z000.0000   F720
G0   X084.1069   Y047.6397   Z000.0000   F720
G0   X081.8762   Y050.0788   Z000.0000   F720
G0   X080.1691   Y051.8480   Z000.0000   F720
G0   X078.1360   Y053.8126   Z000.0000   F720
G0   X075.7152   Y056.0831   Z000.0000   F720
G0   X074.3367   Y057.3075   Z000.0000   F720
G0   X073.8394   Y057.7237   Z000.0000   F720
G0   X073.1597   Y058.2488   Z000.0000   F720
G0   X072.5029   Y058.7106   Z000.0000   F720
G0   X071.9637   Y059.0615   Z000.0000   F720
G0   X069.7209   Y060.4172   Z000.0000   F720
G0   X069.0344   Y060.8827   Z000.0000   F720
G0   X068.5193   Y061.2624   Z000.0000   F720
G0   X067.8158   Y061.8523   Z000.0000   F720
G0   X067.2600   Y062.3739   Z000.0000   F720
G0   X066.7720   Y062.8899   Z000.0000   F720
G0   X066.2849   Y063.4971   Z000.0000   F720
G0   X066.2849   Y063.4971   Z000.0000   F720
