;Generated with vpype gwrite fabian
G90 ; Use absolute position
G92 X0 Y0 Z0 ; Set the current position as (0,0,0)
G0   X000.0000   Y000.0000   Z003.0000   F500

;Begin Line: layer=0 line=0
G0   X006.8212   Y059.6284   Z003.0000   F2100
G0   X006.8212   Y059.6284   Z000.0000   F210
G0   X007.4944   Y059.2405   Z000.0000   F360
G0   X010.7265   Y057.2846   Z000.0000   F360
G0   X012.8510   Y056.1176   Z000.0000   F360
G0   X014.3371   Y055.2545   Z000.0000   F360
G0   X015.2612   Y054.6150   Z000.0000   F360
G0   X015.2612   Y054.6150   Z003.0000   F500

;Begin Line: layer=0 line=1
G0   X017.4310   Y054.2675   Z003.0000   F2100
G0   X017.4310   Y054.2675   Z000.0000   F210
G0   X016.8833   Y054.5933   Z000.0000   F360
G0   X016.0660   Y055.2047   Z000.0000   F360
G0   X014.5408   Y056.5529   Z000.0000   F360
G0   X012.1117   Y058.2256   Z000.0000   F360
G0   X010.4182   Y059.4862   Z000.0000   F360
G0   X009.1084   Y060.5137   Z000.0000   F360
G0   X007.7115   Y061.5108   Z000.0000   F360
G0   X007.7115   Y061.5108   Z003.0000   F500

;Begin Line: layer=0 line=2
G0   X007.4271   Y060.9094   Z003.0000   F2100
G0   X007.4271   Y060.9094   Z000.0000   F210
G0   X009.2782   Y059.6779   Z000.0000   F360
G0   X011.0056   Y058.4103   Z000.0000   F360
G0   X013.7562   Y056.5913   Z000.0000   F360
G0   X014.4786   Y056.0501   Z000.0000   F360
G0   X015.3766   Y055.2972   Z000.0000   F360
G0   X015.3766   Y055.2972   Z003.0000   F500

;Begin Line: layer=0 line=3
G0   X014.0551   Y055.2896   Z003.0000   F2100
G0   X014.0551   Y055.2896   Z000.0000   F210
G0   X013.2947   Y055.7559   Z000.0000   F360
G0   X011.8041   Y056.5439   Z000.0000   F360
G0   X009.6570   Y057.8044   Z000.0000   F360
G0   X006.7739   Y059.5284   Z000.0000   F360
G0   X006.7739   Y059.5284   Z003.0000   F500

;Begin Line: layer=0 line=4
G0   X005.9303   Y057.2077   Z003.0000   F2100
G0   X005.9303   Y057.2077   Z000.0000   F210
G0   X007.0009   Y056.7091   Z000.0000   F360
G0   X009.1982   Y055.5780   Z000.0000   F360
G0   X010.5117   Y055.0255   Z000.0000   F360
G0   X014.6982   Y053.4043   Z000.0000   F360
G0   X015.9103   Y052.9511   Z000.0000   F360
G0   X017.4187   Y052.4972   Z000.0000   F360
G0   X018.2260   Y052.2180   Z000.0000   F360
G0   X019.4834   Y051.6861   Z000.0000   F360
G0   X019.4834   Y051.6861   Z003.0000   F500

;Begin Line: layer=0 line=5
G0   X018.0254   Y051.5190   Z003.0000   F2100
G0   X018.0254   Y051.5190   Z000.0000   F210
G0   X017.2259   Y051.7585   Z000.0000   F360
G0   X016.4987   Y051.9355   Z000.0000   F360
G0   X014.6512   Y052.3286   Z000.0000   F360
G0   X013.7031   Y052.5701   Z000.0000   F360
G0   X012.8169   Y052.8186   Z000.0000   F360
G0   X009.5960   Y053.8909   Z000.0000   F360
G0   X007.1204   Y054.9484   Z000.0000   F360
G0   X007.1204   Y054.9484   Z003.0000   F500

;Begin Line: layer=0 line=6
G0   X005.1211   Y053.9309   Z003.0000   F2100
G0   X005.1211   Y053.9309   Z000.0000   F210
G0   X007.5727   Y052.9924   Z000.0000   F360
G0   X009.0418   Y052.5216   Z000.0000   F360
G0   X012.0273   Y051.4741   Z000.0000   F360
G0   X012.0273   Y051.4741   Z003.0000   F500

;Begin Line: layer=0 line=7
G0   X012.2274   Y051.5326   Z003.0000   F2100
G0   X012.2274   Y051.5326   Z000.0000   F210
G0   X013.8664   Y051.1604   Z000.0000   F360
G0   X015.0684   Y051.0055   Z000.0000   F360
G0   X016.4056   Y050.8754   Z000.0000   F360
G0   X017.0879   Y050.7741   Z000.0000   F360
G0   X018.8368   Y050.4397   Z000.0000   F360
G0   X020.9288   Y050.1005   Z000.0000   F360
G0   X021.5820   Y050.0213   Z000.0000   F360
G0   X022.6560   Y049.9602   Z000.0000   F360
G0   X022.6560   Y049.9602   Z003.0000   F500

;Begin Line: layer=0 line=8
G0   X022.0637   Y051.5311   Z003.0000   F2100
G0   X022.0637   Y051.5311   Z000.0000   F210
G0   X021.6835   Y051.7260   Z000.0000   F360
G0   X021.0384   Y052.1460   Z000.0000   F360
G0   X020.5876   Y052.4917   Z000.0000   F360
G0   X019.3266   Y053.6034   Z000.0000   F360
G0   X018.8741   Y053.9581   Z000.0000   F360
G0   X017.7143   Y054.7504   Z000.0000   F360
G0   X017.2251   Y055.1137   Z000.0000   F360
G0   X016.6392   Y055.6050   Z000.0000   F360
G0   X015.6631   Y056.5249   Z000.0000   F360
G0   X014.3983   Y057.4716   Z000.0000   F360
G0   X013.2087   Y058.2955   Z000.0000   F360
G0   X013.2087   Y058.2955   Z003.0000   F500

;Begin Line: layer=0 line=9
G0   X012.8300   Y058.9740   Z003.0000   F2100
G0   X012.8300   Y058.9740   Z000.0000   F210
G0   X011.3526   Y060.1363   Z000.0000   F360
G0   X009.6986   Y061.5640   Z000.0000   F360
G0   X008.3550   Y062.6472   Z000.0000   F360
G0   X008.3550   Y062.6472   Z003.0000   F500

;Begin Line: layer=0 line=10
G0   X008.4343   Y062.7795   Z003.0000   F2100
G0   X008.4343   Y062.7795   Z000.0000   F210
G0   X009.2331   Y062.1462   Z000.0000   F360
G0   X012.1827   Y059.6556   Z000.0000   F360
G0   X012.1827   Y059.6556   Z003.0000   F500

;Begin Line: layer=0 line=11
G0   X011.6977   Y059.8169   Z003.0000   F2100
G0   X011.6977   Y059.8169   Z000.0000   F210
G0   X013.5361   Y058.4095   Z000.0000   F360
G0   X015.0408   Y057.3793   Z000.0000   F360
G0   X015.8727   Y056.7070   Z000.0000   F360
G0   X017.3111   Y055.3746   Z000.0000   F360
G0   X018.1572   Y054.6892   Z000.0000   F360
G0   X018.7851   Y054.2395   Z000.0000   F360
G0   X018.7851   Y054.2395   Z003.0000   F500

;Begin Line: layer=0 line=12
G0   X019.1576   Y056.9374   Z003.0000   F2100
G0   X019.1576   Y056.9374   Z000.0000   F210
G0   X017.5862   Y058.5590   Z000.0000   F360
G0   X016.8148   Y059.3160   Z000.0000   F360
G0   X014.0557   Y061.9295   Z000.0000   F360
G0   X012.3443   Y063.6811   Z000.0000   F360
G0   X010.3782   Y065.6503   Z000.0000   F360
G0   X010.3782   Y065.6503   Z003.0000   F500

;Begin Line: layer=0 line=13
G0   X010.5985   Y065.9472   Z003.0000   F2100
G0   X010.5985   Y065.9472   Z000.0000   F210
G0   X013.9695   Y062.5177   Z000.0000   F360
G0   X015.6876   Y060.8839   Z000.0000   F360
G0   X017.3336   Y059.2325   Z000.0000   F360
G0   X018.8993   Y057.5643   Z000.0000   F360
G0   X019.8018   Y056.6259   Z000.0000   F360
G0   X020.6018   Y055.7491   Z000.0000   F360
G0   X021.2086   Y055.0193   Z000.0000   F360
G0   X021.2086   Y055.0193   Z003.0000   F500

;Begin Line: layer=0 line=14
G0   X020.8294   Y054.6777   Z003.0000   F2100
G0   X020.8294   Y054.6777   Z000.0000   F210
G0   X020.4508   Y055.1044   Z000.0000   F360
G0   X019.0477   Y056.4674   Z000.0000   F360
G0   X017.7900   Y057.7391   Z000.0000   F360
G0   X017.1225   Y058.3869   Z000.0000   F360
G0   X016.0662   Y059.2991   Z000.0000   F360
G0   X014.6861   Y060.5287   Z000.0000   F360
G0   X012.7981   Y062.2478   Z000.0000   F360
G0   X011.6068   Y063.4077   Z000.0000   F360
G0   X009.9117   Y065.0213   Z000.0000   F360
G0   X009.9117   Y065.0213   Z003.0000   F500

;Begin Line: layer=0 line=15
G0   X010.5580   Y064.5863   Z003.0000   F2100
G0   X010.5580   Y064.5863   Z000.0000   F210
G0   X014.0736   Y061.2145   Z000.0000   F360
G0   X015.2879   Y060.1105   Z000.0000   F360
G0   X016.6803   Y058.8917   Z000.0000   F360
G0   X017.5639   Y058.0683   Z000.0000   F360
G0   X020.3841   Y055.2455   Z000.0000   F360
G0   X021.0837   Y054.4680   Z000.0000   F360
G0   X021.9316   Y053.4466   Z000.0000   F360
G0   X021.9316   Y053.4466   Z003.0000   F500

;Begin Line: layer=0 line=16
G0   X022.6925   Y051.9844   Z003.0000   F2100
G0   X022.6925   Y051.9844   Z000.0000   F210
G0   X022.2981   Y052.2660   Z000.0000   F360
G0   X021.9410   Y052.5530   Z000.0000   F360
G0   X021.3317   Y053.1563   Z000.0000   F360
G0   X020.4188   Y054.1769   Z000.0000   F360
G0   X019.6900   Y054.8809   Z000.0000   F360
G0   X018.5302   Y055.8966   Z000.0000   F360
G0   X017.2561   Y057.1527   Z000.0000   F360
G0   X016.5761   Y057.7712   Z000.0000   F360
G0   X015.1396   Y058.8097   Z000.0000   F360
G0   X013.9686   Y059.6862   Z000.0000   F360
G0   X013.9686   Y059.6862   Z003.0000   F500

;Begin Line: layer=0 line=17
G0   X013.5118   Y060.7823   Z003.0000   F2100
G0   X013.5118   Y060.7823   Z000.0000   F210
G0   X012.5186   Y061.6365   Z000.0000   F360
G0   X010.9316   Y063.1058   Z000.0000   F360
G0   X009.4598   Y064.4119   Z000.0000   F360
G0   X009.4598   Y064.4119   Z003.0000   F500

;Begin Line: layer=0 line=18
G0   X009.2342   Y064.1078   Z003.0000   F2100
G0   X009.2342   Y064.1078   Z000.0000   F210
G0   X011.7157   Y061.9508   Z000.0000   F360
G0   X013.6190   Y060.2699   Z000.0000   F360
G0   X014.8734   Y059.2651   Z000.0000   F360
G0   X015.8285   Y058.5630   Z000.0000   F360
G0   X016.9125   Y057.7044   Z000.0000   F360
G0   X017.5016   Y057.1461   Z000.0000   F360
G0   X017.5016   Y057.1461   Z003.0000   F500

;Begin Line: layer=0 line=19
G0   X016.9454   Y056.3125   Z003.0000   F2100
G0   X016.9454   Y056.3125   Z000.0000   F210
G0   X016.3155   Y056.9080   Z000.0000   F360
G0   X015.1130   Y057.8149   Z000.0000   F360
G0   X013.9416   Y058.6070   Z000.0000   F360
G0   X012.3106   Y059.8565   Z000.0000   F360
G0   X010.5870   Y061.3547   Z000.0000   F360
G0   X009.1892   Y062.5339   Z000.0000   F360
G0   X009.1892   Y062.5339   Z003.0000   F500

;Begin Line: layer=0 line=20
G0   X008.4946   Y062.8800   Z003.0000   F2100
G0   X008.4946   Y062.8800   Z000.0000   F210
G0   X010.1300   Y061.5295   Z000.0000   F360
G0   X011.3358   Y060.4754   Z000.0000   F360
G0   X012.3650   Y059.6456   Z000.0000   F360
G0   X013.3339   Y058.9114   Z000.0000   F360
G0   X014.2528   Y058.2622   Z000.0000   F360
G0   X015.6969   Y057.2864   Z000.0000   F360
G0   X015.6969   Y057.2864   Z003.0000   F500

;Begin Line: layer=0 line=21
G0   X016.5810   Y058.6625   Z003.0000   F2100
G0   X016.5810   Y058.6625   Z000.0000   F210
G0   X015.7916   Y059.3166   Z000.0000   F360
G0   X014.6380   Y060.3053   Z000.0000   F360
G0   X013.2261   Y061.5388   Z000.0000   F360
G0   X009.7390   Y064.7883   Z000.0000   F360
G0   X009.7390   Y064.7883   Z003.0000   F500

;Begin Line: layer=0 line=22
G0   X009.7564   Y064.8118   Z003.0000   F2100
G0   X009.7564   Y064.8118   Z000.0000   F210
G0   X010.6092   Y064.0212   Z000.0000   F360
G0   X010.6092   Y064.0212   Z003.0000   F500

;Begin Line: layer=0 line=23
G0   X012.8437   Y065.1844   Z003.0000   F2100
G0   X012.8437   Y065.1844   Z000.0000   F210
G0   X011.5874   Y066.5471   Z000.0000   F360
G0   X011.3300   Y066.8020   Z000.0000   F360
G0   X011.3300   Y066.8020   Z003.0000   F500

;Begin Line: layer=0 line=24
G0   X011.3432   Y066.8166   Z003.0000   F2100
G0   X011.3432   Y066.8166   Z000.0000   F210
G0   X012.8437   Y065.1844   Z000.0000   F360
G0   X012.8437   Y065.1844   Z003.0000   F500

;Begin Line: layer=0 line=25
G0   X014.1625   Y063.7337   Z003.0000   F2100
G0   X014.1625   Y063.7337   Z000.0000   F210
G0   X012.8437   Y065.1844   Z000.0000   F360
G0   X012.8437   Y065.1844   Z003.0000   F500

;Begin Line: layer=0 line=26
G0   X012.8437   Y065.1844   Z003.0000   F2100
G0   X012.8437   Y065.1844   Z000.0000   F210
G0   X014.1625   Y063.7337   Z000.0000   F360
G0   X014.1625   Y063.7337   Z003.0000   F500

;Begin Line: layer=0 line=27
G0   X014.1625   Y063.7337   Z003.0000   F2100
G0   X014.1625   Y063.7337   Z000.0000   F210
G0   X014.3779   Y063.5024   Z000.0000   F360
G0   X014.3779   Y063.5024   Z003.0000   F500

;Begin Line: layer=0 line=28
G0   X014.3779   Y063.5024   Z003.0000   F2100
G0   X014.3779   Y063.5024   Z000.0000   F210
G0   X015.2232   Y062.5951   Z000.0000   F360
G0   X016.7237   Y061.0411   Z000.0000   F360
G0   X016.7237   Y061.0411   Z003.0000   F500

;Begin Line: layer=0 line=29
G0   X016.7237   Y061.0411   Z003.0000   F2100
G0   X016.7237   Y061.0411   Z000.0000   F210
G0   X015.7590   Y062.0834   Z000.0000   F360
G0   X014.3779   Y063.5024   Z000.0000   F360
G0   X014.3779   Y063.5024   Z003.0000   F500

;Begin Line: layer=0 line=30
G0   X014.3779   Y063.5024   Z003.0000   F2100
G0   X014.3779   Y063.5024   Z000.0000   F210
G0   X014.1625   Y063.7337   Z000.0000   F360
G0   X014.1625   Y063.7337   Z003.0000   F500

;Begin Line: layer=0 line=31
G0   X015.3656   Y065.1439   Z003.0000   F2100
G0   X015.3656   Y065.1439   Z000.0000   F210
G0   X016.2836   Y063.9722   Z000.0000   F360
G0   X017.0749   Y062.9117   Z000.0000   F360
G0   X018.0643   Y061.5139   Z000.0000   F360
G0   X018.6130   Y060.6647   Z000.0000   F360
G0   X019.1055   Y059.8296   Z000.0000   F360
G0   X019.7885   Y058.7499   Z000.0000   F360
G0   X020.7505   Y057.4563   Z000.0000   F360
G0   X021.4127   Y056.4780   Z000.0000   F360
G0   X021.4127   Y056.4780   Z003.0000   F500

;Begin Line: layer=0 line=32
G0   X020.5479   Y056.5994   Z003.0000   F2100
G0   X020.5479   Y056.5994   Z000.0000   F210
G0   X020.0086   Y057.2447   Z000.0000   F360
G0   X018.8842   Y058.5123   Z000.0000   F360
G0   X017.5374   Y060.1310   Z000.0000   F360
G0   X016.7237   Y061.0411   Z000.0000   F360
G0   X016.7237   Y061.0411   Z003.0000   F500

;Begin Line: layer=0 line=33
G0   X016.7237   Y061.0411   Z003.0000   F2100
G0   X016.7237   Y061.0411   Z000.0000   F210
G0   X016.8372   Y060.9183   Z000.0000   F360
G0   X016.8372   Y060.9183   Z003.0000   F500

;Begin Line: layer=0 line=34
G0   X018.1948   Y060.2560   Z003.0000   F2100
G0   X018.1948   Y060.2560   Z000.0000   F210
G0   X017.3171   Y061.3786   Z000.0000   F360
G0   X015.9961   Y062.9236   Z000.0000   F360
G0   X014.9587   Y064.0891   Z000.0000   F360
G0   X012.0002   Y067.5415   Z000.0000   F360
G0   X012.0002   Y067.5415   Z003.0000   F500

;Begin Line: layer=0 line=35
G0   X011.9725   Y067.5108   Z003.0000   F2100
G0   X011.9725   Y067.5108   Z000.0000   F210
G0   X012.3156   Y067.1295   Z000.0000   F360
G0   X014.7413   Y064.2899   Z000.0000   F360
G0   X016.1329   Y062.7242   Z000.0000   F360
G0   X017.0083   Y061.6916   Z000.0000   F360
G0   X017.9814   Y060.4871   Z000.0000   F360
G0   X018.6918   Y059.4947   Z000.0000   F360
G0   X019.4743   Y058.4427   Z000.0000   F360
G0   X019.4743   Y058.4427   Z003.0000   F500

;Begin Line: layer=0 line=36
G0   X019.7930   Y059.1352   Z003.0000   F2100
G0   X019.7930   Y059.1352   Z000.0000   F210
G0   X018.6039   Y061.2191   Z000.0000   F360
G0   X018.0465   Y062.1068   Z000.0000   F360
G0   X017.4315   Y063.0366   Z000.0000   F360
G0   X015.9901   Y065.0168   Z000.0000   F360
G0   X013.1174   Y068.6667   Z000.0000   F360
G0   X013.1174   Y068.6667   Z003.0000   F500

;Begin Line: layer=0 line=37
G0   X015.6497   Y068.2263   Z003.0000   F2100
G0   X015.6497   Y068.2263   Z000.0000   F210
G0   X016.8780   Y066.4871   Z000.0000   F360
G0   X017.6829   Y065.2228   Z000.0000   F360
G0   X018.4771   Y063.9000   Z000.0000   F360
G0   X018.4771   Y063.9000   Z003.0000   F500

;Begin Line: layer=0 line=38
G0   X018.4771   Y063.9000   Z003.0000   F2100
G0   X018.4771   Y063.9000   Z000.0000   F210
G0   X019.1063   Y062.7884   Z000.0000   F360
G0   X019.1063   Y062.7884   Z003.0000   F500

;Begin Line: layer=0 line=39
G0   X019.1063   Y062.7884   Z003.0000   F2100
G0   X019.1063   Y062.7884   Z000.0000   F210
G0   X019.1867   Y062.6417   Z000.0000   F360
G0   X019.1867   Y062.6417   Z003.0000   F500

;Begin Line: layer=0 line=40
G0   X019.1867   Y062.6417   Z003.0000   F2100
G0   X019.1867   Y062.6417   Z000.0000   F210
G0   X019.4415   Y062.1773   Z000.0000   F360
G0   X019.7323   Y061.5472   Z000.0000   F360
G0   X019.7323   Y061.5472   Z003.0000   F500

;Begin Line: layer=0 line=41
G0   X019.7323   Y061.5472   Z003.0000   F2100
G0   X019.7323   Y061.5472   Z000.0000   F210
G0   X019.8012   Y061.3979   Z000.0000   F360
G0   X019.8012   Y061.3979   Z003.0000   F500

;Begin Line: layer=0 line=42
G0   X019.8012   Y061.3979   Z003.0000   F2100
G0   X019.8012   Y061.3979   Z000.0000   F210
G0   X019.7323   Y061.5472   Z000.0000   F360
G0   X019.7323   Y061.5472   Z003.0000   F500

;Begin Line: layer=0 line=43
G0   X019.7323   Y061.5472   Z003.0000   F2100
G0   X019.7323   Y061.5472   Z000.0000   F210
G0   X019.1867   Y062.6417   Z000.0000   F360
