;Generated with vpype gwrite fabian
G90 ; Use absolute position
G92 X0 Y0 Z0 ; Set the current position as (0,0,0)
G0   X000.0000   Y000.0000   Z003.0000   F500

;Begin Line: layer=0 line=0
G0   X057.6143   Y056.1238   Z003.0000   F2100
G0   X057.6143   Y056.1238   Z000.0000   F210
G0   X056.4135   Y056.1963   Z000.0000   F720
G0   X053.3185   Y056.4814   Z000.0000   F720
G0   X052.0588   Y056.5749   Z000.0000   F720
G0   X050.6683   Y056.6313   Z000.0000   F720
G0   X049.6314   Y056.6508   Z000.0000   F720
G0   X048.6766   Y056.6373   Z000.0000   F720
G0   X048.6766   Y056.6373   Z003.0000   F500

;Begin Line: layer=0 line=1
G0   X048.7076   Y057.5455   Z003.0000   F2100
G0   X048.7076   Y057.5455   Z000.0000   F210
G0   X049.5225   Y057.7753   Z000.0000   F720
G0   X050.0209   Y057.8989   Z000.0000   F720
G0   X050.5758   Y058.0011   Z000.0000   F720
G0   X051.3553   Y058.0720   Z000.0000   F720
G0   X052.9726   Y058.0640   Z000.0000   F720
G0   X054.9120   Y057.9760   Z000.0000   F720
G0   X057.0363   Y057.9992   Z000.0000   F720
G0   X057.0363   Y057.9992   Z003.0000   F500

;Begin Line: layer=0 line=2
G0   X056.1626   Y060.2082   Z003.0000   F2100
G0   X056.1626   Y060.2082   Z000.0000   F210
G0   X054.5021   Y060.1709   Z000.0000   F720
G0   X053.5593   Y060.1731   Z000.0000   F720
G0   X052.4295   Y060.1509   Z000.0000   F720
G0   X051.4068   Y060.0535   Z000.0000   F720
G0   X050.8125   Y059.9336   Z000.0000   F720
G0   X049.8699   Y059.6626   Z000.0000   F720
G0   X049.0794   Y059.2899   Z000.0000   F720
G0   X048.4187   Y058.8612   Z000.0000   F720
G0   X047.9694   Y058.4961   Z000.0000   F720
G0   X047.6782   Y058.2254   Z000.0000   F720
G0   X047.3352   Y057.8813   Z000.0000   F720
G0   X046.8107   Y057.2985   Z000.0000   F720
G0   X046.8107   Y057.2985   Z003.0000   F500

;Begin Line: layer=0 line=3
G0   X046.9034   Y056.1747   Z003.0000   F2100
G0   X046.9034   Y056.1747   Z000.0000   F210
G0   X047.1184   Y056.2361   Z000.0000   F720
G0   X047.4671   Y056.2944   Z000.0000   F720
G0   X048.0703   Y056.3395   Z000.0000   F720
G0   X048.6495   Y056.3390   Z000.0000   F720
G0   X050.6656   Y056.2504   Z000.0000   F720
G0   X051.9761   Y056.1737   Z000.0000   F720
G0   X055.3184   Y055.8156   Z000.0000   F720
G0   X057.5670   Y055.6200   Z000.0000   F720
G0   X057.5670   Y055.6200   Z003.0000   F500

;Begin Line: layer=0 line=4
G0   X058.5524   Y049.3079   Z003.0000   F2100
G0   X058.5524   Y049.3079   Z000.0000   F210
G0   X058.3662   Y049.3406   Z000.0000   F720
G0   X057.0513   Y049.7727   Z000.0000   F720
G0   X055.8852   Y050.2887   Z000.0000   F720
G0   X054.2516   Y051.1524   Z000.0000   F720
G0   X052.8128   Y052.0067   Z000.0000   F720
G0   X051.6345   Y052.6782   Z000.0000   F720
G0   X051.6345   Y052.6782   Z003.0000   F500

;Begin Line: layer=0 line=5
G0   X050.4960   Y052.3738   Z003.0000   F2100
G0   X050.4960   Y052.3738   Z000.0000   F210
G0   X050.9767   Y052.0472   Z000.0000   F720
G0   X052.8524   Y050.4009   Z000.0000   F720
G0   X054.7656   Y048.7519   Z000.0000   F720
G0   X056.1122   Y047.6821   Z000.0000   F720
G0   X057.6308   Y046.9106   Z000.0000   F720
G0   X058.4426   Y046.7623   Z000.0000   F720
G0   X058.4426   Y046.7623   Z003.0000   F500

;Begin Line: layer=0 line=6
G0   X057.0985   Y040.4791   Z003.0000   F2100
G0   X057.0985   Y040.4791   Z000.0000   F210
G0   X055.9007   Y040.9891   Z000.0000   F720
G0   X054.9046   Y041.7294   Z000.0000   F720
G0   X053.6708   Y042.8973   Z000.0000   F720
G0   X052.3653   Y044.4514   Z000.0000   F720
G0   X051.2697   Y045.9747   Z000.0000   F720
G0   X049.4857   Y048.2154   Z000.0000   F720
G0   X048.8151   Y049.1418   Z000.0000   F720
G0   X048.3932   Y049.8189   Z000.0000   F720
G0   X048.1064   Y050.3393   Z000.0000   F720
G0   X047.7027   Y051.1456   Z000.0000   F720
G0   X047.3300   Y051.9991   Z000.0000   F720
G0   X047.1633   Y052.3391   Z000.0000   F720
G0   X046.9275   Y052.7509   Z000.0000   F720
G0   X046.9275   Y052.7509   Z003.0000   F500

;Begin Line: layer=0 line=7
G0   X047.9450   Y054.2040   Z003.0000   F2100
G0   X047.9450   Y054.2040   Z000.0000   F210
G0   X048.5371   Y054.0485   Z000.0000   F720
G0   X050.9439   Y053.2954   Z000.0000   F720
G0   X052.2122   Y052.8240   Z000.0000   F720
G0   X055.3503   Y051.2979   Z000.0000   F720
G0   X057.4562   Y050.6332   Z000.0000   F720
G0   X058.5002   Y050.3705   Z000.0000   F720
G0   X058.5002   Y050.3705   Z003.0000   F500

;Begin Line: layer=0 line=8
G0   X058.3454   Y052.3688   Z003.0000   F2100
G0   X058.3454   Y052.3688   Z000.0000   F210
G0   X056.9165   Y052.6518   Z000.0000   F720
G0   X055.2607   Y053.0664   Z000.0000   F720
G0   X053.2885   Y053.6731   Z000.0000   F720
G0   X051.7424   Y054.0537   Z000.0000   F720
G0   X049.8612   Y054.3711   Z000.0000   F720
G0   X048.3884   Y054.6688   Z000.0000   F720
G0   X047.7822   Y054.7634   Z000.0000   F720
G0   X047.3095   Y054.8077   Z000.0000   F720
G0   X046.7722   Y054.8052   Z000.0000   F720
G0   X046.4738   Y054.7733   Z000.0000   F720
G0   X046.3000   Y054.7314   Z000.0000   F720
G0   X046.1072   Y054.6647   Z000.0000   F720
G0   X045.9704   Y054.5965   Z000.0000   F720
G0   X045.9704   Y054.5965   Z003.0000   F500

;Begin Line: layer=0 line=9
G0   X042.8795   Y056.4945   Z003.0000   F2100
G0   X042.8795   Y056.4945   Z000.0000   F210
G0   X042.9440   Y056.8846   Z000.0000   F720
G0   X042.9620   Y057.1848   Z000.0000   F720
G0   X042.9431   Y057.5465   Z000.0000   F720
G0   X042.9028   Y057.8428   Z000.0000   F720
G0   X042.7171   Y058.6817   Z000.0000   F720
G0   X042.6483   Y059.0979   Z000.0000   F720
G0   X042.6324   Y059.5093   Z000.0000   F720
G0   X042.6431   Y059.7226   Z000.0000   F720
G0   X042.6765   Y059.9393   Z000.0000   F720
G0   X042.7752   Y060.2445   Z000.0000   F720
G0   X042.9036   Y060.5093   Z000.0000   F720
G0   X043.0823   Y060.7802   Z000.0000   F720
G0   X043.2705   Y061.0124   Z000.0000   F720
G0   X043.6165   Y061.3512   Z000.0000   F720
G0   X044.0265   Y061.6884   Z000.0000   F720
G0   X045.2159   Y062.5471   Z000.0000   F720
G0   X046.1211   Y063.1620   Z000.0000   F720
G0   X049.7117   Y065.5074   Z000.0000   F720
G0   X050.5023   Y065.9656   Z000.0000   F720
G0   X051.3498   Y066.3477   Z000.0000   F720
G0   X052.1455   Y066.5961   Z000.0000   F720
G0   X052.1455   Y066.5961   Z003.0000   F500

;Begin Line: layer=0 line=10
G0   X053.7705   Y064.4751   Z003.0000   F2100
G0   X053.7705   Y064.4751   Z000.0000   F210
G0   X052.6031   Y064.3826   Z000.0000   F720
G0   X051.7405   Y064.2679   Z000.0000   F720
G0   X050.7924   Y064.0319   Z000.0000   F720
G0   X049.7168   Y063.6192   Z000.0000   F720
G0   X049.1183   Y063.3141   Z000.0000   F720
G0   X048.4365   Y062.9254   Z000.0000   F720
G0   X047.5407   Y062.3592   Z000.0000   F720
G0   X046.7884   Y061.7947   Z000.0000   F720
G0   X046.3541   Y061.4005   Z000.0000   F720
G0   X045.6312   Y060.6800   Z000.0000   F720
G0   X045.3887   Y060.4219   Z000.0000   F720
G0   X045.1861   Y060.1799   Z000.0000   F720
G0   X045.0603   Y059.9982   Z000.0000   F720
G0   X045.0603   Y059.9982   Z003.0000   F500

;Begin Line: layer=0 line=11
G0   X042.4299   Y061.6953   Z003.0000   F2100
G0   X042.4299   Y061.6953   Z000.0000   F210
G0   X042.7982   Y062.0533   Z000.0000   F720
G0   X043.2482   Y062.4332   Z000.0000   F720
G0   X043.8794   Y062.9185   Z000.0000   F720
G0   X044.5956   Y063.4299   Z000.0000   F720
G0   X046.2152   Y064.4927   Z000.0000   F720
G0   X047.1658   Y065.1581   Z000.0000   F720
G0   X048.1650   Y065.9016   Z000.0000   F720
G0   X049.4882   Y066.8411   Z000.0000   F720
G0   X050.2406   Y067.3153   Z000.0000   F720
G0   X051.1009   Y067.7486   Z000.0000   F720
G0   X051.1009   Y067.7486   Z003.0000   F500

;Begin Line: layer=0 line=12
G0   X048.8546   Y068.3697   Z003.0000   F2100
G0   X048.8546   Y068.3697   Z000.0000   F210
G0   X047.6787   Y067.5866   Z000.0000   F720
G0   X046.5433   Y066.7124   Z000.0000   F720
G0   X045.6158   Y066.0231   Z000.0000   F720
G0   X044.7213   Y065.4449   Z000.0000   F720
G0   X043.6600   Y064.7956   Z000.0000   F720
G0   X042.3120   Y063.8849   Z000.0000   F720
G0   X041.7979   Y063.5122   Z000.0000   F720
G0   X041.0851   Y062.9474   Z000.0000   F720
G0   X040.6427   Y062.5321   Z000.0000   F720
G0   X040.6427   Y062.5321   Z003.0000   F500

;Begin Line: layer=0 line=13
G0   X039.0658   Y064.4445   Z003.0000   F2100
G0   X039.0658   Y064.4445   Z000.0000   F210
G0   X040.0087   Y065.3175   Z000.0000   F720
G0   X041.0667   Y066.2442   Z000.0000   F720
G0   X042.8808   Y067.7726   Z000.0000   F720
G0   X043.8312   Y068.7227   Z000.0000   F720
G0   X045.1399   Y070.0774   Z000.0000   F720
G0   X046.1503   Y071.1896   Z000.0000   F720
G0   X046.5536   Y071.6059   Z000.0000   F720
G0   X046.5536   Y071.6059   Z003.0000   F500

;Begin Line: layer=0 line=14
G0   X046.0446   Y071.9110   Z003.0000   F2100
G0   X046.0446   Y071.9110   Z000.0000   F210
G0   X044.8273   Y070.5368   Z000.0000   F720
G0   X043.1720   Y068.7765   Z000.0000   F720
G0   X042.1412   Y067.7637   Z000.0000   F720
G0   X040.3775   Y066.2167   Z000.0000   F720
G0   X038.7199   Y064.6339   Z000.0000   F720
G0   X038.0862   Y064.0861   Z000.0000   F720
G0   X037.6011   Y063.6361   Z000.0000   F720
G0   X037.0398   Y063.0340   Z000.0000   F720
G0   X036.6078   Y062.4940   Z000.0000   F720
G0   X036.1218   Y061.8408   Z000.0000   F720
G0   X036.1218   Y061.8408   Z003.0000   F500

;Begin Line: layer=0 line=15
G0   X037.8281   Y061.1034   Z003.0000   F2100
G0   X037.8281   Y061.1034   Z000.0000   F210
G0   X038.1377   Y061.7084   Z000.0000   F720
G0   X038.3300   Y062.0308   Z000.0000   F720
G0   X038.7072   Y062.5224   Z000.0000   F720
G0   X039.0825   Y062.9106   Z000.0000   F720
G0   X039.4588   Y063.2412   Z000.0000   F720
G0   X041.5086   Y064.8294   Z000.0000   F720
G0   X042.5125   Y065.5577   Z000.0000   F720
G0   X044.0813   Y066.6248   Z000.0000   F720
G0   X045.0846   Y067.3873   Z000.0000   F720
G0   X047.3321   Y069.2648   Z000.0000   F720
G0   X048.3843   Y070.2491   Z000.0000   F720
G0   X048.3843   Y070.2491   Z003.0000   F500

;Begin Line: layer=0 line=16
G0   X048.1217   Y070.4439   Z003.0000   F2100
G0   X048.1217   Y070.4439   Z000.0000   F210
G0   X047.5470   Y069.8963   Z000.0000   F720
G0   X046.6799   Y069.1193   Z000.0000   F720
G0   X044.9682   Y067.6444   Z000.0000   F720
G0   X044.9682   Y067.6444   Z003.0000   F500

;Begin Line: layer=0 line=17
G0   X039.6464   Y071.0484   Z003.0000   F2100
G0   X039.6464   Y071.0484   Z000.0000   F210
G0   X038.7464   Y069.6313   Z000.0000   F720
G0   X037.8718   Y068.4161   Z000.0000   F720
G0   X037.1570   Y067.5376   Z000.0000   F720
G0   X036.2512   Y066.5321   Z000.0000   F720
G0   X034.7150   Y064.9275   Z000.0000   F720
G0   X034.1822   Y064.3390   Z000.0000   F720
G0   X033.7074   Y063.7472   Z000.0000   F720
G0   X033.4138   Y063.2754   Z000.0000   F720
G0   X033.0656   Y062.5601   Z000.0000   F720
G0   X033.0656   Y062.5601   Z003.0000   F500

;Begin Line: layer=0 line=18
G0   X031.8607   Y062.8258   Z003.0000   F2100
G0   X031.8607   Y062.8258   Z000.0000   F210
G0   X031.9638   Y063.6974   Z000.0000   F720
G0   X032.1741   Y064.5646   Z000.0000   F720
G0   X032.5491   Y065.5110   Z000.0000   F720
G0   X033.2255   Y066.9193   Z000.0000   F720
G0   X033.7573   Y068.2711   Z000.0000   F720
G0   X034.2533   Y069.8903   Z000.0000   F720
G0   X034.6199   Y071.3916   Z000.0000   F720
G0   X034.8039   Y072.6110   Z000.0000   F720
G0   X034.9782   Y074.6620   Z000.0000   F720
G0   X035.1169   Y075.8871   Z000.0000   F720
G0   X035.1169   Y075.8871   Z003.0000   F500

;Begin Line: layer=0 line=19
G0   X034.6143   Y075.9616   Z003.0000   F2100
G0   X034.6143   Y075.9616   Z000.0000   F210
G0   X034.4186   Y073.4968   Z000.0000   F720
G0   X034.3200   Y071.9268   Z000.0000   F720
G0   X033.9392   Y069.8473   Z000.0000   F720
G0   X033.6936   Y068.9709   Z000.0000   F720
G0   X033.3453   Y067.8602   Z000.0000   F720
G0   X033.0807   Y067.1758   Z000.0000   F720
G0   X033.0807   Y067.1758   Z003.0000   F500

;Begin Line: layer=0 line=20
G0   X031.7468   Y065.6860   Z003.0000   F2100
G0   X031.7468   Y065.6860   Z000.0000   F210
G0   X032.1600   Y066.9422   Z000.0000   F720
G0   X032.4208   Y068.1292   Z000.0000   F720
G0   X032.6340   Y069.5695   Z000.0000   F720
G0   X032.8034   Y070.9760   Z000.0000   F720
G0   X032.8523   Y072.8002   Z000.0000   F720
G0   X032.8370   Y074.4418   Z000.0000   F720
G0   X032.8700   Y076.0878   Z000.0000   F720
G0   X032.8700   Y076.0878   Z003.0000   F500

;Begin Line: layer=0 line=21
G0   X031.4159   Y075.4361   Z003.0000   F2100
G0   X031.4159   Y075.4361   Z000.0000   F210
G0   X031.4508   Y072.8347   Z000.0000   F720
G0   X031.5013   Y071.4628   Z000.0000   F720
G0   X031.5029   Y070.1248   Z000.0000   F720
G0   X031.4795   Y068.8229   Z000.0000   F720
G0   X031.3969   Y067.3470   Z000.0000   F720
G0   X031.1893   Y066.1904   Z000.0000   F720
G0   X030.9109   Y064.8211   Z000.0000   F720
G0   X030.8519   Y063.9328   Z000.0000   F720
G0   X030.8519   Y063.9328   Z003.0000   F500

;Begin Line: layer=0 line=22
G0   X029.4870   Y063.0512   Z003.0000   F2100
G0   X029.4870   Y063.0512   Z000.0000   F210
G0   X029.2658   Y063.7952   Z000.0000   F720
G0   X029.0692   Y064.7348   Z000.0000   F720
G0   X028.8705   Y066.1122   Z000.0000   F720
G0   X028.5930   Y067.7731   Z000.0000   F720
G0   X028.1166   Y070.1908   Z000.0000   F720
G0   X027.9160   Y072.2970   Z000.0000   F720
G0   X027.7568   Y075.8506   Z000.0000   F720
G0   X027.7568   Y075.8506   Z003.0000   F500

;Begin Line: layer=0 line=23
G0   X026.7110   Y075.4852   Z003.0000   F2100
G0   X026.7110   Y075.4852   Z000.0000   F210
G0   X026.8481   Y072.9246   Z000.0000   F720
G0   X026.9250   Y070.7173   Z000.0000   F720
G0   X027.2372   Y068.5976   Z000.0000   F720
G0   X028.1346   Y065.1594   Z000.0000   F720
G0   X028.4368   Y064.1129   Z000.0000   F720
G0   X028.9277   Y062.7737   Z000.0000   F720
G0   X029.1107   Y062.4201   Z000.0000   F720
G0   X029.1107   Y062.4201   Z003.0000   F500

;Begin Line: layer=0 line=24
G0   X028.9236   Y062.3921   Z003.0000   F2100
G0   X028.9236   Y062.3921   Z000.0000   F210
G0   X028.8357   Y062.5472   Z000.0000   F720
G0   X028.3891   Y063.5473   Z000.0000   F720
G0   X027.9398   Y064.8591   Z000.0000   F720
G0   X027.1069   Y067.6230   Z000.0000   F720
G0   X026.6741   Y069.6777   Z000.0000   F720
G0   X026.5167   Y071.0801   Z000.0000   F720
G0   X026.4724   Y073.5057   Z000.0000   F720
G0   X026.4724   Y073.5057   Z003.0000   F500

;Begin Line: layer=0 line=25
G0   X024.7120   Y073.1167   Z003.0000   F2100
G0   X024.7120   Y073.1167   Z000.0000   F210
G0   X024.7468   Y070.7817   Z000.0000   F720
G0   X024.9597   Y068.8024   Z000.0000   F720
G0   X025.6311   Y067.0512   Z000.0000   F720
G0   X027.0554   Y063.9729   Z000.0000   F720
G0   X027.7698   Y062.6550   Z000.0000   F720
G0   X028.0499   Y062.1732   Z000.0000   F720
G0   X028.0499   Y062.1732   Z003.0000   F500

;Begin Line: layer=0 line=26
G0   X027.0466   Y061.8581   Z003.0000   F2100
G0   X027.0466   Y061.8581   Z000.0000   F210
G0   X026.3256   Y062.9283   Z000.0000   F720
G0   X025.4259   Y064.1887   Z000.0000   F720
G0   X024.6575   Y065.4986   Z000.0000   F720
G0   X023.6105   Y067.5054   Z000.0000   F720
G0   X022.9892   Y069.4192   Z000.0000   F720
G0   X022.7414   Y070.7768   Z000.0000   F720
G0   X022.4924   Y072.5242   Z000.0000   F720
G0   X022.1640   Y074.4320   Z000.0000   F720
G0   X022.1640   Y074.4320   Z003.0000   F500

;Begin Line: layer=0 line=27
G0   X021.4604   Y074.1802   Z003.0000   F2100
G0   X021.4604   Y074.1802   Z000.0000   F210
G0   X022.3547   Y069.3596   Z000.0000   F720
G0   X022.8875   Y067.7688   Z000.0000   F720
G0   X023.4687   Y066.5821   Z000.0000   F720
G0   X024.4600   Y064.7816   Z000.0000   F720
G0   X025.6414   Y063.0797   Z000.0000   F720
G0   X026.4560   Y061.9989   Z000.0000   F720
