;Generated with vpype gwrite fabian
G90 ; Use absolute position
G92 X0 Y0 Z0 ; Set the current position as (0,0,0)
G0   X000.0000   Y000.0000   Z003.0000   F500

;Begin Line: layer=0 line=0
G0   X124.9641   Y079.4448   Z003.0000   F2100
G0   X124.9641   Y079.4448   Z000.0000   F210
G0   X124.7320   Y079.6610   Z000.0000   F720
G0   X124.1113   Y080.3711   Z000.0000   F720
G0   X123.5196   Y081.1402   Z000.0000   F720
G0   X122.6624   Y082.3757   Z000.0000   F720
G0   X122.2199   Y083.0622   Z000.0000   F720
G0   X120.6760   Y085.5641   Z000.0000   F720
G0   X120.0323   Y086.6425   Z000.0000   F720
G0   X119.6086   Y087.3872   Z000.0000   F720
G0   X117.5417   Y091.2073   Z000.0000   F720
G0   X117.5417   Y091.2073   Z003.0000   F500

;Begin Line: layer=0 line=1
G0   X117.9791   Y090.9757   Z003.0000   F2100
G0   X117.9791   Y090.9757   Z000.0000   F210
G0   X118.7174   Y089.7506   Z000.0000   F720
G0   X120.2430   Y087.0429   Z000.0000   F720
G0   X121.1475   Y085.5788   Z000.0000   F720
G0   X122.0247   Y084.2725   Z000.0000   F720
G0   X122.8782   Y083.0862   Z000.0000   F720
G0   X123.8188   Y081.8663   Z000.0000   F720
G0   X124.3783   Y081.2000   Z000.0000   F720
G0   X125.0564   Y080.4914   Z000.0000   F720
G0   X125.4722   Y080.1299   Z000.0000   F720
G0   X125.5078   Y080.1778   Z000.0000   F720
G0   X124.5791   Y081.0322   Z000.0000   F720
G0   X124.1286   Y081.5505   Z000.0000   F720
G0   X123.5270   Y082.2882   Z000.0000   F720
G0   X123.1126   Y082.8268   Z000.0000   F720
G0   X122.2441   Y084.0043   Z000.0000   F720
G0   X121.3434   Y085.3208   Z000.0000   F720
G0   X120.4354   Y086.7581   Z000.0000   F720
G0   X119.8390   Y087.7809   Z000.0000   F720
G0   X118.5691   Y090.0274   Z000.0000   F720
G0   X118.5691   Y090.0274   Z003.0000   F500

;Begin Line: layer=0 line=2
G0   X119.7345   Y091.2342   Z003.0000   F2100
G0   X119.7345   Y091.2342   Z000.0000   F210
G0   X118.9230   Y092.0899   Z000.0000   F720
G0   X117.2001   Y093.8173   Z000.0000   F720
G0   X116.8103   Y094.1762   Z000.0000   F720
G0   X116.3762   Y094.5349   Z000.0000   F720
G0   X115.9461   Y094.8526   Z000.0000   F720
G0   X115.1673   Y095.3771   Z000.0000   F720
G0   X114.1849   Y095.9744   Z000.0000   F720
G0   X111.8811   Y097.3123   Z000.0000   F720
G0   X107.0691   Y100.2480   Z000.0000   F720
G0   X106.0645   Y100.8096   Z000.0000   F720
G0   X105.0419   Y101.2929   Z000.0000   F720
G0   X104.0021   Y101.6848   Z000.0000   F720
G0   X102.9773   Y101.9748   Z000.0000   F720
G0   X102.5380   Y102.0689   Z000.0000   F720
G0   X102.5688   Y102.1204   Z000.0000   F720
G0   X103.4165   Y101.9226   Z000.0000   F720
G0   X104.4194   Y101.6106   Z000.0000   F720
G0   X105.6539   Y101.0833   Z000.0000   F720
G0   X106.5465   Y100.6312   Z000.0000   F720
G0   X107.2486   Y100.2375   Z000.0000   F720
G0   X112.1987   Y097.2641   Z000.0000   F720
G0   X114.6825   Y095.8720   Z000.0000   F720
G0   X115.2613   Y095.5268   Z000.0000   F720
G0   X116.3667   Y094.7899   Z000.0000   F720
G0   X116.8375   Y094.4315   Z000.0000   F720
G0   X117.3510   Y093.9866   Z000.0000   F720
G0   X119.3789   Y092.0683   Z000.0000   F720
G0   X119.9878   Y091.4386   Z000.0000   F720
G0   X120.4383   Y090.9346   Z000.0000   F720
G0   X120.9425   Y090.3155   Z000.0000   F720
G0   X122.1329   Y088.7125   Z000.0000   F720
G0   X122.7689   Y087.9327   Z000.0000   F720
G0   X123.5252   Y087.2114   Z000.0000   F720
G0   X123.5252   Y087.2114   Z003.0000   F500

;Begin Line: layer=0 line=3
G0   X120.8488   Y086.5917   Z003.0000   F2100
G0   X120.8488   Y086.5917   Z000.0000   F210
G0   X121.3549   Y085.8131   Z000.0000   F720
G0   X121.9276   Y085.0001   Z000.0000   F720
G0   X122.7362   Y083.9433   Z000.0000   F720
G0   X123.3410   Y083.2106   Z000.0000   F720
G0   X124.1481   Y082.2582   Z000.0000   F720
G0   X124.7043   Y081.6496   Z000.0000   F720
G0   X125.2828   Y081.0840   Z000.0000   F720
G0   X125.8343   Y080.6182   Z000.0000   F720
G0   X125.8343   Y080.6182   Z003.0000   F500

;Begin Line: layer=0 line=4
G0   X126.1529   Y081.0477   Z003.0000   F2100
G0   X126.1529   Y081.0477   Z000.0000   F210
G0   X125.7517   Y081.3147   Z000.0000   F720
G0   X124.8398   Y082.0953   Z000.0000   F720
G0   X124.0748   Y082.8919   Z000.0000   F720
G0   X123.0429   Y084.0400   Z000.0000   F720
G0   X122.4903   Y084.6844   Z000.0000   F720
G0   X122.1152   Y085.1594   Z000.0000   F720
G0   X121.7319   Y085.6790   Z000.0000   F720
G0   X121.1313   Y086.5505   Z000.0000   F720
G0   X120.6209   Y087.3719   Z000.0000   F720
G0   X119.5693   Y089.1777   Z000.0000   F720
G0   X118.8108   Y090.3907   Z000.0000   F720
G0   X116.7995   Y093.2543   Z000.0000   F720
G0   X116.5478   Y093.5573   Z000.0000   F720
G0   X116.1606   Y093.9753   Z000.0000   F720
G0   X116.1606   Y093.9753   Z003.0000   F500

;Begin Line: layer=0 line=5
G0   X116.6913   Y092.9688   Z003.0000   F2100
G0   X116.6913   Y092.9688   Z000.0000   F210
G0   X116.9771   Y092.5121   Z000.0000   F720
G0   X118.4207   Y090.0447   Z000.0000   F720
G0   X120.0021   Y087.2011   Z000.0000   F720
G0   X120.9083   Y085.6987   Z000.0000   F720
G0   X121.4977   Y084.7866   Z000.0000   F720
G0   X122.6809   Y083.0313   Z000.0000   F720
G0   X123.1456   Y082.3859   Z000.0000   F720
G0   X123.7016   Y081.6538   Z000.0000   F720
G0   X124.1684   Y081.0710   Z000.0000   F720
G0   X124.9328   Y080.2448   Z000.0000   F720
G0   X125.3104   Y079.9117   Z000.0000   F720
G0   X125.3104   Y079.9117   Z003.0000   F500

;Begin Line: layer=0 line=6
G0   X123.4702   Y081.8079   Z003.0000   F2100
G0   X123.4702   Y081.8079   Z000.0000   F210
G0   X122.9889   Y082.4624   Z000.0000   F720
G0   X122.4292   Y083.2608   Z000.0000   F720
G0   X121.4058   Y084.8152   Z000.0000   F720
G0   X120.6830   Y085.9588   Z000.0000   F720
G0   X120.1940   Y086.7674   Z000.0000   F720
G0   X119.6892   Y087.6474   Z000.0000   F720
G0   X118.6084   Y089.6191   Z000.0000   F720
G0   X116.7961   Y092.7703   Z000.0000   F720
G0   X116.5176   Y093.1889   Z000.0000   F720
G0   X116.0826   Y093.7520   Z000.0000   F720
G0   X115.6250   Y094.2170   Z000.0000   F720
G0   X115.2961   Y094.4952   Z000.0000   F720
G0   X114.7135   Y094.9462   Z000.0000   F720
G0   X113.6360   Y095.6826   Z000.0000   F720
G0   X111.7683   Y096.8876   Z000.0000   F720
G0   X109.8926   Y098.1278   Z000.0000   F720
G0   X106.8184   Y100.1000   Z000.0000   F720
G0   X105.9088   Y100.6237   Z000.0000   F720
G0   X105.0465   Y101.0460   Z000.0000   F720
G0   X104.1105   Y101.4263   Z000.0000   F720
G0   X103.6919   Y101.5593   Z000.0000   F720
G0   X103.6919   Y101.5593   Z000.0000   F720
G0   X103.5263   Y101.6119   Z000.0000   F720
G0   X103.5263   Y101.6119   Z000.0000   F720
G0   X102.8304   Y101.8062   Z000.0000   F720
G0   X102.4349   Y101.8970   Z000.0000   F720
G0   X102.4349   Y101.8970   Z003.0000   F500

;Begin Line: layer=0 line=7
G0   X122.5261   Y082.7991   Z003.0000   F2100
G0   X122.5261   Y082.7991   Z000.0000   F210
G0   X121.1066   Y085.0377   Z000.0000   F720
G0   X120.0961   Y086.6893   Z000.0000   F720
G0   X119.5196   Y087.6993   Z000.0000   F720
G0   X118.6462   Y089.3180   Z000.0000   F720
G0   X116.8445   Y092.5816   Z000.0000   F720
G0   X116.5742   Y093.0180   Z000.0000   F720
G0   X116.2775   Y093.4325   Z000.0000   F720
G0   X115.9950   Y093.7644   Z000.0000   F720
G0   X115.5838   Y094.1815   Z000.0000   F720
G0   X115.0472   Y094.6423   Z000.0000   F720
G0   X114.5289   Y095.0289   Z000.0000   F720
G0   X113.8861   Y095.4755   Z000.0000   F720
G0   X109.7180   Y098.2146   Z000.0000   F720
G0   X107.4588   Y099.6712   Z000.0000   F720
G0   X106.3539   Y100.3629   Z000.0000   F720
G0   X105.5638   Y100.7847   Z000.0000   F720
G0   X104.7427   Y101.1614   Z000.0000   F720
G0   X103.6919   Y101.5593   Z000.0000   F720
G0   X103.6919   Y101.5593   Z000.0000   F720
G0   X103.5263   Y101.6119   Z000.0000   F720
G0   X103.5263   Y101.6119   Z000.0000   F720
G0   X103.3438   Y101.6698   Z000.0000   F720
G0   X103.3438   Y101.6698   Z003.0000   F500

;Begin Line: layer=0 line=8
G0   X108.3699   Y098.5881   Z003.0000   F2100
G0   X108.3699   Y098.5881   Z000.0000   F210
G0   X109.5411   Y097.7724   Z000.0000   F720
G0   X110.3222   Y097.2000   Z000.0000   F720
G0   X113.3912   Y094.9133   Z000.0000   F720
G0   X113.7966   Y094.5963   Z000.0000   F720
G0   X114.2328   Y094.2176   Z000.0000   F720
G0   X114.7220   Y093.6873   Z000.0000   F720
G0   X114.8298   Y093.5331   Z000.0000   F720
G0   X114.8298   Y093.5331   Z000.0000   F720
G0   X114.4157   Y094.0186   Z000.0000   F720
G0   X114.1102   Y094.3044   Z000.0000   F720
G0   X113.6168   Y094.7209   Z000.0000   F720
G0   X113.2523   Y095.0001   Z000.0000   F720
G0   X110.0322   Y097.4016   Z000.0000   F720
G0   X109.2073   Y097.9969   Z000.0000   F720
G0   X107.0554   Y099.4975   Z000.0000   F720
G0   X106.0036   Y100.1896   Z000.0000   F720
G0   X105.2503   Y100.6028   Z000.0000   F720
G0   X104.6146   Y100.9031   Z000.0000   F720
G0   X103.4623   Y101.3724   Z000.0000   F720
G0   X102.3066   Y101.7101   Z000.0000   F720
G0   X102.3659   Y101.7899   Z000.0000   F720
G0   X102.7421   Y101.6997   Z000.0000   F720
G0   X103.7628   Y101.3847   Z000.0000   F720
G0   X104.7968   Y100.9646   Z000.0000   F720
G0   X105.7168   Y100.5053   Z000.0000   F720
G0   X106.8209   Y099.8296   Z000.0000   F720
G0   X109.7238   Y097.8729   Z000.0000   F720
G0   X113.5414   Y095.1755   Z000.0000   F720
G0   X114.4111   Y094.5161   Z000.0000   F720
G0   X114.8363   Y094.1391   Z000.0000   F720
G0   X115.2402   Y093.7080   Z000.0000   F720
G0   X115.6061   Y093.2067   Z000.0000   F720
G0   X115.8043   Y092.8863   Z000.0000   F720
G0   X115.9877   Y092.5319   Z000.0000   F720
G0   X116.3533   Y091.5901   Z000.0000   F720
G0   X116.8858   Y089.9680   Z000.0000   F720
G0   X117.3408   Y088.6975   Z000.0000   F720
G0   X117.9211   Y087.2761   Z000.0000   F720
G0   X118.4022   Y086.2710   Z000.0000   F720
G0   X119.5236   Y084.0892   Z000.0000   F720
G0   X120.8620   Y081.2061   Z000.0000   F720
G0   X121.3290   Y080.2654   Z000.0000   F720
G0   X121.8981   Y079.2158   Z000.0000   F720
G0   X122.6860   Y078.0011   Z000.0000   F720
G0   X123.1349   Y077.4109   Z000.0000   F720
G0   X123.1349   Y077.4109   Z003.0000   F500

;Begin Line: layer=0 line=9
G0   X116.0210   Y090.3990   Z003.0000   F2100
G0   X116.0210   Y090.3990   Z000.0000   F210
G0   X116.5438   Y088.4531   Z000.0000   F720
G0   X116.8029   Y087.6099   Z000.0000   F720
G0   X117.1000   Y086.7616   Z000.0000   F720
G0   X117.5249   Y085.6967   Z000.0000   F720
G0   X119.2719   Y081.6255   Z000.0000   F720
G0   X119.6661   Y080.7735   Z000.0000   F720
G0   X119.9974   Y080.1045   Z000.0000   F720
G0   X120.3469   Y079.4473   Z000.0000   F720
G0   X120.7868   Y078.6846   Z000.0000   F720
G0   X121.4999   Y077.6098   Z000.0000   F720
G0   X122.0016   Y076.9362   Z000.0000   F720
G0   X122.3409   Y076.5348   Z000.0000   F720
G0   X122.3990   Y076.5990   Z000.0000   F720
G0   X121.7025   Y077.4413   Z000.0000   F720
G0   X121.1827   Y078.2050   Z000.0000   F720
G0   X120.5117   Y079.3088   Z000.0000   F720
G0   X119.9329   Y080.3842   Z000.0000   F720
G0   X119.4418   Y081.4046   Z000.0000   F720
G0   X117.6392   Y085.5656   Z000.0000   F720
G0   X117.2428   Y086.5339   Z000.0000   F720
G0   X116.9741   Y087.2667   Z000.0000   F720
G0   X116.6941   Y088.1173   Z000.0000   F720
G0   X116.3788   Y089.2242   Z000.0000   F720
G0   X115.8493   Y091.2170   Z000.0000   F720
G0   X115.6423   Y091.9025   Z000.0000   F720
G0   X115.3939   Y092.5681   Z000.0000   F720
G0   X115.1123   Y093.1202   Z000.0000   F720
G0   X115.1123   Y093.1202   Z000.0000   F720
G0   X115.3094   Y092.7768   Z000.0000   F720
G0   X115.5212   Y092.3021   Z000.0000   F720
G0   X115.7273   Y091.7106   Z000.0000   F720
G0   X116.6263   Y088.4384   Z000.0000   F720
G0   X116.9312   Y087.4888   Z000.0000   F720
G0   X117.2097   Y086.7169   Z000.0000   F720
G0   X117.4958   Y085.9933   Z000.0000   F720
G0   X118.3381   Y084.0753   Z000.0000   F720
G0   X119.0946   Y082.2979   Z000.0000   F720
G0   X119.5625   Y081.2499   Z000.0000   F720
G0   X119.5625   Y081.2499   Z003.0000   F500

;Begin Line: layer=0 line=10
G0   X115.1123   Y093.1202   Z003.0000   F2100
G0   X115.1123   Y093.1202   Z000.0000   F210
G0   X114.8526   Y093.5006   Z000.0000   F720
G0   X114.8526   Y093.5006   Z000.0000   F720
G0   X115.1123   Y093.1202   Z000.0000   F720
G0   X115.1123   Y093.1202   Z003.0000   F500

;Begin Line: layer=0 line=11
G0   X103.6888   Y101.7387   Z003.0000   F2100
G0   X103.6888   Y101.7387   Z000.0000   F210
G0   X104.6304   Y101.4155   Z000.0000   F720
G0   X105.4365   Y101.0777   Z000.0000   F720
G0   X106.2380   Y100.6831   Z000.0000   F720
G0   X107.3375   Y100.0422   Z000.0000   F720
G0   X112.2464   Y097.0189   Z000.0000   F720
G0   X114.3152   Y095.8002   Z000.0000   F720
G0   X114.9253   Y095.4189   Z000.0000   F720
G0   X115.7709   Y094.8459   Z000.0000   F720
G0   X116.5255   Y094.2644   Z000.0000   F720
G0   X116.9852   Y093.8384   Z000.0000   F720
G0   X119.0401   Y091.6741   Z000.0000   F720
G0   X119.5347   Y091.1154   Z000.0000   F720
G0   X119.9119   Y090.6561   Z000.0000   F720
G0   X120.3491   Y090.0717   Z000.0000   F720
G0   X120.7075   Y089.5579   Z000.0000   F720
G0   X121.9178   Y087.7297   Z000.0000   F720
G0   X122.5501   Y086.9277   Z000.0000   F720
G0   X123.2641   Y086.2076   Z000.0000   F720
G0   X123.7656   Y085.7617   Z000.0000   F720
G0   X124.4917   Y085.1966   Z000.0000   F720
G0   X125.1794   Y084.7199   Z000.0000   F720
G0   X126.1150   Y084.1923   Z000.0000   F720
G0   X126.7468   Y083.9077   Z000.0000   F720
G0   X127.6841   Y083.6665   Z000.0000   F720
G0   X128.0557   Y083.6133   Z000.0000   F720
G0   X128.0557   Y083.6133   Z003.0000   F500

;Begin Line: layer=0 line=12
G0   X126.9634   Y082.1405   Z003.0000   F2100
G0   X126.9634   Y082.1405   Z000.0000   F210
G0   X126.4320   Y082.3725   Z000.0000   F720
G0   X125.7182   Y082.8247   Z000.0000   F720
G0   X124.9358   Y083.4397   Z000.0000   F720
G0   X123.9764   Y084.2883   Z000.0000   F720
G0   X123.4463   Y084.7807   Z000.0000   F720
G0   X122.9224   Y085.3001   Z000.0000   F720
G0   X122.4249   Y085.8452   Z000.0000   F720
G0   X122.0277   Y086.3416   Z000.0000   F720
G0   X121.6389   Y086.8838   Z000.0000   F720
G0   X121.2495   Y087.4785   Z000.0000   F720
G0   X120.2706   Y089.0902   Z000.0000   F720
G0   X119.8312   Y089.7854   Z000.0000   F720
G0   X119.3307   Y090.5171   Z000.0000   F720
G0   X118.9562   Y091.0091   Z000.0000   F720
G0   X117.1058   Y093.2673   Z000.0000   F720
G0   X116.8315   Y093.5793   Z000.0000   F720
G0   X116.3566   Y094.0732   Z000.0000   F720
G0   X115.9673   Y094.4122   Z000.0000   F720
G0   X115.4097   Y094.8463   Z000.0000   F720
G0   X114.8161   Y095.2631   Z000.0000   F720
G0   X113.7475   Y095.9434   Z000.0000   F720
G0   X111.8821   Y097.0842   Z000.0000   F720
G0   X111.8821   Y097.0842   Z003.0000   F500

;Begin Line: layer=0 line=13
G0   X107.2432   Y094.3355   Z003.0000   F2100
G0   X107.2432   Y094.3355   Z000.0000   F210
G0   X106.8889   Y094.9473   Z000.0000   F720
G0   X106.5627   Y095.4659   Z000.0000   F720
G0   X106.0731   Y096.1736   Z000.0000   F720
G0   X105.4537   Y096.9571   Z000.0000   F720
G0   X104.3846   Y098.1233   Z000.0000   F720
G0   X103.7374   Y098.7912   Z000.0000   F720
G0   X103.3350   Y099.1638   Z000.0000   F720
G0   X102.8803   Y099.5401   Z000.0000   F720
G0   X102.1587   Y100.0513   Z000.0000   F720
G0   X101.6003   Y100.3501   Z000.0000   F720
G0   X101.3731   Y100.4513   Z000.0000   F720
G0   X101.3731   Y100.4513   Z003.0000   F500

;Begin Line: layer=0 line=14
G0   X109.6693   Y075.5727   Z003.0000   F2100
G0   X109.6693   Y075.5727   Z000.0000   F210
G0   X108.8720   Y076.4919   Z000.0000   F720
G0   X108.4858   Y077.0852   Z000.0000   F720
G0   X108.1713   Y077.6383   Z000.0000   F720
G0   X107.6423   Y078.6825   Z000.0000   F720
