;Generated with vpype gwrite fabian
G90 ; Use absolute position
G92 X0 Y0 Z0 ; Set the current position as (0,0,0)
G0   X000.0000   Y000.0000   Z003.0000   F500

;Begin Line: layer=0 line=0
G0   X045.8032   Y060.9814   Z003.0000   F2100
G0   X045.8032   Y060.9814   Z000.0000   F210
G0   X045.5310   Y059.9843   Z000.0000   F720
G0   X045.2992   Y058.6357   Z000.0000   F720
G0   X045.1162   Y057.3197   Z000.0000   F720
G0   X044.7085   Y054.7521   Z000.0000   F720
G0   X044.4617   Y053.3689   Z000.0000   F720
G0   X044.1315   Y051.7338   Z000.0000   F720
G0   X043.8695   Y050.2751   Z000.0000   F720
G0   X043.6889   Y048.5744   Z000.0000   F720
G0   X043.5574   Y047.1136   Z000.0000   F720
G0   X043.3762   Y045.8309   Z000.0000   F720
G0   X043.0542   Y044.1920   Z000.0000   F720
G0   X042.8370   Y042.8577   Z000.0000   F720
G0   X042.8370   Y042.8577   Z003.0000   F500

;Begin Line: layer=0 line=1
G0   X037.1487   Y039.6971   Z003.0000   F2100
G0   X037.1487   Y039.6971   Z000.0000   F210
G0   X037.5010   Y045.0059   Z000.0000   F720
G0   X037.6302   Y045.9972   Z000.0000   F720
G0   X037.8836   Y047.3732   Z000.0000   F720
G0   X038.2045   Y048.6337   Z000.0000   F720
G0   X038.5027   Y049.6376   Z000.0000   F720
G0   X038.8754   Y050.7323   Z000.0000   F720
G0   X039.9039   Y053.2633   Z000.0000   F720
G0   X040.3683   Y054.5178   Z000.0000   F720
G0   X040.7765   Y055.7827   Z000.0000   F720
G0   X041.1620   Y057.0930   Z000.0000   F720
G0   X041.9417   Y060.0870   Z000.0000   F720
G0   X042.2415   Y061.1157   Z000.0000   F720
G0   X042.5773   Y062.1263   Z000.0000   F720
G0   X043.0709   Y063.4492   Z000.0000   F720
G0   X043.4185   Y064.2414   Z000.0000   F720
G0   X043.9389   Y065.3041   Z000.0000   F720
G0   X044.4157   Y066.1569   Z000.0000   F720
G0   X045.1495   Y067.3984   Z000.0000   F720
G0   X045.6391   Y068.2845   Z000.0000   F720
G0   X045.9112   Y068.8376   Z000.0000   F720
G0   X046.7115   Y070.5885   Z000.0000   F720
G0   X047.1883   Y071.5776   Z000.0000   F720
G0   X048.9000   Y074.7965   Z000.0000   F720
G0   X049.3479   Y075.6089   Z000.0000   F720
G0   X050.2470   Y077.1144   Z000.0000   F720
G0   X051.5028   Y079.1243   Z000.0000   F720
G0   X051.5028   Y079.1243   Z003.0000   F500

;Begin Line: layer=0 line=2
G0   X063.4377   Y075.8162   Z003.0000   F2100
G0   X063.4377   Y075.8162   Z000.0000   F210
G0   X063.3554   Y076.3996   Z000.0000   F720
G0   X063.2327   Y077.1079   Z000.0000   F720
G0   X062.6356   Y080.0354   Z000.0000   F720
G0   X062.4688   Y080.9287   Z000.0000   F720
G0   X062.2373   Y082.3234   Z000.0000   F720
G0   X062.0924   Y083.5226   Z000.0000   F720
G0   X062.0142   Y084.6074   Z000.0000   F720
G0   X061.9582   Y085.9971   Z000.0000   F720
G0   X061.9359   Y087.3478   Z000.0000   F720
G0   X061.9701   Y088.2799   Z000.0000   F720
G0   X062.0769   Y089.4549   Z000.0000   F720
G0   X062.2049   Y090.2006   Z000.0000   F720
G0   X062.3620   Y090.8714   Z000.0000   F720
G0   X062.6073   Y091.6828   Z000.0000   F720
G0   X063.0211   Y092.6679   Z000.0000   F720
G0   X063.4664   Y093.3880   Z000.0000   F720
G0   X063.9315   Y093.9982   Z000.0000   F720
G0   X064.9203   Y095.1869   Z000.0000   F720
G0   X065.3308   Y095.7108   Z000.0000   F720
G0   X065.7302   Y096.2826   Z000.0000   F720
G0   X066.0306   Y096.7918   Z000.0000   F720
G0   X066.3394   Y097.4070   Z000.0000   F720
G0   X066.5602   Y097.9411   Z000.0000   F720
G0   X066.8344   Y098.7249   Z000.0000   F720
G0   X067.0344   Y099.4586   Z000.0000   F720
G0   X067.2317   Y100.3733   Z000.0000   F720
G0   X067.3359   Y101.0548   Z000.0000   F720
G0   X067.3958   Y101.6408   Z000.0000   F720
G0   X067.4385   Y102.4670   Z000.0000   F720
G0   X067.4223   Y103.1060   Z000.0000   F720
G0   X067.3438   Y104.0444   Z000.0000   F720
G0   X067.1809   Y105.0760   Z000.0000   F720
G0   X066.9559   Y106.0824   Z000.0000   F720
G0   X066.7333   Y106.8262   Z000.0000   F720
G0   X066.5128   Y107.4260   Z000.0000   F720
G0   X066.2038   Y108.1623   Z000.0000   F720
G0   X065.8707   Y108.8819   Z000.0000   F720
G0   X065.3681   Y109.9298   Z000.0000   F720
G0   X064.8706   Y110.8454   Z000.0000   F720
G0   X064.5057   Y111.3891   Z000.0000   F720
G0   X064.1515   Y111.8401   Z000.0000   F720
G0   X063.7324   Y112.3085   Z000.0000   F720
G0   X063.1443   Y112.9005   Z000.0000   F720
G0   X062.5363   Y113.4770   Z000.0000   F720
G0   X062.0832   Y113.9357   Z000.0000   F720
G0   X061.7898   Y114.2732   Z000.0000   F720
G0   X061.3505   Y114.8360   Z000.0000   F720
G0   X061.0111   Y115.3582   Z000.0000   F720
G0   X060.7426   Y115.8393   Z000.0000   F720
G0   X060.5139   Y116.3093   Z000.0000   F720
G0   X060.2704   Y116.8796   Z000.0000   F720
G0   X059.9932   Y117.6387   Z000.0000   F720
G0   X059.7995   Y118.2764   Z000.0000   F720
G0   X059.3388   Y120.1006   Z000.0000   F720
G0   X058.9586   Y121.8679   Z000.0000   F720
G0   X058.9586   Y121.8679   Z003.0000   F500

;Begin Line: layer=0 line=3
G0   X059.7815   Y123.8411   Z003.0000   F2100
G0   X059.7815   Y123.8411   Z000.0000   F210
G0   X060.1119   Y123.3387   Z000.0000   F720
G0   X060.5677   Y122.7900   Z000.0000   F720
G0   X061.0477   Y122.2849   Z000.0000   F720
G0   X061.6236   Y121.7369   Z000.0000   F720
G0   X062.1021   Y121.3150   Z000.0000   F720
G0   X062.5046   Y120.9862   Z000.0000   F720
G0   X063.2387   Y120.4829   Z000.0000   F720
G0   X063.9992   Y120.0470   Z000.0000   F720
G0   X065.2590   Y119.3751   Z000.0000   F720
G0   X066.2364   Y118.8006   Z000.0000   F720
G0   X066.8756   Y118.3797   Z000.0000   F720
G0   X067.9566   Y117.6277   Z000.0000   F720
G0   X068.8136   Y116.9753   Z000.0000   F720
G0   X069.5626   Y116.3039   Z000.0000   F720
G0   X070.3002   Y115.4632   Z000.0000   F720
G0   X070.8113   Y114.7692   Z000.0000   F720
G0   X071.1883   Y114.1926   Z000.0000   F720
G0   X071.5636   Y113.5506   Z000.0000   F720
G0   X072.1244   Y112.3859   Z000.0000   F720
G0   X072.5787   Y111.2205   Z000.0000   F720
G0   X072.9693   Y109.9913   Z000.0000   F720
G0   X073.3496   Y108.5911   Z000.0000   F720
G0   X073.5305   Y107.8609   Z000.0000   F720
G0   X073.7383   Y106.6564   Z000.0000   F720
G0   X073.8217   Y105.7347   Z000.0000   F720
G0   X073.7928   Y104.5553   Z000.0000   F720
G0   X073.7249   Y103.8591   Z000.0000   F720
G0   X073.4906   Y102.7918   Z000.0000   F720
G0   X073.2572   Y102.0361   Z000.0000   F720
G0   X072.8719   Y101.0691   Z000.0000   F720
G0   X072.2585   Y099.6661   Z000.0000   F720
G0   X071.9524   Y098.9275   Z000.0000   F720
G0   X070.9930   Y096.3986   Z000.0000   F720
G0   X070.6992   Y095.5592   Z000.0000   F720
G0   X070.0292   Y093.5363   Z000.0000   F720
G0   X069.5245   Y091.9317   Z000.0000   F720
G0   X069.2934   Y091.0275   Z000.0000   F720
G0   X069.0645   Y089.8344   Z000.0000   F720
G0   X068.7585   Y088.0166   Z000.0000   F720
G0   X068.6409   Y086.7626   Z000.0000   F720
G0   X068.6241   Y085.7795   Z000.0000   F720
G0   X068.6597   Y084.9911   Z000.0000   F720
G0   X068.8849   Y083.5664   Z000.0000   F720
G0   X069.2130   Y082.3353   Z000.0000   F720
G0   X069.6113   Y081.2620   Z000.0000   F720
G0   X070.0460   Y080.3181   Z000.0000   F720
G0   X070.4897   Y079.4428   Z000.0000   F720
G0   X070.9033   Y078.5525   Z000.0000   F720
G0   X071.2630   Y077.4953   Z000.0000   F720
G0   X071.5124   Y076.4293   Z000.0000   F720
G0   X071.6295   Y075.8111   Z000.0000   F720
G0   X071.7473   Y074.8377   Z000.0000   F720
G0   X071.7996   Y074.1907   Z000.0000   F720
G0   X071.8305   Y073.5046   Z000.0000   F720
G0   X071.8470   Y070.3132   Z000.0000   F720
G0   X071.8724   Y069.5775   Z000.0000   F720
G0   X071.9382   Y068.4924   Z000.0000   F720
G0   X072.0508   Y067.4148   Z000.0000   F720
G0   X072.6658   Y063.2472   Z000.0000   F720
G0   X072.7327   Y062.4013   Z000.0000   F720
G0   X072.7424   Y061.7248   Z000.0000   F720
G0   X072.7124   Y061.1589   Z000.0000   F720
G0   X072.6104   Y060.4521   Z000.0000   F720
G0   X072.4425   Y059.7229   Z000.0000   F720
G0   X072.1658   Y058.7935   Z000.0000   F720
G0   X071.8232   Y057.5298   Z000.0000   F720
G0   X071.6797   Y056.8655   Z000.0000   F720
G0   X071.5656   Y056.0038   Z000.0000   F720
G0   X071.5139   Y055.1950   Z000.0000   F720
G0   X071.5541   Y053.8830   Z000.0000   F720
G0   X071.7261   Y052.4950   Z000.0000   F720
G0   X071.9478   Y051.2116   Z000.0000   F720
G0   X072.1749   Y049.9421   Z000.0000   F720
G0   X072.6170   Y047.9300   Z000.0000   F720
G0   X073.0741   Y046.4547   Z000.0000   F720
G0   X073.5322   Y045.2993   Z000.0000   F720
G0   X074.1716   Y044.2019   Z000.0000   F720
G0   X074.1716   Y044.2019   Z003.0000   F500

;Begin Line: layer=0 line=4
G0   X074.1716   Y044.2019   Z003.0000   F2100
G0   X074.1716   Y044.2019   Z000.0000   F210
G0   X075.6841   Y042.2971   Z000.0000   F720
G0   X076.9303   Y041.0501   Z000.0000   F720
G0   X078.7319   Y039.5829   Z000.0000   F720
G0   X079.9636   Y038.6662   Z000.0000   F720
G0   X081.4457   Y037.6347   Z000.0000   F720
G0   X082.7423   Y036.7507   Z000.0000   F720
G0   X085.9427   Y034.6275   Z000.0000   F720
G0   X088.0885   Y033.1437   Z000.0000   F720
G0   X089.5499   Y032.1028   Z000.0000   F720
G0   X091.0723   Y030.9362   Z000.0000   F720
G0   X092.7047   Y029.4706   Z000.0000   F720
G0   X094.3385   Y027.3987   Z000.0000   F720
G0   X095.6364   Y025.1053   Z000.0000   F720
G0   X096.9055   Y022.4801   Z000.0000   F720
G0   X097.9262   Y020.3127   Z000.0000   F720
G0   X098.9073   Y017.6936   Z000.0000   F720
G0   X100.2948   Y012.8765   Z000.0000   F720
G0   X100.7548   Y011.3750   Z000.0000   F720
G0   X100.7548   Y011.3750   Z003.0000   F500

;Begin Line: layer=0 line=5
G0   X105.2180   Y011.3750   Z003.0000   F2100
G0   X105.2180   Y011.3750   Z000.0000   F210
G0   X104.8653   Y012.3929   Z000.0000   F720
G0   X103.6074   Y015.3016   Z000.0000   F720
G0   X102.1583   Y018.1974   Z000.0000   F720
G0   X101.1652   Y020.2611   Z000.0000   F720
G0   X100.3681   Y021.6700   Z000.0000   F720
G0   X098.9874   Y023.8021   Z000.0000   F720
G0   X096.4686   Y027.4947   Z000.0000   F720
G0   X095.0853   Y029.1730   Z000.0000   F720
G0   X093.9977   Y030.1871   Z000.0000   F720
G0   X092.6178   Y031.3137   Z000.0000   F720
G0   X091.1224   Y032.4318   Z000.0000   F720
G0   X089.3702   Y033.6656   Z000.0000   F720
G0   X087.8255   Y034.7051   Z000.0000   F720
G0   X085.6934   Y036.1088   Z000.0000   F720
G0   X083.6729   Y037.3829   Z000.0000   F720
G0   X082.5006   Y038.1528   Z000.0000   F720
G0   X081.2154   Y039.0467   Z000.0000   F720
G0   X079.7033   Y040.1923   Z000.0000   F720
G0   X078.2428   Y041.3964   Z000.0000   F720
G0   X076.3090   Y043.2450   Z000.0000   F720
G0   X075.2379   Y044.6565   Z000.0000   F720
G0   X074.3899   Y046.0735   Z000.0000   F720
G0   X073.5626   Y047.8268   Z000.0000   F720
G0   X073.0263   Y049.4976   Z000.0000   F720
G0   X072.6289   Y051.3050   Z000.0000   F720
G0   X072.4113   Y052.4965   Z000.0000   F720
G0   X072.2824   Y053.4011   Z000.0000   F720
G0   X072.1931   Y054.3797   Z000.0000   F720
G0   X072.1610   Y055.7927   Z000.0000   F720
G0   X072.2569   Y056.9294   Z000.0000   F720
G0   X072.4001   Y057.6950   Z000.0000   F720
G0   X072.8249   Y059.4473   Z000.0000   F720
G0   X072.9974   Y060.2736   Z000.0000   F720
G0   X073.0779   Y060.8987   Z000.0000   F720
G0   X073.1117   Y061.4842   Z000.0000   F720
G0   X073.1045   Y062.5448   Z000.0000   F720
G0   X073.0181   Y063.4335   Z000.0000   F720
G0   X072.4514   Y067.1010   Z000.0000   F720
G0   X072.3340   Y068.0076   Z000.0000   F720
G0   X072.2887   Y068.5006   Z000.0000   F720
G0   X072.2193   Y069.4741   Z000.0000   F720
G0   X072.1875   Y070.2681   Z000.0000   F720
G0   X072.1611   Y073.1427   Z000.0000   F720
G0   X072.1312   Y073.9548   Z000.0000   F720
G0   X072.0563   Y074.9514   Z000.0000   F720
G0   X071.9725   Y075.5769   Z000.0000   F720
G0   X071.7601   Y076.7793   Z000.0000   F720
G0   X071.5570   Y077.5404   Z000.0000   F720
G0   X071.1646   Y078.6625   Z000.0000   F720
G0   X070.7086   Y079.6055   Z000.0000   F720
G0   X070.3756   Y080.2421   Z000.0000   F720
G0   X070.0507   Y080.9087   Z000.0000   F720
G0   X069.7663   Y081.5797   Z000.0000   F720
G0   X069.4585   Y082.4528   Z000.0000   F720
G0   X069.1179   Y083.7502   Z000.0000   F720
G0   X068.9294   Y085.0604   Z000.0000   F720
G0   X068.9028   Y085.7992   Z000.0000   F720
G0   X068.9303   Y086.9459   Z000.0000   F720
G0   X069.0348   Y087.8702   Z000.0000   F720
G0   X069.1925   Y088.8249   Z000.0000   F720
G0   X069.4465   Y090.1618   Z000.0000   F720
G0   X069.7271   Y091.3574   Z000.0000   F720
G0   X070.0448   Y092.3970   Z000.0000   F720
G0   X071.3989   Y096.4372   Z000.0000   F720
G0   X072.1969   Y098.5834   Z000.0000   F720
G0   X072.6684   Y099.7467   Z000.0000   F720
G0   X073.0862   Y100.7156   Z000.0000   F720
G0   X073.4946   Y101.7539   Z000.0000   F720
G0   X073.8290   Y102.8258   Z000.0000   F720
G0   X073.9790   Y103.5565   Z000.0000   F720
G0   X074.1021   Y104.4812   Z000.0000   F720
G0   X074.1338   Y105.2141   Z000.0000   F720
G0   X074.1086   Y106.1020   Z000.0000   F720
G0   X073.9790   Y107.2254   Z000.0000   F720
G0   X073.7678   Y108.2339   Z000.0000   F720
G0   X073.5488   Y109.0713   Z000.0000   F720
G0   X073.1767   Y110.3833   Z000.0000   F720
G0   X072.8708   Y111.3128   Z000.0000   F720
G0   X072.4523   Y112.4061   Z000.0000   F720
G0   X072.0822   Y113.1993   Z000.0000   F720
G0   X072.0822   Y113.1993   Z003.0000   F500

;Begin Line: layer=0 line=6
G0   X071.5390   Y114.2989   Z003.0000   F2100
G0   X071.5390   Y114.2989   Z000.0000   F210
G0   X070.8865   Y115.3210   Z000.0000   F720
G0   X070.3104   Y116.0655   Z000.0000   F720
G0   X069.7719   Y116.6491   Z000.0000   F720
G0   X069.1151   Y117.2633   Z000.0000   F720
G0   X068.2655   Y117.9685   Z000.0000   F720
G0   X066.7664   Y119.1305   Z000.0000   F720
G0   X066.2246   Y119.5134   Z000.0000   F720
G0   X065.7710   Y119.8093   Z000.0000   F720
G0   X063.9216   Y120.9393   Z000.0000   F720
G0   X063.2891   Y121.3659   Z000.0000   F720
G0   X062.7765   Y121.7495   Z000.0000   F720
G0   X062.2643   Y122.1595   Z000.0000   F720
G0   X061.2855   Y123.0023   Z000.0000   F720
G0   X060.7480   Y123.5155   Z000.0000   F720
G0   X060.4671   Y123.8354   Z000.0000   F720
G0   X060.0449   Y124.3942   Z000.0000   F720
G0   X059.8127   Y124.8240   Z000.0000   F720
G0   X059.5571   Y125.4383   Z000.0000   F720
G0   X059.4298   Y125.8616   Z000.0000   F720
G0   X059.0765   Y127.2143   Z000.0000   F720
G0   X058.9216   Y127.6990   Z000.0000   F720
G0   X058.7956   Y128.0122   Z000.0000   F720
G0   X058.5883   Y128.4601   Z000.0000   F720
G0   X058.3283   Y128.9346   Z000.0000   F720
G0   X057.4781   Y130.2864   Z000.0000   F720
G0   X057.2180   Y130.7265   Z000.0000   F720
G0   X056.7813   Y131.5810   Z000.0000   F720
G0   X056.6165   Y131.9738   Z000.0000   F720
G0   X056.4402   Y132.4572   Z000.0000   F720
G0   X056.2940   Y132.9369   Z000.0000   F720
G0   X056.1330   Y133.5565   Z000.0000   F720
G0   X055.5562   Y136.1367   Z000.0000   F720
G0   X055.3905   Y136.6840   Z000.0000   F720
G0   X055.2449   Y137.0549   Z000.0000   F720
G0   X054.9480   Y137.6865   Z000.0000   F720
G0   X054.5582   Y138.3243   Z000.0000   F720
G0   X054.0575   Y138.9982   Z000.0000   F720
G0   X053.1419   Y140.0775   Z000.0000   F720
G0   X052.3214   Y140.9750   Z000.0000   F720
G0   X050.5637   Y142.7905   Z000.0000   F720
G0   X050.0938   Y143.3154   Z000.0000   F720
G0   X048.7280   Y144.9508   Z000.0000   F720
G0   X047.1848   Y146.6701   Z000.0000   F720
G0   X046.6965   Y147.2586   Z000.0000   F720
G0   X045.3653   Y149.0236   Z000.0000   F720
G0   X044.9456   Y149.5291   Z000.0000   F720
G0   X044.4768   Y150.0290   Z000.0000   F720
G0   X044.0948   Y150.3822   Z000.0000   F720
G0   X043.5970   Y150.7983   Z000.0000   F720
G0   X042.8218   Y151.3751   Z000.0000   F720
G0   X042.8218   Y151.3751   Z003.0000   F500

;Begin Line: layer=0 line=7
