;Generated with vpype gwrite fabian
G90 ; Use absolute position
G92 X0 Y0 Z0 ; Set the current position as (0,0,0)
G0   X000.0000   Y000.0000   Z003.0000   F500

;Begin Line: layer=0 line=0
G0   X134.6438   Y092.0432   Z003.0000   F2100
G0   X134.6438   Y092.0432   Z000.0000   F210
G0   X134.3818   Y091.9813   Z000.0000   F720
G0   X134.3818   Y091.9813   Z003.0000   F500

;Begin Line: layer=0 line=1
G0   X124.9453   Y072.5446   Z003.0000   F2100
G0   X124.9453   Y072.5446   Z000.0000   F210
G0   X126.2038   Y071.8140   Z000.0000   F720
G0   X126.2038   Y071.8140   Z003.0000   F500

;Begin Line: layer=0 line=2
G0   X126.6160   Y069.0352   Z003.0000   F2100
G0   X126.6160   Y069.0352   Z000.0000   F210
G0   X126.1492   Y069.2883   Z000.0000   F720
G0   X124.6269   Y070.1635   Z000.0000   F720
G0   X123.6168   Y070.6485   Z000.0000   F720
G0   X123.6168   Y070.6485   Z003.0000   F500

;Begin Line: layer=0 line=3
G0   X123.0768   Y070.0121   Z003.0000   F2100
G0   X123.0768   Y070.0121   Z000.0000   F210
G0   X124.0827   Y069.5919   Z000.0000   F720
G0   X126.1999   Y068.5154   Z000.0000   F720
G0   X126.1999   Y068.5154   Z003.0000   F500

;Begin Line: layer=0 line=4
G0   X125.8303   Y068.0740   Z003.0000   F2100
G0   X125.8303   Y068.0740   Z000.0000   F210
G0   X124.1252   Y068.8670   Z000.0000   F720
G0   X123.0326   Y069.3103   Z000.0000   F720
G0   X122.5963   Y069.4458   Z000.0000   F720
G0   X122.5963   Y069.4458   Z003.0000   F500

;Begin Line: layer=0 line=5
G0   X121.4312   Y068.0725   Z003.0000   F2100
G0   X121.4312   Y068.0725   Z000.0000   F210
G0   X121.8870   Y067.9750   Z000.0000   F720
G0   X123.4509   Y067.4506   Z000.0000   F720
G0   X124.8533   Y066.9075   Z000.0000   F720
G0   X124.8533   Y066.9075   Z003.0000   F500

;Begin Line: layer=0 line=6
G0   X123.3646   Y065.1408   Z003.0000   F2100
G0   X123.3646   Y065.1408   Z000.0000   F210
G0   X122.3945   Y065.4737   Z000.0000   F720
G0   X120.7096   Y065.9950   Z000.0000   F720
G0   X119.8231   Y066.1771   Z000.0000   F720
G0   X119.8231   Y066.1771   Z003.0000   F500

;Begin Line: layer=0 line=7
G0   X121.4809   Y063.0694   Z003.0000   F2100
G0   X121.4809   Y063.0694   Z000.0000   F210
G0   X119.9990   Y063.5727   Z000.0000   F720
G0   X118.0657   Y064.1271   Z000.0000   F720
G0   X117.7961   Y064.1754   Z000.0000   F720
G0   X117.7961   Y064.1754   Z003.0000   F500

;Begin Line: layer=0 line=8
G0   X117.6063   Y063.9917   Z003.0000   F2100
G0   X117.6063   Y063.9917   Z000.0000   F210
G0   X118.9817   Y063.6539   Z000.0000   F720
G0   X120.8161   Y063.0701   Z000.0000   F720
G0   X121.3074   Y062.8999   Z000.0000   F720
G0   X121.3074   Y062.8999   Z003.0000   F500

;Begin Line: layer=0 line=9
G0   X119.9412   Y061.5656   Z003.0000   F2100
G0   X119.9412   Y061.5656   Z000.0000   F210
G0   X119.4224   Y061.7546   Z000.0000   F720
G0   X117.5990   Y062.2973   Z000.0000   F720
G0   X116.1575   Y062.5896   Z000.0000   F720
G0   X116.1575   Y062.5896   Z003.0000   F500

;Begin Line: layer=0 line=10
G0   X113.4782   Y060.2810   Z003.0000   F2100
G0   X113.4782   Y060.2810   Z000.0000   F210
G0   X114.2636   Y060.1340   Z000.0000   F720
G0   X115.2045   Y059.9169   Z000.0000   F720
G0   X117.6273   Y059.3209   Z000.0000   F720
G0   X117.6273   Y059.3209   Z003.0000   F500

;Begin Line: layer=0 line=11
G0   X116.7583   Y058.5933   Z003.0000   F2100
G0   X116.7583   Y058.5933   Z000.0000   F210
G0   X114.1085   Y059.2093   Z000.0000   F720
G0   X113.2976   Y059.3735   Z000.0000   F720
G0   X112.5012   Y059.5055   Z000.0000   F720
G0   X112.5012   Y059.5055   Z003.0000   F500

;Begin Line: layer=0 line=12
G0   X110.3647   Y057.8099   Z003.0000   F2100
G0   X110.3647   Y057.8099   Z000.0000   F210
G0   X114.7744   Y057.0099   Z000.0000   F720
G0   X114.7744   Y057.0099   Z003.0000   F500

;Begin Line: layer=0 line=13
G0   X113.9237   Y056.3310   Z003.0000   F2100
G0   X113.9237   Y056.3310   Z000.0000   F210
G0   X110.8861   Y056.8423   Z000.0000   F720
G0   X109.3560   Y057.1324   Z000.0000   F720
G0   X109.3560   Y057.1324   Z003.0000   F500

;Begin Line: layer=0 line=14
G0   X108.8506   Y056.8065   Z003.0000   F2100
G0   X108.8506   Y056.8065   Z000.0000   F210
G0   X110.8593   Y056.4294   Z000.0000   F720
G0   X113.1612   Y056.0620   Z000.0000   F720
G0   X113.1612   Y056.0620   Z003.0000   F500

;Begin Line: layer=0 line=15
G0   X112.6471   Y055.3178   Z003.0000   F2100
G0   X112.6471   Y055.3178   Z000.0000   F210
G0   X111.1540   Y055.5082   Z000.0000   F720
G0   X110.3191   Y055.6299   Z000.0000   F720
G0   X108.6650   Y055.9061   Z000.0000   F720
G0   X107.8995   Y056.0149   Z000.0000   F720
G0   X107.6554   Y056.0359   Z000.0000   F720
G0   X107.6554   Y056.0359   Z003.0000   F500

;Begin Line: layer=0 line=16
G0   X105.6724   Y054.7573   Z003.0000   F2100
G0   X105.6724   Y054.7573   Z000.0000   F210
G0   X106.4765   Y054.8048   Z000.0000   F720
G0   X107.3503   Y054.7997   Z000.0000   F720
G0   X107.9135   Y054.7732   Z000.0000   F720
G0   X111.3831   Y054.4347   Z000.0000   F720
G0   X111.3831   Y054.4347   Z003.0000   F500

;Begin Line: layer=0 line=17
G0   X110.3449   Y053.7639   Z003.0000   F2100
G0   X110.3449   Y053.7639   Z000.0000   F210
G0   X108.2513   Y053.9021   Z000.0000   F720
G0   X107.1727   Y053.9500   Z000.0000   F720
G0   X106.0990   Y053.9395   Z000.0000   F720
G0   X105.1118   Y053.8767   Z000.0000   F720
G0   X105.1118   Y053.8767   Z003.0000   F500

;Begin Line: layer=0 line=18
G0   X105.1632   Y053.7877   Z003.0000   F2100
G0   X105.1632   Y053.7877   Z000.0000   F210
G0   X105.8937   Y053.8355   Z000.0000   F720
G0   X106.6378   Y053.8630   Z000.0000   F720
G0   X107.7057   Y053.8421   Z000.0000   F720
G0   X110.2276   Y053.6882   Z000.0000   F720
G0   X110.2276   Y053.6882   Z003.0000   F500

;Begin Line: layer=0 line=19
G0   X109.6242   Y053.2984   Z003.0000   F2100
G0   X109.6242   Y053.2984   Z000.0000   F210
G0   X107.0762   Y053.4123   Z000.0000   F720
G0   X106.3568   Y053.4114   Z000.0000   F720
G0   X105.3966   Y053.3834   Z000.0000   F720
G0   X105.3966   Y053.3834   Z003.0000   F500

;Begin Line: layer=0 line=20
G0   X105.6619   Y052.9240   Z003.0000   F2100
G0   X105.6619   Y052.9240   Z000.0000   F210
G0   X106.3859   Y052.9210   Z000.0000   F720
G0   X107.3248   Y052.8931   Z000.0000   F720
G0   X108.8818   Y052.8187   Z000.0000   F720
G0   X108.8818   Y052.8187   Z003.0000   F500

;Begin Line: layer=0 line=21
G0   X107.2495   Y051.7642   Z003.0000   F2100
G0   X107.2495   Y051.7642   Z000.0000   F210
G0   X106.2686   Y051.8730   Z000.0000   F720
G0   X106.2686   Y051.8730   Z003.0000   F500

;Begin Line: layer=0 line=22
G0   X106.5368   Y051.4086   Z003.0000   F2100
G0   X106.5368   Y051.4086   Z000.0000   F210
G0   X106.6676   Y051.3882   Z000.0000   F720
G0   X106.6676   Y051.3882   Z003.0000   F500

;Begin Line: layer=0 line=23
G0   X118.5323   Y064.8879   Z003.0000   F2100
G0   X118.5323   Y064.8879   Z000.0000   F210
G0   X119.7205   Y064.6050   Z000.0000   F720
G0   X121.4964   Y064.0455   Z000.0000   F720
G0   X122.2218   Y063.7938   Z000.0000   F720
G0   X122.2842   Y063.8674   Z000.0000   F720
G0   X120.3472   Y064.5126   Z000.0000   F720
G0   X118.6200   Y064.9728   Z000.0000   F720
G0   X118.6200   Y064.9728   Z003.0000   F500

;Begin Line: layer=0 line=24
G0   X119.1526   Y065.4882   Z003.0000   F2100
G0   X119.1526   Y065.4882   Z000.0000   F210
G0   X120.2273   Y065.2475   Z000.0000   F720
G0   X121.3623   Y064.9228   Z000.0000   F720
G0   X122.7779   Y064.4493   Z000.0000   F720
G0   X122.7779   Y064.4493   Z003.0000   F500

;Begin Line: layer=0 line=25
G0   X124.6848   Y072.1682   Z003.0000   F2100
G0   X124.6848   Y072.1682   Z000.0000   F210
G0   X125.7333   Y071.5853   Z000.0000   F720
G0   X127.5683   Y070.4112   Z000.0000   F720
G0   X127.5683   Y070.4112   Z003.0000   F500

;Begin Line: layer=0 line=26
G0   X127.9493   Y070.9617   Z003.0000   F2100
G0   X127.9493   Y070.9617   Z000.0000   F210
G0   X125.9951   Y072.1811   Z000.0000   F720
G0   X125.0532   Y072.7006   Z000.0000   F720
G0   X125.0532   Y072.7006   Z003.0000   F500

;Begin Line: layer=0 line=27
G0   X125.4538   Y073.2793   Z003.0000   F2100
G0   X125.4538   Y073.2793   Z000.0000   F210
G0   X128.3615   Y071.5611   Z000.0000   F720
G0   X128.4048   Y071.6248   Z000.0000   F720
G0   X126.1031   Y072.9845   Z000.0000   F720
G0   X125.4766   Y073.3122   Z000.0000   F720
G0   X125.4766   Y073.3122   Z003.0000   F500

;Begin Line: layer=0 line=28
G0   X126.1029   Y074.2172   Z003.0000   F2100
G0   X126.1029   Y074.2172   Z000.0000   F210
G0   X129.0591   Y072.5869   Z000.0000   F720
G0   X129.0591   Y072.5869   Z003.0000   F500

;Begin Line: layer=0 line=29
G0   X129.4105   Y073.1036   Z003.0000   F2100
G0   X129.4105   Y073.1036   Z000.0000   F210
G0   X127.0420   Y074.3815   Z000.0000   F720
G0   X126.4330   Y074.6942   Z000.0000   F720
G0   X126.4330   Y074.6942   Z003.0000   F500

;Begin Line: layer=0 line=30
G0   X127.0194   Y075.5413   Z003.0000   F2100
G0   X127.0194   Y075.5413   Z000.0000   F210
G0   X130.0096   Y073.9846   Z000.0000   F720
G0   X130.0096   Y073.9846   Z003.0000   F500

;Begin Line: layer=0 line=31
G0   X130.0727   Y074.0774   Z003.0000   F2100
G0   X130.0727   Y074.0774   Z000.0000   F210
G0   X127.0836   Y075.6341   Z000.0000   F720
G0   X127.0836   Y075.6341   Z003.0000   F500

;Begin Line: layer=0 line=32
G0   X127.1452   Y075.7231   Z003.0000   F2100
G0   X127.1452   Y075.7231   Z000.0000   F210
G0   X130.1376   Y074.1728   Z000.0000   F720
G0   X130.1376   Y074.1728   Z003.0000   F500

;Begin Line: layer=0 line=33
G0   X130.3805   Y074.5554   Z003.0000   F2100
G0   X130.3805   Y074.5554   Z000.0000   F210
G0   X130.0548   Y074.7067   Z000.0000   F720
G0   X127.3895   Y076.1129   Z000.0000   F720
G0   X127.3895   Y076.1129   Z003.0000   F500

;Begin Line: layer=0 line=34
G0   X127.5301   Y076.3657   Z003.0000   F2100
G0   X127.5301   Y076.3657   Z000.0000   F210
G0   X130.5086   Y074.7860   Z000.0000   F720
G0   X130.5086   Y074.7860   Z003.0000   F500

;Begin Line: layer=0 line=35
G0   X131.0742   Y075.8037   Z003.0000   F2100
G0   X131.0742   Y075.8037   Z000.0000   F210
G0   X130.7401   Y075.9699   Z000.0000   F720
G0   X128.6673   Y077.1511   Z000.0000   F720
G0   X128.1262   Y077.4385   Z000.0000   F720
G0   X128.1262   Y077.4385   Z003.0000   F500

;Begin Line: layer=0 line=36
G0   X128.2308   Y077.6267   Z003.0000   F2100
G0   X128.2308   Y077.6267   Z000.0000   F210
G0   X128.9482   Y077.2356   Z000.0000   F720
G0   X130.0008   Y076.6176   Z000.0000   F720
G0   X131.1701   Y075.9762   Z000.0000   F720
G0   X131.1889   Y076.0101   Z000.0000   F720
G0   X130.2764   Y076.4934   Z000.0000   F720
G0   X129.0043   Y077.2433   Z000.0000   F720
G0   X128.2481   Y077.6578   Z000.0000   F720
G0   X128.2481   Y077.6578   Z003.0000   F500

;Begin Line: layer=0 line=37
G0   X128.5909   Y078.2746   Z003.0000   F2100
G0   X128.5909   Y078.2746   Z000.0000   F210
G0   X128.9744   Y078.0767   Z000.0000   F720
G0   X131.1476   Y076.7946   Z000.0000   F720
G0   X131.1476   Y076.7946   Z003.0000   F500

;Begin Line: layer=0 line=38
G0   X132.0840   Y077.6339   Z003.0000   F2100
G0   X132.0840   Y077.6339   Z000.0000   F210
G0   X131.2136   Y078.0917   Z000.0000   F720
G0   X129.9857   Y078.7680   Z000.0000   F720
G0   X129.1040   Y079.1980   Z000.0000   F720
G0   X129.1040   Y079.1980   Z003.0000   F500

;Begin Line: layer=0 line=39
G0   X129.1893   Y079.3514   Z003.0000   F2100
G0   X129.1893   Y079.3514   Z000.0000   F210
G0   X129.6063   Y079.1741   Z000.0000   F720
G0   X131.7377   Y078.0613   Z000.0000   F720
G0   X131.7377   Y078.0613   Z003.0000   F500

;Begin Line: layer=0 line=40
G0   X132.3045   Y078.0404   Z003.0000   F2100
G0   X132.3045   Y078.0404   Z000.0000   F210
G0   X130.2429   Y079.0732   Z000.0000   F720
G0   X129.2760   Y079.5074   Z000.0000   F720
G0   X129.2760   Y079.5074   Z003.0000   F500

;Begin Line: layer=0 line=41
G0   X129.6702   Y080.2168   Z003.0000   F2100
G0   X129.6702   Y080.2168   Z000.0000   F210
G0   X130.3160   Y080.0158   Z000.0000   F720
G0   X131.0775   Y079.7503   Z000.0000   F720
G0   X132.1259   Y079.3386   Z000.0000   F720
G0   X132.8431   Y079.0329   Z000.0000   F720
G0   X132.8431   Y079.0329   Z003.0000   F500

;Begin Line: layer=0 line=42
G0   X133.5543   Y080.3601   Z003.0000   F2100
G0   X133.5543   Y080.3601   Z000.0000   F210
G0   X132.9125   Y080.5368   Z000.0000   F720
G0   X132.0488   Y080.7467   Z000.0000   F720
G0   X130.1752   Y081.1255   Z000.0000   F720
G0   X130.1752   Y081.1255   Z003.0000   F500

;Begin Line: layer=0 line=43
G0   X130.2590   Y081.2762   Z003.0000   F2100
G0   X130.2590   Y081.2762   Z000.0000   F210
G0   X131.6296   Y081.0317   Z000.0000   F720
G0   X132.6904   Y080.8087   Z000.0000   F720
G0   X133.6482   Y080.5766   Z000.0000   F720
G0   X133.6482   Y080.5766   Z003.0000   F500

;Begin Line: layer=0 line=44
G0   X133.8337   Y081.0046   Z003.0000   F2100
G0   X133.8337   Y081.0046   Z000.0000   F210
G0   X133.4609   Y081.0879   Z000.0000   F720
G0   X132.3330   Y081.2922   Z000.0000   F720
G0   X130.4095   Y081.5809   Z000.0000   F720
G0   X130.4095   Y081.5809   Z003.0000   F500

;Begin Line: layer=0 line=45
G0   X130.6326   Y082.0956   Z003.0000   F2100
G0   X130.6326   Y082.0956   Z000.0000   F210
G0   X133.1688   Y081.8516   Z000.0000   F720
G0   X134.1446   Y081.7216   Z000.0000   F720
G0   X134.1446   Y081.7216   Z003.0000   F500

;Begin Line: layer=0 line=46
G0   X134.4649   Y082.4606   Z003.0000   F2100
G0   X134.4649   Y082.4606   Z000.0000   F210
G0   X133.6110   Y082.5259   Z000.0000   F720
G0   X132.0595   Y082.5706   Z000.0000   F720
G0   X130.8634   Y082.6280   Z000.0000   F720
G0   X130.8634   Y082.6280   Z003.0000   F500

;Begin Line: layer=0 line=47
G0   X130.9814   Y082.9002   Z003.0000   F2100
G0   X130.9814   Y082.9002   Z000.0000   F210
G0   X131.7469   Y082.8788   Z000.0000   F720
G0   X134.0851   Y082.8747   Z000.0000   F720
G0   X134.6323   Y082.8467   Z000.0000   F720
G0   X134.6323   Y082.8467   Z003.0000   F500

;Begin Line: layer=0 line=48
G0   X134.9291   Y083.5455   Z003.0000   F2100
G0   X134.9291   Y083.5455   Z000.0000   F210
G0   X133.6689   Y083.5139   Z000.0000   F720
G0   X131.7777   Y083.4083   Z000.0000   F720
G0   X131.2003   Y083.4051   Z000.0000   F720
G0   X131.2003   Y083.4051   Z003.0000   F500

;Begin Line: layer=0 line=49
G0   X131.4575   Y083.9983   Z003.0000   F2100
G0   X131.4575   Y083.9983   Z000.0000   F210
G0   X132.4307   Y084.0624   Z000.0000   F720
G0   X133.3124   Y084.1555   Z000.0000   F720
G0   X134.5797   Y084.2596   Z000.0000   F720
G0   X135.2410   Y084.2890   Z000.0000   F720
G0   X135.2410   Y084.2890   Z003.0000   F500

;Begin Line: layer=0 line=50
G0   X135.4926   Y084.8888   Z003.0000   F2100
G0   X135.4926   Y084.8888   Z000.0000   F210
G0   X134.8477   Y084.8513   Z000.0000   F720
G0   X133.3972   Y084.7097   Z000.0000   F720
G0   X132.3091   Y084.5662   Z000.0000   F720
G0   X131.6771   Y084.5049   Z000.0000   F720
G0   X131.6771   Y084.5049   Z003.0000   F500

;Begin Line: layer=0 line=51
G0   X131.7184   Y084.6002   Z003.0000   F2100
G0   X131.7184   Y084.6002   Z000.0000   F210
G0   X134.0401   Y084.8875   Z000.0000   F720
G0   X135.5428   Y085.0084   Z000.0000   F720
G0   X135.5428   Y085.0084   Z003.0000   F500

;Begin Line: layer=0 line=52
G0   X135.9505   Y085.9803   Z003.0000   F2100
G0   X135.9505   Y085.9803   Z000.0000   F210
G0   X134.9239   Y085.8887   Z000.0000   F720
G0   X133.8741   Y085.7726   Z000.0000   F720
G0   X132.1182   Y085.5224   Z000.0000   F720
G0   X132.1182   Y085.5224   Z003.0000   F500

;Begin Line: layer=0 line=53
G0   X132.3383   Y086.0300   Z003.0000   F2100
G0   X132.3383   Y086.0300   Z000.0000   F210
G0   X134.1364   Y086.2651   Z000.0000   F720
G0   X136.1493   Y086.4625   Z000.0000   F720
G0   X136.1493   Y086.4625   Z003.0000   F500

;Begin Line: layer=0 line=54
