;Generated with vpype gwrite fabian
G90 ; Use absolute position
G92 X0 Y0 Z0 ; Set the current position as (0,0,0)
G0   X000.0000   Y000.0000   Z003.0000   F500

;Begin Line: layer=0 line=0
G0   X017.5298   Y151.3751   Z003.0000   F2100
G0   X017.5298   Y151.3751   Z000.0000   F210
G0   X018.6125   Y150.7593   Z000.0000   F720
G0   X019.1136   Y150.5332   Z000.0000   F720
G0   X019.6284   Y150.3482   Z000.0000   F720
G0   X020.2557   Y150.2088   Z000.0000   F720
G0   X020.7343   Y150.1511   Z000.0000   F720
G0   X021.1366   Y150.1480   Z000.0000   F720
G0   X021.5072   Y150.1865   Z000.0000   F720
G0   X021.7373   Y150.2391   Z000.0000   F720
G0   X022.0389   Y150.3358   Z000.0000   F720
G0   X022.3253   Y150.4677   Z000.0000   F720
G0   X022.6518   Y150.6869   Z000.0000   F720
G0   X022.8406   Y150.8445   Z000.0000   F720
G0   X023.0052   Y151.0043   Z000.0000   F720
G0   X023.3298   Y151.3751   Z000.0000   F720
G0   X023.3298   Y151.3751   Z003.0000   F500

;Begin Line: layer=0 line=1
G0   X023.1041   Y149.3127   Z003.0000   F2100
G0   X023.1041   Y149.3127   Z000.0000   F210
G0   X023.5046   Y149.5521   Z000.0000   F720
G0   X023.7709   Y149.7907   Z000.0000   F720
G0   X023.9127   Y149.9488   Z000.0000   F720
G0   X024.1926   Y150.3392   Z000.0000   F720
G0   X024.3284   Y150.5722   Z000.0000   F720
G0   X024.7120   Y151.3751   Z000.0000   F720
G0   X024.7120   Y151.3751   Z003.0000   F500

;Begin Line: layer=0 line=2
G0   X024.4513   Y151.3751   Z003.0000   F2100
G0   X024.4513   Y151.3751   Z000.0000   F210
G0   X024.2132   Y150.9058   Z000.0000   F720
G0   X023.9694   Y150.4949   Z000.0000   F720
G0   X023.7028   Y150.1380   Z000.0000   F720
G0   X023.3820   Y149.8239   Z000.0000   F720
G0   X023.1608   Y149.6673   Z000.0000   F720
G0   X022.9487   Y149.5485   Z000.0000   F720
G0   X022.7872   Y149.4732   Z000.0000   F720
G0   X022.5267   Y149.3840   Z000.0000   F720
G0   X022.2188   Y149.3144   Z000.0000   F720
G0   X021.9703   Y149.2775   Z000.0000   F720
G0   X021.6431   Y149.2574   Z000.0000   F720
G0   X021.1714   Y149.2763   Z000.0000   F720
G0   X020.8126   Y149.3111   Z000.0000   F720
G0   X020.0074   Y149.4484   Z000.0000   F720
G0   X019.3158   Y149.6241   Z000.0000   F720
G0   X018.6753   Y149.8600   Z000.0000   F720
G0   X018.2442   Y150.0471   Z000.0000   F720
G0   X017.3232   Y150.5615   Z000.0000   F720
G0   X016.5972   Y151.0265   Z000.0000   F720
G0   X016.1231   Y151.3751   Z000.0000   F720
G0   X016.1231   Y151.3751   Z003.0000   F500

;Begin Line: layer=0 line=3
G0   X010.3173   Y149.8984   Z003.0000   F2100
G0   X010.3173   Y149.8984   Z000.0000   F210
G0   X011.3779   Y148.9789   Z000.0000   F720
G0   X012.8406   Y147.8374   Z000.0000   F720
G0   X014.5628   Y146.7099   Z000.0000   F720
G0   X016.1202   Y145.9217   Z000.0000   F720
G0   X017.3732   Y145.4738   Z000.0000   F720
G0   X018.5301   Y145.1967   Z000.0000   F720
G0   X019.6281   Y145.0352   Z000.0000   F720
G0   X020.8815   Y144.9047   Z000.0000   F720
G0   X021.3883   Y144.8697   Z000.0000   F720
G0   X022.0838   Y144.8520   Z000.0000   F720
G0   X022.4988   Y144.8872   Z000.0000   F720
G0   X023.0251   Y144.9866   Z000.0000   F720
G0   X023.4594   Y145.1450   Z000.0000   F720
G0   X023.8744   Y145.3706   Z000.0000   F720
G0   X024.1882   Y145.6015   Z000.0000   F720
G0   X024.4766   Y145.8570   Z000.0000   F720
G0   X024.7277   Y146.1136   Z000.0000   F720
G0   X025.0715   Y146.5036   Z000.0000   F720
G0   X025.3427   Y146.8533   Z000.0000   F720
G0   X025.5563   Y147.1634   Z000.0000   F720
G0   X025.8392   Y147.6622   Z000.0000   F720
G0   X025.9795   Y147.9699   Z000.0000   F720
G0   X026.1030   Y148.3074   Z000.0000   F720
G0   X026.2592   Y148.8812   Z000.0000   F720
G0   X026.5602   Y150.2767   Z000.0000   F720
G0   X026.8378   Y151.3751   Z000.0000   F720
G0   X026.7684   Y151.3751   Z000.0000   F720
G0   X026.5950   Y150.7317   Z000.0000   F720
G0   X026.2114   Y149.0936   Z000.0000   F720
G0   X026.0654   Y148.5595   Z000.0000   F720
G0   X025.9872   Y148.3239   Z000.0000   F720
G0   X025.8188   Y147.9121   Z000.0000   F720
G0   X025.5641   Y147.4566   Z000.0000   F720
G0   X025.4012   Y147.2186   Z000.0000   F720
G0   X025.0342   Y146.7590   Z000.0000   F720
G0   X024.7482   Y146.4546   Z000.0000   F720
G0   X024.4918   Y146.2099   Z000.0000   F720
G0   X024.0705   Y145.8856   Z000.0000   F720
G0   X023.7366   Y145.6767   Z000.0000   F720
G0   X023.4166   Y145.5191   Z000.0000   F720
G0   X023.1181   Y145.4064   Z000.0000   F720
G0   X023.1181   Y145.4064   Z003.0000   F500

;Begin Line: layer=0 line=4
G0   X020.5084   Y138.7902   Z003.0000   F2100
G0   X020.5084   Y138.7902   Z000.0000   F210
G0   X021.4853   Y138.8958   Z000.0000   F720
G0   X022.3363   Y139.0297   Z000.0000   F720
G0   X023.1782   Y139.2136   Z000.0000   F720
G0   X024.3535   Y139.5629   Z000.0000   F720
G0   X024.9823   Y139.8210   Z000.0000   F720
G0   X025.9739   Y140.2920   Z000.0000   F720
G0   X026.4928   Y140.6106   Z000.0000   F720
G0   X027.1828   Y141.1062   Z000.0000   F720
G0   X027.9297   Y141.7972   Z000.0000   F720
G0   X028.4209   Y142.4754   Z000.0000   F720
G0   X028.6688   Y143.0444   Z000.0000   F720
G0   X028.8323   Y143.7442   Z000.0000   F720
G0   X028.8689   Y144.4948   Z000.0000   F720
G0   X028.8374   Y144.9912   Z000.0000   F720
G0   X028.7570   Y145.7544   Z000.0000   F720
G0   X028.5263   Y147.3834   Z000.0000   F720
G0   X028.1903   Y149.5121   Z000.0000   F720
G0   X028.1601   Y149.8451   Z000.0000   F720
G0   X028.1428   Y150.3682   Z000.0000   F720
G0   X028.1483   Y150.6828   Z000.0000   F720
G0   X028.1945   Y151.3751   Z000.0000   F720
G0   X028.1945   Y151.3751   Z003.0000   F500

;Begin Line: layer=0 line=5
G0   X008.4468   Y141.9757   Z003.0000   F2100
G0   X008.4468   Y141.9757   Z000.0000   F210
G0   X009.6561   Y141.5114   Z000.0000   F720
G0   X010.7802   Y141.1443   Z000.0000   F720
G0   X014.4072   Y140.1071   Z000.0000   F720
G0   X015.8354   Y139.7178   Z000.0000   F720
G0   X017.4933   Y139.4123   Z000.0000   F720
G0   X018.5008   Y139.3460   Z000.0000   F720
G0   X019.8810   Y139.3408   Z000.0000   F720
G0   X020.8368   Y139.4107   Z000.0000   F720
G0   X021.5271   Y139.4976   Z000.0000   F720
G0   X022.5096   Y139.6613   Z000.0000   F720
G0   X023.1404   Y139.8149   Z000.0000   F720
G0   X024.0044   Y140.0763   Z000.0000   F720
G0   X024.7138   Y140.3509   Z000.0000   F720
G0   X025.7275   Y140.8225   Z000.0000   F720
G0   X026.4186   Y141.2538   Z000.0000   F720
G0   X026.8531   Y141.6041   Z000.0000   F720
G0   X027.2965   Y142.0437   Z000.0000   F720
G0   X027.6085   Y142.4518   Z000.0000   F720
G0   X027.9760   Y143.0940   Z000.0000   F720
G0   X028.1210   Y143.5520   Z000.0000   F720
G0   X028.2244   Y144.1352   Z000.0000   F720
G0   X028.2601   Y144.8095   Z000.0000   F720
G0   X028.2441   Y145.4359   Z000.0000   F720
G0   X028.1560   Y146.6881   Z000.0000   F720
G0   X028.0643   Y147.7438   Z000.0000   F720
G0   X027.8912   Y149.3594   Z000.0000   F720
G0   X027.8735   Y149.6868   Z000.0000   F720
G0   X027.8680   Y150.0204   Z000.0000   F720
G0   X027.8890   Y150.5191   Z000.0000   F720
G0   X027.9819   Y151.3751   Z000.0000   F720
G0   X027.9153   Y151.3751   Z000.0000   F720
G0   X027.8141   Y150.5718   Z000.0000   F720
G0   X027.7818   Y149.9385   Z000.0000   F720
G0   X027.8218   Y149.0575   Z000.0000   F720
G0   X027.9664   Y147.4627   Z000.0000   F720
G0   X028.0770   Y145.5061   Z000.0000   F720
G0   X028.0837   Y144.9533   Z000.0000   F720
G0   X028.0414   Y144.2673   Z000.0000   F720
G0   X027.9587   Y143.7471   Z000.0000   F720
G0   X027.7763   Y143.1827   Z000.0000   F720
G0   X027.5508   Y142.7270   Z000.0000   F720
G0   X027.1372   Y142.1767   Z000.0000   F720
G0   X026.4542   Y141.5695   Z000.0000   F720
G0   X026.0140   Y141.2483   Z000.0000   F720
G0   X025.5332   Y140.9556   Z000.0000   F720
G0   X024.8903   Y140.6357   Z000.0000   F720
G0   X024.0879   Y140.3146   Z000.0000   F720
G0   X023.0061   Y139.9978   Z000.0000   F720
G0   X021.9843   Y139.7916   Z000.0000   F720
G0   X020.9950   Y139.6573   Z000.0000   F720
G0   X020.2625   Y139.5894   Z000.0000   F720
G0   X019.0341   Y139.5598   Z000.0000   F720
G0   X017.5088   Y139.6631   Z000.0000   F720
G0   X016.1409   Y139.8972   Z000.0000   F720
G0   X015.2752   Y140.1027   Z000.0000   F720
G0   X010.8354   Y141.4537   Z000.0000   F720
G0   X009.7235   Y141.8422   Z000.0000   F720
G0   X008.6017   Y142.2918   Z000.0000   F720
G0   X007.1500   Y142.9358   Z000.0000   F720
G0   X007.1500   Y142.9358   Z003.0000   F500

;Begin Line: layer=0 line=6
G0   X028.0778   Y151.3751   Z003.0000   F2100
G0   X028.0778   Y151.3751   Z000.0000   F210
G0   X028.0144   Y150.7385   Z000.0000   F720
G0   X027.9970   Y150.3817   Z000.0000   F720
G0   X028.0136   Y149.6418   Z000.0000   F720
G0   X028.0681   Y149.1132   Z000.0000   F720
G0   X028.2833   Y147.5000   Z000.0000   F720
G0   X028.4467   Y146.0393   Z000.0000   F720
G0   X028.5159   Y145.2700   Z000.0000   F720
G0   X028.5455   Y144.6307   Z000.0000   F720
G0   X028.5463   Y144.2298   Z000.0000   F720
G0   X028.5075   Y143.7530   Z000.0000   F720
G0   X028.4062   Y143.2657   Z000.0000   F720
G0   X028.4062   Y143.2657   Z003.0000   F500

;Begin Line: layer=0 line=7
G0   X027.0733   Y143.4857   Z003.0000   F2100
G0   X027.0733   Y143.4857   Z000.0000   F210
G0   X027.2492   Y143.9690   Z000.0000   F720
G0   X027.3447   Y144.3780   Z000.0000   F720
G0   X027.4263   Y144.8858   Z000.0000   F720
G0   X027.4856   Y145.4901   Z000.0000   F720
G0   X027.5213   Y146.1739   Z000.0000   F720
G0   X027.5406   Y147.4857   Z000.0000   F720
G0   X027.4885   Y149.2223   Z000.0000   F720
G0   X027.4887   Y149.7006   Z000.0000   F720
G0   X027.5421   Y150.4430   Z000.0000   F720
G0   X027.6932   Y151.3751   Z000.0000   F720
G0   X027.7562   Y151.3751   Z000.0000   F720
G0   X027.6749   Y150.8964   Z000.0000   F720
G0   X027.5983   Y150.2745   Z000.0000   F720
G0   X027.5684   Y149.5567   Z000.0000   F720
G0   X027.6498   Y147.6005   Z000.0000   F720
G0   X027.6616   Y146.6370   Z000.0000   F720
G0   X027.6457   Y145.5063   Z000.0000   F720
G0   X027.6031   Y144.8828   Z000.0000   F720
G0   X027.5269   Y144.3225   Z000.0000   F720
G0   X027.4319   Y143.8845   Z000.0000   F720
G0   X027.2588   Y143.3949   Z000.0000   F720
G0   X026.9580   Y142.8589   Z000.0000   F720
G0   X026.4507   Y142.2750   Z000.0000   F720
G0   X025.8794   Y141.8028   Z000.0000   F720
G0   X025.0886   Y141.3387   Z000.0000   F720
G0   X024.5750   Y141.0886   Z000.0000   F720
G0   X023.7812   Y140.7872   Z000.0000   F720
G0   X023.1931   Y140.6009   Z000.0000   F720
G0   X022.5437   Y140.4362   Z000.0000   F720
G0   X021.8188   Y140.2978   Z000.0000   F720
G0   X021.1668   Y140.2032   Z000.0000   F720
G0   X020.3828   Y140.1289   Z000.0000   F720
G0   X019.4217   Y140.0923   Z000.0000   F720
G0   X018.1357   Y140.1388   Z000.0000   F720
G0   X016.9617   Y140.2782   Z000.0000   F720
G0   X015.9167   Y140.4975   Z000.0000   F720
G0   X014.6471   Y140.8760   Z000.0000   F720
G0   X012.0038   Y141.7423   Z000.0000   F720
G0   X010.5565   Y142.2810   Z000.0000   F720
G0   X008.6468   Y143.1512   Z000.0000   F720
G0   X007.5301   Y143.6989   Z000.0000   F720
G0   X007.1500   Y143.9048   Z000.0000   F720
G0   X007.1500   Y143.9048   Z003.0000   F500

;Begin Line: layer=0 line=8
G0   X007.1500   Y145.3232   Z003.0000   F2100
G0   X007.1500   Y145.3232   Z000.0000   F210
G0   X008.7301   Y144.3758   Z000.0000   F720
G0   X009.7855   Y143.8020   Z000.0000   F720
G0   X011.0418   Y143.1755   Z000.0000   F720
G0   X012.2395   Y142.6507   Z000.0000   F720
G0   X013.5329   Y142.1635   Z000.0000   F720
G0   X014.5997   Y141.8023   Z000.0000   F720
G0   X015.7108   Y141.4566   Z000.0000   F720
G0   X017.1939   Y141.0896   Z000.0000   F720
G0   X018.2358   Y140.9618   Z000.0000   F720
G0   X019.5459   Y140.8946   Z000.0000   F720
G0   X020.5884   Y140.9204   Z000.0000   F720
G0   X021.2634   Y140.9808   Z000.0000   F720
G0   X022.2739   Y141.1183   Z000.0000   F720
G0   X022.9564   Y141.2693   Z000.0000   F720
G0   X023.8941   Y141.5474   Z000.0000   F720
G0   X024.6728   Y141.8832   Z000.0000   F720
G0   X025.3291   Y142.2767   Z000.0000   F720
G0   X025.9798   Y142.8198   Z000.0000   F720
G0   X026.4973   Y143.4774   Z000.0000   F720
G0   X026.7084   Y143.9214   Z000.0000   F720
G0   X026.9313   Y144.5762   Z000.0000   F720
G0   X027.0353   Y145.0610   Z000.0000   F720
G0   X027.1285   Y145.6543   Z000.0000   F720
G0   X027.2221   Y146.5841   Z000.0000   F720
G0   X027.2825   Y147.5138   Z000.0000   F720
G0   X027.2969   Y147.9424   Z000.0000   F720
G0   X027.2982   Y149.0420   Z000.0000   F720
G0   X027.3217   Y149.7605   Z000.0000   F720
G0   X027.3964   Y150.4765   Z000.0000   F720
G0   X027.5640   Y151.3751   Z000.0000   F720
G0   X027.5640   Y151.3751   Z003.0000   F500

;Begin Line: layer=0 line=9
G0   X026.9237   Y151.3751   Z003.0000   F2100
G0   X026.9237   Y151.3751   Z000.0000   F210
G0   X026.6566   Y150.3043   Z000.0000   F720
G0   X026.3530   Y148.7743   Z000.0000   F720
G0   X026.1769   Y148.0912   Z000.0000   F720
G0   X025.9614   Y147.5257   Z000.0000   F720
G0   X025.7728   Y147.1503   Z000.0000   F720
G0   X025.5844   Y146.8214   Z000.0000   F720
G0   X025.3487   Y146.4541   Z000.0000   F720
G0   X025.0594   Y146.0482   Z000.0000   F720
G0   X024.7810   Y145.6950   Z000.0000   F720
G0   X024.5021   Y145.3823   Z000.0000   F720
G0   X024.0478   Y144.9886   Z000.0000   F720
G0   X023.5601   Y144.6910   Z000.0000   F720
G0   X023.0434   Y144.4932   Z000.0000   F720
G0   X022.3543   Y144.3838   Z000.0000   F720
G0   X021.6239   Y144.3726   Z000.0000   F720
G0   X020.6684   Y144.4208   Z000.0000   F720
G0   X019.6271   Y144.5214   Z000.0000   F720
G0   X018.5074   Y144.6708   Z000.0000   F720
G0   X017.0875   Y145.0186   Z000.0000   F720
G0   X015.9227   Y145.4217   Z000.0000   F720
G0   X014.6932   Y145.9793   Z000.0000   F720
G0   X013.2410   Y146.8175   Z000.0000   F720
G0   X011.3165   Y148.2330   Z000.0000   F720
G0   X010.2432   Y149.1176   Z000.0000   F720
G0   X009.0409   Y150.2249   Z000.0000   F720
G0   X009.0409   Y150.2249   Z003.0000   F500

;Begin Line: layer=0 line=10
G0   X007.1500   Y150.3405   Z003.0000   F2100
G0   X007.1500   Y150.3405   Z000.0000   F210
G0   X008.2149   Y149.3366   Z000.0000   F720
G0   X010.2470   Y147.5488   Z000.0000   F720
G0   X011.4177   Y146.7047   Z000.0000   F720
G0   X013.1542   Y145.5901   Z000.0000   F720
G0   X014.9317   Y144.6900   Z000.0000   F720
G0   X016.4310   Y144.1468   Z000.0000   F720
G0   X017.5901   Y143.8595   Z000.0000   F720
G0   X018.9138   Y143.6483   Z000.0000   F720
G0   X019.9376   Y143.5645   Z000.0000   F720
G0   X021.2982   Y143.5039   Z000.0000   F720
G0   X022.1261   Y143.5133   Z000.0000   F720
G0   X022.7519   Y143.5909   Z000.0000   F720
G0   X023.2477   Y143.7270   Z000.0000   F720
G0   X023.6208   Y143.8920   Z000.0000   F720
G0   X024.0100   Y144.1275   Z000.0000   F720
G0   X024.4676   Y144.5011   Z000.0000   F720
G0   X024.8820   Y144.9649   Z000.0000   F720
G0   X025.2328   Y145.4659   Z000.0000   F720
G0   X025.4260   Y145.7916   Z000.0000   F720
G0   X025.7918   Y146.4841   Z000.0000   F720
G0   X026.0063   Y146.9431   Z000.0000   F720
G0   X026.2884   Y147.6947   Z000.0000   F720
G0   X026.4381   Y148.2861   Z000.0000   F720
G0   X026.7126   Y149.9098   Z000.0000   F720
G0   X026.8149   Y150.4291   Z000.0000   F720
G0   X027.0438   Y151.3751   Z000.0000   F720
G0   X027.0438   Y151.3751   Z003.0000   F500

;Begin Line: layer=0 line=11
G0   X027.2676   Y151.3751   Z003.0000   F2100
G0   X027.2676   Y151.3751   Z000.0000   F210
G0   X027.0683   Y150.4869   Z000.0000   F720
G0   X026.9722   Y149.9078   Z000.0000   F720
G0   X026.9134   Y149.4371   Z000.0000   F720
G0   X026.8066   Y148.2977   Z000.0000   F720
G0   X026.7449   Y147.8356   Z000.0000   F720
G0   X026.6584   Y147.3656   Z000.0000   F720
