;Generated with vpype gwrite fabian
G90 ; Use absolute position
G92 X0 Y0 Z0 ; Set the current position as (0,0,0)
G0   X000.0000   Y000.0000   Z003.0000   F500

;Begin Line: layer=0 line=0
G0   X007.1500   Y012.6547   Z003.0000   F2100
G0   X007.1500   Y012.6547   Z000.0000   F210
G0   X009.9538   Y014.0413   Z000.0000   F720
G0   X010.7661   Y014.4133   Z000.0000   F720
G0   X011.2174   Y014.5640   Z000.0000   F720
G0   X011.8783   Y014.7275   Z000.0000   F720
G0   X011.8783   Y014.7275   Z000.0000   F720
G0   X012.1319   Y014.7681   Z000.0000   F720
G0   X012.1319   Y014.7681   Z000.0000   F720
G0   X011.8783   Y014.7275   Z000.0000   F720
G0   X011.8783   Y014.7275   Z000.0000   F720
G0   X011.6889   Y014.6972   Z000.0000   F720
G0   X011.2447   Y014.5901   Z000.0000   F720
G0   X010.6352   Y014.3724   Z000.0000   F720
G0   X009.3577   Y013.7652   Z000.0000   F720
G0   X009.3577   Y013.7652   Z003.0000   F500

;Begin Line: layer=0 line=1
G0   X009.3514   Y014.2565   Z003.0000   F2100
G0   X009.3514   Y014.2565   Z000.0000   F210
G0   X009.9688   Y014.5368   Z000.0000   F720
G0   X010.8140   Y014.8846   Z000.0000   F720
G0   X011.5284   Y015.0892   Z000.0000   F720
G0   X012.3295   Y015.2223   Z000.0000   F720
G0   X012.9865   Y015.2592   Z000.0000   F720
G0   X013.5497   Y015.2538   Z000.0000   F720
G0   X014.1112   Y015.2260   Z000.0000   F720
G0   X016.5646   Y015.0396   Z000.0000   F720
G0   X017.5382   Y015.0111   Z000.0000   F720
G0   X019.5478   Y015.0381   Z000.0000   F720
G0   X020.4881   Y014.9974   Z000.0000   F720
G0   X021.4700   Y014.8631   Z000.0000   F720
G0   X022.2844   Y014.7124   Z000.0000   F720
G0   X024.1006   Y014.3000   Z000.0000   F720
G0   X025.0559   Y014.0506   Z000.0000   F720
G0   X025.4051   Y013.9315   Z000.0000   F720
G0   X025.8720   Y013.7116   Z000.0000   F720
G0   X026.1656   Y013.5228   Z000.0000   F720
G0   X026.3082   Y013.3951   Z000.0000   F720
G0   X026.3082   Y013.3951   Z003.0000   F500

;Begin Line: layer=0 line=2
G0   X024.5246   Y013.1431   Z003.0000   F2100
G0   X024.5246   Y013.1431   Z000.0000   F210
G0   X023.2932   Y013.1971   Z000.0000   F720
G0   X021.7689   Y013.2282   Z000.0000   F720
G0   X021.0667   Y013.1953   Z000.0000   F720
G0   X020.6007   Y013.1501   Z000.0000   F720
G0   X019.8806   Y013.0133   Z000.0000   F720
G0   X019.4472   Y012.9074   Z000.0000   F720
G0   X018.6047   Y012.6294   Z000.0000   F720
G0   X016.4711   Y011.8345   Z000.0000   F720
G0   X015.8593   Y011.5848   Z000.0000   F720
G0   X015.1609   Y011.2369   Z000.0000   F720
G0   X014.7732   Y011.0140   Z000.0000   F720
G0   X014.2091   Y010.6147   Z000.0000   F720
G0   X012.6783   Y009.3750   Z000.0000   F720
G0   X012.6783   Y009.3750   Z003.0000   F500

;Begin Line: layer=0 line=3
G0   X012.7716   Y009.5414   Z003.0000   F2100
G0   X012.7716   Y009.5414   Z000.0000   F210
G0   X012.5588   Y009.3750   Z000.0000   F720
G0   X012.5588   Y009.3750   Z003.0000   F500

;Begin Line: layer=0 line=4
G0   X012.3793   Y009.6037   Z003.0000   F2100
G0   X012.3793   Y009.6037   Z000.0000   F210
G0   X012.0512   Y009.3750   Z000.0000   F720
G0   X012.0117   Y009.3750   Z000.0000   F720
G0   X013.7324   Y010.6309   Z000.0000   F720
G0   X014.2453   Y010.9804   Z000.0000   F720
G0   X014.6294   Y011.2040   Z000.0000   F720
G0   X015.0941   Y011.4394   Z000.0000   F720
G0   X016.0577   Y011.8308   Z000.0000   F720
G0   X016.0577   Y011.8308   Z003.0000   F500

;Begin Line: layer=0 line=5
G0   X014.8684   Y010.9685   Z003.0000   F2100
G0   X014.8684   Y010.9685   Z000.0000   F210
G0   X014.4420   Y010.6726   Z000.0000   F720
G0   X014.0146   Y010.3369   Z000.0000   F720
G0   X012.8767   Y009.3750   Z000.0000   F720
G0   X012.8767   Y009.3750   Z003.0000   F500

;Begin Line: layer=0 line=6
G0   X013.6795   Y009.3750   Z003.0000   F2100
G0   X013.6795   Y009.3750   Z000.0000   F210
G0   X014.5301   Y010.1946   Z000.0000   F720
G0   X014.8941   Y010.5018   Z000.0000   F720
G0   X015.4123   Y010.8891   Z000.0000   F720
G0   X015.8705   Y011.1669   Z000.0000   F720
G0   X016.3017   Y011.3897   Z000.0000   F720
G0   X016.8712   Y011.6540   Z000.0000   F720
G0   X017.6867   Y012.0028   Z000.0000   F720
G0   X018.4544   Y012.3131   Z000.0000   F720
G0   X019.1044   Y012.5528   Z000.0000   F720
G0   X019.7779   Y012.7621   Z000.0000   F720
G0   X020.3117   Y012.8844   Z000.0000   F720
G0   X020.7176   Y012.9488   Z000.0000   F720
G0   X021.3165   Y013.0139   Z000.0000   F720
G0   X021.3165   Y013.0139   Z003.0000   F500

;Begin Line: layer=0 line=7
G0   X020.5170   Y013.6452   Z003.0000   F2100
G0   X020.5170   Y013.6452   Z000.0000   F210
G0   X021.1004   Y013.6715   Z000.0000   F720
G0   X021.7159   Y013.6620   Z000.0000   F720
G0   X022.3817   Y013.6240   Z000.0000   F720
G0   X024.3673   Y013.4575   Z000.0000   F720
G0   X025.1080   Y013.3539   Z000.0000   F720
G0   X025.4595   Y013.2724   Z000.0000   F720
G0   X025.7887   Y013.1596   Z000.0000   F720
G0   X025.9693   Y013.0675   Z000.0000   F720
G0   X026.2094   Y012.9136   Z000.0000   F720
G0   X026.4417   Y012.6880   Z000.0000   F720
G0   X026.6507   Y012.3969   Z000.0000   F720
G0   X026.7497   Y012.2139   Z000.0000   F720
G0   X026.8619   Y011.9396   Z000.0000   F720
G0   X026.9881   Y011.4928   Z000.0000   F720
G0   X027.0761   Y011.0000   Z000.0000   F720
G0   X027.1288   Y010.4442   Z000.0000   F720
G0   X027.1458   Y009.7789   Z000.0000   F720
G0   X027.1458   Y009.7789   Z003.0000   F500

;Begin Line: layer=0 line=8
G0   X026.3649   Y009.3750   Z003.0000   F2100
G0   X026.3649   Y009.3750   Z000.0000   F210
G0   X026.9059   Y009.5682   Z000.0000   F720
G0   X027.0519   Y009.5967   Z000.0000   F720
G0   X027.1476   Y009.5825   Z000.0000   F720
G0   X027.1476   Y009.5825   Z003.0000   F500

;Begin Line: layer=0 line=9
G0   X027.2330   Y009.4182   Z003.0000   F2100
G0   X027.2330   Y009.4182   Z000.0000   F210
G0   X027.1868   Y009.6132   Z000.0000   F720
G0   X027.2052   Y009.6864   Z000.0000   F720
G0   X027.2516   Y009.7657   Z000.0000   F720
G0   X027.3629   Y009.8966   Z000.0000   F720
G0   X027.9219   Y010.4649   Z000.0000   F720
G0   X028.1717   Y010.7501   Z000.0000   F720
G0   X028.3947   Y011.0361   Z000.0000   F720
G0   X028.6862   Y011.4668   Z000.0000   F720
G0   X029.0619   Y012.1464   Z000.0000   F720
G0   X029.2401   Y012.5332   Z000.0000   F720
G0   X029.4256   Y013.0112   Z000.0000   F720
G0   X029.4256   Y013.0112   Z003.0000   F500

;Begin Line: layer=0 line=10
G0   X028.5775   Y013.5273   Z003.0000   F2100
G0   X028.5775   Y013.5273   Z000.0000   F210
G0   X028.6651   Y014.1531   Z000.0000   F720
G0   X028.6822   Y014.5682   Z000.0000   F720
G0   X028.6651   Y014.9833   Z000.0000   F720
G0   X028.6311   Y015.3003   Z000.0000   F720
G0   X028.5754   Y015.6166   Z000.0000   F720
G0   X028.5754   Y015.6166   Z003.0000   F500

;Begin Line: layer=0 line=11
G0   X028.8322   Y015.1818   Z003.0000   F2100
G0   X028.8322   Y015.1818   Z000.0000   F210
G0   X028.8594   Y014.7218   Z000.0000   F720
G0   X028.8429   Y014.2340   Z000.0000   F720
G0   X028.7942   Y013.8419   Z000.0000   F720
G0   X028.7049   Y013.3694   Z000.0000   F720
G0   X028.5956   Y012.9459   Z000.0000   F720
G0   X028.4121   Y012.3878   Z000.0000   F720
G0   X028.2870   Y012.0580   Z000.0000   F720
G0   X028.0720   Y011.5635   Z000.0000   F720
G0   X027.8356   Y011.0921   Z000.0000   F720
G0   X027.3232   Y010.1771   Z000.0000   F720
G0   X027.3232   Y010.1771   Z003.0000   F500

;Begin Line: layer=0 line=12
G0   X026.7392   Y010.4345   Z003.0000   F2100
G0   X026.7392   Y010.4345   Z000.0000   F210
G0   X026.5840   Y010.5117   Z000.0000   F720
G0   X026.4311   Y010.5628   Z000.0000   F720
G0   X026.2731   Y010.5992   Z000.0000   F720
G0   X026.0114   Y010.6301   Z000.0000   F720
G0   X025.5970   Y010.6325   Z000.0000   F720
G0   X025.1976   Y010.5937   Z000.0000   F720
G0   X024.9338   Y010.5499   Z000.0000   F720
G0   X024.0838   Y010.3579   Z000.0000   F720
G0   X022.5196   Y009.9286   Z000.0000   F720
G0   X021.8274   Y009.7086   Z000.0000   F720
G0   X021.3713   Y009.5404   Z000.0000   F720
G0   X020.9784   Y009.3750   Z000.0000   F720
G0   X020.9784   Y009.3750   Z003.0000   F500

;Begin Line: layer=0 line=13
G0   X018.7263   Y009.3750   Z003.0000   F2100
G0   X018.7263   Y009.3750   Z000.0000   F210
G0   X019.0966   Y009.6335   Z000.0000   F720
G0   X019.6311   Y009.9519   Z000.0000   F720
G0   X020.3571   Y010.3252   Z000.0000   F720
G0   X020.7425   Y010.4799   Z000.0000   F720
G0   X021.1400   Y010.6175   Z000.0000   F720
G0   X021.7252   Y010.7907   Z000.0000   F720
G0   X023.0126   Y011.0723   Z000.0000   F720
G0   X023.7915   Y011.2127   Z000.0000   F720
G0   X024.5969   Y011.3334   Z000.0000   F720
G0   X025.0652   Y011.3762   Z000.0000   F720
G0   X025.5360   Y011.3771   Z000.0000   F720
G0   X025.9624   Y011.3120   Z000.0000   F720
G0   X026.2819   Y011.2063   Z000.0000   F720
G0   X026.5071   Y011.0765   Z000.0000   F720
G0   X026.7451   Y010.8662   Z000.0000   F720
G0   X026.7451   Y010.8662   Z003.0000   F500

;Begin Line: layer=0 line=14
G0   X026.6923   Y011.3851   Z003.0000   F2100
G0   X026.6923   Y011.3851   Z000.0000   F210
G0   X026.4650   Y011.6439   Z000.0000   F720
G0   X026.3526   Y011.7365   Z000.0000   F720
G0   X026.0975   Y011.8916   Z000.0000   F720
G0   X025.8190   Y011.9998   Z000.0000   F720
G0   X025.6271   Y012.0466   Z000.0000   F720
G0   X025.2381   Y012.0979   Z000.0000   F720
G0   X024.6414   Y012.0996   Z000.0000   F720
G0   X023.8565   Y012.0415   Z000.0000   F720
G0   X022.5453   Y011.9025   Z000.0000   F720
G0   X021.5815   Y011.7588   Z000.0000   F720
G0   X021.0198   Y011.6371   Z000.0000   F720
G0   X020.3024   Y011.4138   Z000.0000   F720
G0   X019.5355   Y011.0921   Z000.0000   F720
G0   X018.8475   Y010.7443   Z000.0000   F720
G0   X018.1565   Y010.3420   Z000.0000   F720
G0   X017.3407   Y009.7768   Z000.0000   F720
G0   X016.8736   Y009.3750   Z000.0000   F720
G0   X016.8736   Y009.3750   Z003.0000   F500

;Begin Line: layer=0 line=15
G0   X014.6981   Y009.3750   Z003.0000   F2100
G0   X014.6981   Y009.3750   Z000.0000   F210
G0   X015.1679   Y009.8660   Z000.0000   F720
G0   X015.5713   Y010.2304   Z000.0000   F720
G0   X016.2652   Y010.7720   Z000.0000   F720
G0   X016.9662   Y011.1918   Z000.0000   F720
G0   X017.8144   Y011.6167   Z000.0000   F720
G0   X018.6785   Y012.0041   Z000.0000   F720
G0   X019.2361   Y012.2229   Z000.0000   F720
G0   X019.7496   Y012.3953   Z000.0000   F720
G0   X020.2423   Y012.5292   Z000.0000   F720
G0   X020.8302   Y012.6501   Z000.0000   F720
G0   X021.5605   Y012.7458   Z000.0000   F720
G0   X022.7284   Y012.7968   Z000.0000   F720
G0   X024.2599   Y012.8162   Z000.0000   F720
G0   X024.6755   Y012.8075   Z000.0000   F720
G0   X025.2486   Y012.7558   Z000.0000   F720
G0   X025.6683   Y012.6612   Z000.0000   F720
G0   X025.9206   Y012.5705   Z000.0000   F720
G0   X026.1054   Y012.4742   Z000.0000   F720
G0   X026.3479   Y012.2911   Z000.0000   F720
G0   X026.4854   Y012.1542   Z000.0000   F720
G0   X026.5923   Y012.0205   Z000.0000   F720
G0   X026.7219   Y011.8117   Z000.0000   F720
G0   X026.7219   Y011.8117   Z003.0000   F500

;Begin Line: layer=0 line=16
G0   X027.6598   Y011.4581   Z003.0000   F2100
G0   X027.6598   Y011.4581   Z000.0000   F210
G0   X027.9249   Y012.3683   Z000.0000   F720
G0   X028.0164   Y012.7580   Z000.0000   F720
G0   X028.1041   Y013.2313   Z000.0000   F720
G0   X028.1441   Y013.5392   Z000.0000   F720
G0   X028.1693   Y014.0057   Z000.0000   F720
G0   X028.1583   Y014.4322   Z000.0000   F720
G0   X028.1091   Y014.8574   Z000.0000   F720
G0   X028.0050   Y015.3227   Z000.0000   F720
G0   X027.8528   Y015.7796   Z000.0000   F720
G0   X027.6817   Y016.1837   Z000.0000   F720
G0   X027.4364   Y016.6626   Z000.0000   F720
G0   X027.2302   Y017.0294   Z000.0000   F720
G0   X026.8577   Y017.6285   Z000.0000   F720
G0   X026.5451   Y018.0953   Z000.0000   F720
G0   X026.0332   Y018.7671   Z000.0000   F720
G0   X025.4756   Y019.4107   Z000.0000   F720
G0   X024.2619   Y020.6997   Z000.0000   F720
G0   X022.9519   Y022.1323   Z000.0000   F720
G0   X022.1230   Y022.9223   Z000.0000   F720
G0   X021.4182   Y023.5069   Z000.0000   F720
G0   X020.3540   Y024.2790   Z000.0000   F720
G0   X019.5043   Y024.8647   Z000.0000   F720
G0   X018.3894   Y025.5473   Z000.0000   F720
G0   X017.2328   Y026.1331   Z000.0000   F720
G0   X016.1701   Y026.5832   Z000.0000   F720
G0   X014.9832   Y027.0201   Z000.0000   F720
G0   X013.6645   Y027.4495   Z000.0000   F720
G0   X012.7181   Y027.7002   Z000.0000   F720
G0   X011.0717   Y027.9082   Z000.0000   F720
G0   X008.7515   Y028.0646   Z000.0000   F720
G0   X007.1500   Y028.2201   Z000.0000   F720
G0   X007.1500   Y028.2201   Z003.0000   F500

;Begin Line: layer=0 line=17
G0   X007.1500   Y028.9972   Z003.0000   F2100
G0   X007.1500   Y028.9972   Z000.0000   F210
G0   X011.4896   Y028.6449   Z000.0000   F720
G0   X013.0220   Y028.3898   Z000.0000   F720
G0   X013.9838   Y028.1056   Z000.0000   F720
G0   X015.3692   Y027.6246   Z000.0000   F720
G0   X016.7827   Y027.0756   Z000.0000   F720
G0   X018.0954   Y026.4799   Z000.0000   F720
G0   X019.1927   Y025.8732   Z000.0000   F720
G0   X020.1272   Y025.2589   Z000.0000   F720
G0   X020.8234   Y024.7620   Z000.0000   F720
G0   X021.8741   Y023.9856   Z000.0000   F720
G0   X022.6535   Y023.3439   Z000.0000   F720
G0   X023.1760   Y022.8643   Z000.0000   F720
G0   X023.8962   Y022.1574   Z000.0000   F720
G0   X025.7021   Y020.2909   Z000.0000   F720
G0   X026.3674   Y019.5636   Z000.0000   F720
G0   X026.9518   Y018.8304   Z000.0000   F720
G0   X027.2882   Y018.3343   Z000.0000   F720
G0   X027.6178   Y017.7991   Z000.0000   F720
G0   X028.1406   Y016.8149   Z000.0000   F720
G0   X028.3081   Y016.4221   Z000.0000   F720
G0   X028.4963   Y015.8883   Z000.0000   F720
G0   X028.4963   Y015.8883   Z003.0000   F500

;Begin Line: layer=0 line=18
G0   X030.3610   Y017.5802   Z003.0000   F2100
G0   X030.3610   Y017.5802   Z000.0000   F210
G0   X029.9032   Y018.5599   Z000.0000   F720
G0   X029.5146   Y019.3299   Z000.0000   F720
G0   X029.0700   Y020.1603   Z000.0000   F720
G0   X028.6323   Y020.9249   Z000.0000   F720
G0   X028.0914   Y021.7615   Z000.0000   F720
G0   X027.6092   Y022.4168   Z000.0000   F720
G0   X027.1384   Y022.9823   Z000.0000   F720
G0   X026.5637   Y023.5853   Z000.0000   F720
G0   X025.6777   Y024.3782   Z000.0000   F720
G0   X023.2277   Y026.4172   Z000.0000   F720
G0   X021.4667   Y028.0329   Z000.0000   F720
G0   X020.0583   Y029.1535   Z000.0000   F720
G0   X018.8405   Y029.9947   Z000.0000   F720
G0   X017.8452   Y030.6349   Z000.0000   F720
G0   X016.7314   Y031.3087   Z000.0000   F720
G0   X015.7604   Y031.8653   Z000.0000   F720
G0   X014.6641   Y032.4443   Z000.0000   F720
G0   X013.7750   Y032.8671   Z000.0000   F720
G0   X012.5168   Y033.3178   Z000.0000   F720
G0   X011.3565   Y033.6087   Z000.0000   F720
G0   X009.6145   Y033.9541   Z000.0000   F720
G0   X008.6759   Y034.1809   Z000.0000   F720
G0   X007.1500   Y034.6166   Z000.0000   F720
G0   X007.1500   Y034.6166   Z003.0000   F500

;Begin Line: layer=0 line=19
G0   X007.1500   Y035.7826   Z003.0000   F2100
G0   X007.1500   Y035.7826   Z000.0000   F210
G0   X008.6272   Y035.3018   Z000.0000   F720
G0   X009.7471   Y034.9760   Z000.0000   F720
G0   X011.3963   Y034.5891   Z000.0000   F720
G0   X012.2119   Y034.3599   Z000.0000   F720
G0   X013.2492   Y034.0040   Z000.0000   F720
G0   X014.5819   Y033.4354   Z000.0000   F720
G0   X015.4674   Y032.9824   Z000.0000   F720
G0   X016.4991   Y032.4037   Z000.0000   F720
G0   X017.3804   Y031.8638   Z000.0000   F720
G0   X018.6382   Y031.0429   Z000.0000   F720
G0   X019.4579   Y030.4533   Z000.0000   F720
G0   X020.4398   Y029.6968   Z000.0000   F720
G0   X021.4580   Y028.8316   Z000.0000   F720
G0   X023.5186   Y026.9085   Z000.0000   F720
G0   X024.3557   Y026.2133   Z000.0000   F720
G0   X025.6510   Y025.1907   Z000.0000   F720
