;Generated with vpype gwrite fabian
G90 ; Use absolute position
G92 X0 Y0 Z0 ; Set the current position as (0,0,0)
G0   X000.0000   Y000.0000   Z003.0000   F500

;Begin Line: layer=0 line=0
G0   X100.2875   Y103.8527   Z003.0000   F2100
G0   X100.2875   Y103.8527   Z000.0000   F210
G0   X100.1730   Y103.3877   Z000.0000   F720
G0   X100.1730   Y103.3877   Z003.0000   F500

;Begin Line: layer=0 line=1
G0   X102.8000   Y102.0716   Z003.0000   F2100
G0   X102.8000   Y102.0716   Z000.0000   F210
G0   X107.0546   Y107.9276   Z000.0000   F720
G0   X102.8000   Y113.7835   Z000.0000   F720
G0   X102.8000   Y102.0716   Z000.0000   F720
G0   X102.8000   Y102.0716   Z003.0000   F500

;Begin Line: layer=0 line=2
G0   X102.9854   Y102.5182   Z003.0000   F2100
G0   X102.9854   Y102.5182   Z000.0000   F210
G0   X103.3133   Y104.4098   Z000.0000   F720
G0   X103.6227   Y106.5094   Z000.0000   F720
G0   X103.7734   Y107.8510   Z000.0000   F720
G0   X103.9162   Y109.8324   Z000.0000   F720
G0   X104.0382   Y110.7636   Z000.0000   F720
G0   X104.1968   Y111.6696   Z000.0000   F720
G0   X104.1968   Y111.6696   Z003.0000   F500

;Begin Line: layer=0 line=3
G0   X103.9970   Y111.9446   Z003.0000   F2100
G0   X103.9970   Y111.9446   Z000.0000   F210
G0   X103.8878   Y111.2559   Z000.0000   F720
G0   X103.7276   Y110.0056   Z000.0000   F720
G0   X103.5987   Y108.1986   Z000.0000   F720
G0   X103.4631   Y106.8905   Z000.0000   F720
G0   X103.2249   Y105.2550   Z000.0000   F720
G0   X102.9125   Y103.4203   Z000.0000   F720
G0   X102.9125   Y103.4203   Z003.0000   F500

;Begin Line: layer=0 line=4
G0   X104.6378   Y104.7926   Z003.0000   F2100
G0   X104.6378   Y104.7926   Z000.0000   F210
G0   X104.9331   Y107.6328   Z000.0000   F720
G0   X105.0489   Y109.4964   Z000.0000   F720
G0   X105.1697   Y110.3304   Z000.0000   F720
G0   X105.1697   Y110.3304   Z003.0000   F500

;Begin Line: layer=0 line=5
G0   X104.8001   Y110.8391   Z003.0000   F2100
G0   X104.8001   Y110.8391   Z000.0000   F210
G0   X104.6832   Y110.2532   Z000.0000   F720
G0   X104.5766   Y109.4486   Z000.0000   F720
G0   X104.4616   Y107.6722   Z000.0000   F720
G0   X104.3944   Y106.9866   Z000.0000   F720
G0   X104.0327   Y103.9598   Z000.0000   F720
G0   X104.0327   Y103.9598   Z003.0000   F500

;Begin Line: layer=0 line=6
G0   X103.7228   Y103.5331   Z003.0000   F2100
G0   X103.7228   Y103.5331   Z000.0000   F210
G0   X104.0235   Y105.8034   Z000.0000   F720
G0   X104.1907   Y107.2035   Z000.0000   F720
G0   X104.1907   Y107.2035   Z003.0000   F500

;Begin Line: layer=0 line=7
G0   X103.4805   Y108.6593   Z003.0000   F2100
G0   X103.4805   Y108.6593   Z000.0000   F210
G0   X103.5945   Y110.1959   Z000.0000   F720
G0   X103.6717   Y110.8925   Z000.0000   F720
G0   X103.8433   Y112.1561   Z000.0000   F720
G0   X103.8433   Y112.1561   Z003.0000   F500

;Begin Line: layer=0 line=8
G0   X100.4000   Y113.7835   Z003.0000   F2100
G0   X100.4000   Y113.7835   Z000.0000   F210
G0   X096.1454   Y107.9276   Z000.0000   F720
G0   X100.4000   Y102.0716   Z000.0000   F720
G0   X100.4000   Y113.7835   Z000.0000   F720
G0   X100.4000   Y113.7835   Z003.0000   F500

;Begin Line: layer=0 line=9
G0   X100.0245   Y113.0752   Z003.0000   F2100
G0   X100.0245   Y113.0752   Z000.0000   F210
G0   X099.8303   Y112.0485   Z000.0000   F720
G0   X099.7014   Y111.4794   Z000.0000   F720
G0   X098.8225   Y108.1433   Z000.0000   F720
G0   X098.5571   Y107.2844   Z000.0000   F720
G0   X097.9884   Y105.5823   Z000.0000   F720
G0   X097.9884   Y105.5823   Z003.0000   F500

;Begin Line: layer=0 line=10
G0   X097.5558   Y106.1777   Z003.0000   F2100
G0   X097.5558   Y106.1777   Z000.0000   F210
G0   X097.8943   Y107.0190   Z000.0000   F720
G0   X097.8943   Y107.0190   Z003.0000   F500

;Begin Line: layer=0 line=11
G0   X097.2890   Y106.5449   Z003.0000   F2100
G0   X097.2890   Y106.5449   Z000.0000   F210
G0   X097.7500   Y107.5644   Z000.0000   F720
G0   X098.0348   Y108.2810   Z000.0000   F720
G0   X098.5492   Y109.7429   Z000.0000   F720
G0   X099.0696   Y111.1243   Z000.0000   F720
G0   X099.3267   Y111.8614   Z000.0000   F720
G0   X099.4430   Y112.2749   Z000.0000   F720
G0   X099.4430   Y112.2749   Z003.0000   F500

;Begin Line: layer=0 line=12
G0   X100.2875   Y112.2400   Z003.0000   F2100
G0   X100.2875   Y112.2400   Z000.0000   F210
G0   X100.2028   Y111.6218   Z000.0000   F720
G0   X100.0804   Y110.8919   Z000.0000   F720
G0   X099.5698   Y108.1608   Z000.0000   F720
G0   X099.3054   Y107.0628   Z000.0000   F720
G0   X098.6491   Y104.6729   Z000.0000   F720
G0   X098.6491   Y104.6729   Z003.0000   F500

;Begin Line: layer=0 line=13
G0   X096.9796   Y102.5048   Z003.0000   F2100
G0   X096.9796   Y102.5048   Z000.0000   F210
G0   X096.3703   Y100.6445   Z000.0000   F720
G0   X096.1168   Y099.9391   Z000.0000   F720
G0   X095.9565   Y099.5363   Z000.0000   F720
G0   X095.6655   Y098.9189   Z000.0000   F720
G0   X095.6655   Y098.9189   Z003.0000   F500

;Begin Line: layer=0 line=14
G0   X099.6549   Y098.8227   Z003.0000   F2100
G0   X099.6549   Y098.8227   Z000.0000   F210
G0   X099.3171   Y097.9145   Z000.0000   F720
G0   X098.5485   Y096.1775   Z000.0000   F720
G0   X098.2596   Y095.4650   Z000.0000   F720
G0   X098.0940   Y095.0191   Z000.0000   F720
G0   X097.8947   Y094.4087   Z000.0000   F720
G0   X097.5608   Y093.2247   Z000.0000   F720
G0   X097.4122   Y092.6143   Z000.0000   F720
G0   X097.2773   Y091.9444   Z000.0000   F720
G0   X097.1922   Y091.3660   Z000.0000   F720
G0   X097.1517   Y090.9476   Z000.0000   F720
G0   X097.1362   Y090.5004   Z000.0000   F720
G0   X097.1439   Y090.1326   Z000.0000   F720
G0   X097.1694   Y089.7989   Z000.0000   F720
G0   X097.2438   Y089.3704   Z000.0000   F720
G0   X097.2438   Y089.3704   Z003.0000   F500

;Begin Line: layer=0 line=15
G0   X094.5831   Y087.4749   Z003.0000   F2100
G0   X094.5831   Y087.4749   Z000.0000   F210
G0   X095.1380   Y086.7215   Z000.0000   F720
G0   X095.5812   Y086.0760   Z000.0000   F720
G0   X095.9439   Y085.4822   Z000.0000   F720
G0   X096.2167   Y084.9419   Z000.0000   F720
G0   X096.4593   Y084.2043   Z000.0000   F720
G0   X096.5594   Y083.7489   Z000.0000   F720
G0   X096.6202   Y083.2028   Z000.0000   F720
G0   X096.6231   Y082.4439   Z000.0000   F720
G0   X096.5928   Y081.9161   Z000.0000   F720
G0   X096.6299   Y082.2961   Z000.0000   F720
G0   X096.6299   Y082.2961   Z003.0000   F500

;Begin Line: layer=0 line=16
G0   X092.7928   Y082.0304   Z003.0000   F2100
G0   X092.7928   Y082.0304   Z000.0000   F210
G0   X092.5771   Y082.8226   Z000.0000   F720
G0   X092.3684   Y083.3381   Z000.0000   F720
G0   X092.0041   Y084.0920   Z000.0000   F720
G0   X091.6450   Y084.7167   Z000.0000   F720
G0   X091.2086   Y085.4090   Z000.0000   F720
G0   X090.5980   Y086.3108   Z000.0000   F720
G0   X089.5433   Y087.7443   Z000.0000   F720
G0   X088.1568   Y089.5629   Z000.0000   F720
G0   X088.1568   Y089.5629   Z003.0000   F500

;Begin Line: layer=0 line=17
G0   X087.0938   Y089.9083   Z003.0000   F2100
G0   X087.0938   Y089.9083   Z000.0000   F210
G0   X089.2759   Y087.1012   Z000.0000   F720
G0   X090.1881   Y085.8611   Z000.0000   F720
G0   X090.7943   Y084.9439   Z000.0000   F720
G0   X091.1617   Y084.3399   Z000.0000   F720
G0   X091.5854   Y083.5285   Z000.0000   F720
G0   X091.9498   Y082.6170   Z000.0000   F720
G0   X092.1632   Y081.9092   Z000.0000   F720
G0   X092.3244   Y080.9146   Z000.0000   F720
G0   X092.3718   Y080.0964   Z000.0000   F720
G0   X092.3604   Y079.3474   Z000.0000   F720
G0   X092.3074   Y078.5646   Z000.0000   F720
G0   X092.2195   Y077.7156   Z000.0000   F720
G0   X092.1009   Y076.7991   Z000.0000   F720
G0   X092.1009   Y076.7991   Z003.0000   F500

;Begin Line: layer=0 line=18
G0   X093.2391   Y077.3001   Z003.0000   F2100
G0   X093.2391   Y077.3001   Z000.0000   F210
G0   X093.6967   Y079.2277   Z000.0000   F720
G0   X093.8458   Y079.9288   Z000.0000   F720
G0   X093.9813   Y080.7041   Z000.0000   F720
G0   X094.0543   Y081.5652   Z000.0000   F720
G0   X093.9979   Y082.3410   Z000.0000   F720
G0   X093.8091   Y083.1094   Z000.0000   F720
G0   X093.4819   Y083.9092   Z000.0000   F720
G0   X093.0309   Y084.7226   Z000.0000   F720
G0   X092.4799   Y085.5659   Z000.0000   F720
G0   X091.2142   Y087.3420   Z000.0000   F720
G0   X091.2142   Y087.3420   Z003.0000   F500

;Begin Line: layer=0 line=19
G0   X089.0215   Y087.1363   Z003.0000   F2100
G0   X089.0215   Y087.1363   Z000.0000   F210
G0   X089.7894   Y086.0984   Z000.0000   F720
G0   X090.5146   Y085.0230   Z000.0000   F720
G0   X090.7014   Y084.7102   Z000.0000   F720
G0   X090.7014   Y084.7102   Z003.0000   F500

;Begin Line: layer=0 line=20
G0   X088.4327   Y083.5584   Z003.0000   F2100
G0   X088.4327   Y083.5584   Z000.0000   F210
G0   X083.4364   Y090.4351   Z000.0000   F720
G0   X075.3524   Y079.3084   Z000.0000   F720
G0   X088.4327   Y083.5584   Z000.0000   F720
G0   X088.4327   Y083.5584   Z003.0000   F500

;Begin Line: layer=0 line=21
G0   X091.5743   Y082.9275   Z003.0000   F2100
G0   X091.5743   Y082.9275   Z000.0000   F210
G0   X091.5630   Y083.0919   Z000.0000   F720
G0   X091.5156   Y083.2984   Z000.0000   F720
G0   X091.4641   Y083.4299   Z000.0000   F720
G0   X091.3588   Y083.6137   Z000.0000   F720
G0   X086.5781   Y090.1942   Z000.0000   F720
G0   X099.6584   Y085.9441   Z000.0000   F720
G0   X091.5743   Y074.8173   Z000.0000   F720
G0   X091.5743   Y082.9275   Z000.0000   F720
G0   X091.5743   Y082.9275   Z003.0000   F500

;Begin Line: layer=0 line=22
G0   X091.6868   Y082.6753   Z003.0000   F2100
G0   X091.6868   Y082.6753   Z000.0000   F210
G0   X091.8431   Y082.2425   Z000.0000   F720
G0   X092.0186   Y081.6127   Z000.0000   F720
G0   X092.1648   Y080.6609   Z000.0000   F720
G0   X092.2106   Y079.8371   Z000.0000   F720
G0   X092.2005   Y079.0872   Z000.0000   F720
G0   X092.1646   Y078.4464   Z000.0000   F720
G0   X092.0419   Y077.2676   Z000.0000   F720
G0   X091.9181   Y076.3350   Z000.0000   F720
G0   X091.7934   Y075.5658   Z000.0000   F720
G0   X091.7145   Y075.2017   Z000.0000   F720
G0   X091.7145   Y075.2017   Z003.0000   F500

;Begin Line: layer=0 line=23
G0   X091.9059   Y075.4651   Z003.0000   F2100
G0   X091.9059   Y075.4651   Z000.0000   F210
G0   X092.0565   Y076.3248   Z000.0000   F720
G0   X092.0565   Y076.3248   Z003.0000   F500

;Begin Line: layer=0 line=24
G0   X092.3659   Y076.0983   Z003.0000   F2100
G0   X092.3659   Y076.0983   Z000.0000   F210
G0   X092.5954   Y077.3485   Z000.0000   F720
G0   X092.8756   Y079.1483   Z000.0000   F720
G0   X092.9576   Y079.8972   Z000.0000   F720
G0   X093.0069   Y080.7645   Z000.0000   F720
G0   X093.0069   Y080.7645   Z003.0000   F500

;Begin Line: layer=0 line=25
G0   X091.6868   Y081.1895   Z003.0000   F2100
G0   X091.6868   Y081.1895   Z000.0000   F210
G0   X091.7941   Y080.6624   Z000.0000   F720
G0   X091.8816   Y079.8340   Z000.0000   F720
G0   X091.8965   Y078.9362   Z000.0000   F720
G0   X091.8512   Y077.9764   Z000.0000   F720
G0   X091.7383   Y076.8140   Z000.0000   F720
G0   X091.6868   Y076.4527   Z000.0000   F720
G0   X091.6868   Y076.4527   Z003.0000   F500

;Begin Line: layer=0 line=26
G0   X089.0618   Y074.3928   Z003.0000   F2100
G0   X089.0618   Y074.3928   Z000.0000   F210
G0   X088.9695   Y074.1627   Z000.0000   F720
G0   X088.3514   Y073.0237   Z000.0000   F720
G0   X087.3888   Y071.3584   Z000.0000   F720
G0   X086.0016   Y069.0267   Z000.0000   F720
G0   X085.3383   Y067.8587   Z000.0000   F720
G0   X084.9621   Y067.1348   Z000.0000   F720
G0   X084.5515   Y066.2352   Z000.0000   F720
G0   X084.0757   Y065.0775   Z000.0000   F720
G0   X083.6437   Y064.0932   Z000.0000   F720
G0   X083.5990   Y064.0317   Z000.0000   F720
G0   X083.9202   Y064.7448   Z000.0000   F720
G0   X084.4349   Y066.0055   Z000.0000   F720
G0   X084.7882   Y066.8043   Z000.0000   F720
G0   X085.3812   Y068.0034   Z000.0000   F720
G0   X085.3812   Y068.0034   Z003.0000   F500

;Begin Line: layer=0 line=27
G0   X082.3173   Y069.6801   Z003.0000   F2100
G0   X082.3173   Y069.6801   Z000.0000   F210
G0   X083.1265   Y071.8006   Z000.0000   F720
G0   X083.6946   Y073.3901   Z000.0000   F720
G0   X083.9492   Y074.1594   Z000.0000   F720
G0   X084.2062   Y075.0535   Z000.0000   F720
G0   X084.3940   Y075.9662   Z000.0000   F720
G0   X084.4464   Y076.5087   Z000.0000   F720
G0   X084.4678   Y077.2275   Z000.0000   F720
G0   X084.4256   Y078.0027   Z000.0000   F720
G0   X084.3206   Y078.7453   Z000.0000   F720
G0   X084.1350   Y079.5202   Z000.0000   F720
G0   X084.1350   Y079.5202   Z003.0000   F500

;Begin Line: layer=0 line=28
G0   X083.1903   Y079.2133   Z003.0000   F2100
G0   X083.1903   Y079.2133   Z000.0000   F210
G0   X083.3504   Y078.4629   Z000.0000   F720
G0   X083.4556   Y077.7156   Z000.0000   F720
G0   X083.5052   Y077.0380   Z000.0000   F720
G0   X083.4916   Y076.1887   Z000.0000   F720
G0   X083.4253   Y075.4784   Z000.0000   F720
G0   X083.2335   Y074.4705   Z000.0000   F720
G0   X082.9316   Y073.2911   Z000.0000   F720
G0   X082.6220   Y072.1770   Z000.0000   F720
G0   X082.2828   Y071.0529   Z000.0000   F720
G0   X081.9382   Y070.0503   Z000.0000   F720
G0   X081.1232   Y067.8964   Z000.0000   F720
G0   X080.9087   Y067.2870   Z000.0000   F720
G0   X080.9087   Y067.2870   Z003.0000   F500

;Begin Line: layer=0 line=29
G0   X081.0975   Y067.0272   Z003.0000   F2100
G0   X081.0975   Y067.0272   Z000.0000   F210
G0   X081.5269   Y068.2813   Z000.0000   F720
G0   X082.3109   Y070.3175   Z000.0000   F720
G0   X082.6161   Y071.1762   Z000.0000   F720
G0   X083.2794   Y073.2037   Z000.0000   F720
G0   X083.4743   Y073.8461   Z000.0000   F720
G0   X083.7013   Y074.6737   Z000.0000   F720
G0   X083.8979   Y075.5999   Z000.0000   F720
G0   X083.9720   Y076.2435   Z000.0000   F720
G0   X084.0095   Y077.1802   Z000.0000   F720
G0   X083.9670   Y077.8204   Z000.0000   F720
G0   X083.9670   Y077.8204   Z003.0000   F500

;Begin Line: layer=0 line=30
G0   X085.9530   Y075.4783   Z003.0000   F2100
G0   X085.9530   Y075.4783   Z000.0000   F210
G0   X086.1381   Y076.4416   Z000.0000   F720
G0   X086.2040   Y077.4358   Z000.0000   F720
G0   X086.1880   Y078.0762   Z000.0000   F720
G0   X086.1367   Y078.7467   Z000.0000   F720
G0   X086.0057   Y079.6728   Z000.0000   F720
G0   X085.8941   Y080.0918   Z000.0000   F720
G0   X085.8941   Y080.0918   Z003.0000   F500

;Begin Line: layer=0 line=31
G0   X086.6626   Y080.3415   Z003.0000   F2100
G0   X086.6626   Y080.3415   Z000.0000   F210
G0   X086.7657   Y079.9613   Z000.0000   F720
G0   X086.8684   Y079.4024   Z000.0000   F720
G0   X086.9394   Y078.6023   Z000.0000   F720
G0   X086.9600   Y077.7184   Z000.0000   F720
G0   X086.9208   Y076.7859   Z000.0000   F720
G0   X086.7433   Y075.7026   Z000.0000   F720
G0   X086.5000   Y074.8546   Z000.0000   F720
G0   X086.1121   Y073.9115   Z000.0000   F720
G0   X085.1333   Y071.9359   Z000.0000   F720
G0   X083.6714   Y069.0695   Z000.0000   F720
G0   X083.3361   Y068.3710   Z000.0000   F720
G0   X082.7913   Y066.9821   Z000.0000   F720
G0   X082.7913   Y066.9821   Z003.0000   F500

;Begin Line: layer=0 line=32
G0   X083.2863   Y067.0589   Z003.0000   F2100
G0   X083.2863   Y067.0589   Z000.0000   F210
G0   X083.8098   Y068.2946   Z000.0000   F720
G0   X084.2482   Y069.1513   Z000.0000   F720
G0   X085.4949   Y071.4422   Z000.0000   F720
G0   X086.3496   Y073.0493   Z000.0000   F720
G0   X086.9522   Y074.2455   Z000.0000   F720
G0   X087.2156   Y074.9355   Z000.0000   F720
G0   X087.5483   Y076.1081   Z000.0000   F720
G0   X087.6303   Y076.7711   Z000.0000   F720
G0   X087.6738   Y077.5191   Z000.0000   F720
G0   X087.6798   Y078.4493   Z000.0000   F720
G0   X087.6365   Y079.2294   Z000.0000   F720
G0   X087.5346   Y079.9740   Z000.0000   F720
G0   X087.3852   Y080.5763   Z000.0000   F720
G0   X087.3852   Y080.5763   Z003.0000   F500

;Begin Line: layer=0 line=33
G0   X087.9422   Y080.7572   Z003.0000   F2100
G0   X087.9422   Y080.7572   Z000.0000   F210
