;Generated with vpype gwrite fabian
G90 ; Use absolute position
G92 X0 Y0 Z0 ; Set the current position as (0,0,0)
G0   X000.0000   Y000.0000   Z003.0000   F500

;Begin Line: layer=0 line=0
G0   X095.3097   Y081.3524   Z003.0000   F2100
G0   X095.3097   Y081.3524   Z000.0000   F210
G0   X094.7867   Y080.6942   Z000.0000   F720
G0   X094.2599   Y079.9361   Z000.0000   F720
G0   X093.8039   Y079.1758   Z000.0000   F720
G0   X093.4711   Y078.5411   Z000.0000   F720
G0   X092.8693   Y077.3204   Z000.0000   F720
G0   X092.4510   Y076.5251   Z000.0000   F720
G0   X091.6868   Y075.1317   Z000.0000   F720
G0   X092.7737   Y077.1197   Z000.0000   F720
G0   X093.6429   Y078.8487   Z000.0000   F720
G0   X094.0811   Y079.6174   Z000.0000   F720
G0   X094.4303   Y080.1716   Z000.0000   F720
G0   X094.9433   Y080.8792   Z000.0000   F720
G0   X095.2872   Y081.3144   Z000.0000   F720
G0   X095.7909   Y081.8814   Z000.0000   F720
G0   X096.2685   Y082.3688   Z000.0000   F720
G0   X096.9870   Y083.0136   Z000.0000   F720
G0   X096.6596   Y082.7236   Z000.0000   F720
G0   X096.0189   Y082.1141   Z000.0000   F720
G0   X095.3097   Y081.3524   Z000.0000   F720
G0   X095.3097   Y081.3524   Z003.0000   F500

;Begin Line: layer=0 line=1
G0   X093.4016   Y082.2009   Z003.0000   F2100
G0   X093.4016   Y082.2009   Z000.0000   F210
G0   X093.0937   Y081.3238   Z000.0000   F720
G0   X092.9058   Y080.7296   Z000.0000   F720
G0   X092.9058   Y080.7296   Z003.0000   F500

;Begin Line: layer=0 line=2
G0   X092.7431   Y081.6114   Z003.0000   F2100
G0   X092.7431   Y081.6114   Z000.0000   F210
G0   X093.0717   Y082.7989   Z000.0000   F720
G0   X093.2887   Y083.4683   Z000.0000   F720
G0   X093.5388   Y084.1438   Z000.0000   F720
G0   X093.5388   Y084.1438   Z003.0000   F500

;Begin Line: layer=0 line=3
G0   X092.9104   Y084.3480   Z003.0000   F2100
G0   X092.9104   Y084.3480   Z000.0000   F210
G0   X092.6342   Y083.2094   Z000.0000   F720
G0   X092.3210   Y081.5986   Z000.0000   F720
G0   X092.1721   Y080.6587   Z000.0000   F720
G0   X091.8304   Y078.2113   Z000.0000   F720
G0   X091.6868   Y077.4819   Z000.0000   F720
G0   X091.6868   Y077.4819   Z003.0000   F500

;Begin Line: layer=0 line=4
G0   X091.6868   Y077.9519   Z003.0000   F2100
G0   X091.6868   Y077.9519   Z000.0000   F210
G0   X091.8247   Y079.0232   Z000.0000   F720
G0   X092.0020   Y080.7376   Z000.0000   F720
G0   X092.1668   Y082.0203   Z000.0000   F720
G0   X092.3574   Y083.2343   Z000.0000   F720
G0   X092.5834   Y084.4543   Z000.0000   F720
G0   X092.5834   Y084.4543   Z003.0000   F500

;Begin Line: layer=0 line=5
G0   X091.1018   Y084.9357   Z003.0000   F2100
G0   X091.1018   Y084.9357   Z000.0000   F210
G0   X091.1925   Y083.3126   Z000.0000   F720
G0   X091.2412   Y081.4639   Z000.0000   F720
G0   X091.2921   Y080.2269   Z000.0000   F720
G0   X091.2921   Y080.2269   Z003.0000   F500

;Begin Line: layer=0 line=6
G0   X091.4213   Y079.8436   Z003.0000   F2100
G0   X091.4213   Y079.8436   Z000.0000   F210
G0   X091.4830   Y079.7164   Z000.0000   F720
G0   X091.5411   Y079.5373   Z000.0000   F720
G0   X091.5741   Y079.2808   Z000.0000   F720
G0   X091.5743   Y071.1470   Z000.0000   F720
G0   X099.6584   Y082.2738   Z000.0000   F720
G0   X086.5781   Y086.5238   Z000.0000   F720
G0   X091.4213   Y079.8436   Z000.0000   F720
G0   X091.4213   Y079.8436   Z003.0000   F500

;Begin Line: layer=0 line=7
G0   X091.0622   Y080.5433   Z003.0000   F2100
G0   X091.0622   Y080.5433   Z000.0000   F210
G0   X090.7996   Y083.3737   Z000.0000   F720
G0   X090.7303   Y083.9310   Z000.0000   F720
G0   X090.5203   Y085.1246   Z000.0000   F720
G0   X090.5203   Y085.1246   Z003.0000   F500

;Begin Line: layer=0 line=8
G0   X090.3322   Y085.1857   Z003.0000   F2100
G0   X090.3322   Y085.1857   Z000.0000   F210
G0   X090.5690   Y084.0741   Z000.0000   F720
G0   X090.5690   Y084.0741   Z003.0000   F500

;Begin Line: layer=0 line=9
G0   X090.7806   Y084.2793   Z003.0000   F2100
G0   X090.7806   Y084.2793   Z000.0000   F210
G0   X090.6542   Y085.0811   Z000.0000   F720
G0   X090.6542   Y085.0811   Z003.0000   F500

;Begin Line: layer=0 line=10
G0   X090.7726   Y085.0426   Z003.0000   F2100
G0   X090.7726   Y085.0426   Z000.0000   F210
G0   X090.9184   Y083.9037   Z000.0000   F720
G0   X091.0257   Y082.4896   Z000.0000   F720
G0   X091.0257   Y082.4896   Z003.0000   F500

;Begin Line: layer=0 line=11
G0   X090.6990   Y082.3505   Z003.0000   F2100
G0   X090.6990   Y082.3505   Z000.0000   F210
G0   X090.5064   Y083.6053   Z000.0000   F720
G0   X090.3651   Y084.2744   Z000.0000   F720
G0   X090.2111   Y084.8734   Z000.0000   F720
G0   X090.0919   Y085.2638   Z000.0000   F720
G0   X090.0919   Y085.2638   Z003.0000   F500

;Begin Line: layer=0 line=12
G0   X089.8909   Y085.3291   Z003.0000   F2100
G0   X089.8909   Y085.3291   Z000.0000   F210
G0   X090.1790   Y084.4565   Z000.0000   F720
G0   X090.4102   Y083.4939   Z000.0000   F720
G0   X090.4102   Y083.4939   Z003.0000   F500

;Begin Line: layer=0 line=13
G0   X090.0738   Y084.4090   Z003.0000   F2100
G0   X090.0738   Y084.4090   Z000.0000   F210
G0   X089.9011   Y084.9272   Z000.0000   F720
G0   X089.7183   Y085.3852   Z000.0000   F720
G0   X089.7183   Y085.3852   Z003.0000   F500

;Begin Line: layer=0 line=14
G0   X089.3516   Y085.5044   Z003.0000   F2100
G0   X089.3516   Y085.5044   Z000.0000   F210
G0   X089.7216   Y084.7086   Z000.0000   F720
G0   X089.9011   Y084.2348   Z000.0000   F720
G0   X090.0734   Y083.7057   Z000.0000   F720
G0   X090.2655   Y083.0030   Z000.0000   F720
G0   X090.3535   Y082.6046   Z000.0000   F720
G0   X090.6383   Y081.1268   Z000.0000   F720
G0   X090.5926   Y081.1897   Z000.0000   F720
G0   X090.2955   Y082.6505   Z000.0000   F720
G0   X090.1435   Y083.2541   Z000.0000   F720
G0   X089.9241   Y083.9491   Z000.0000   F720
G0   X089.6321   Y084.6740   Z000.0000   F720
G0   X089.3462   Y085.2740   Z000.0000   F720
G0   X089.1905   Y085.5567   Z000.0000   F720
G0   X089.1905   Y085.5567   Z003.0000   F500

;Begin Line: layer=0 line=15
G0   X089.6114   Y085.4199   Z003.0000   F2100
G0   X089.6114   Y085.4199   Z000.0000   F210
G0   X089.9288   Y084.5943   Z000.0000   F720
G0   X090.1691   Y083.8510   Z000.0000   F720
G0   X090.3655   Y083.0168   Z000.0000   F720
G0   X090.3655   Y083.0168   Z003.0000   F500

;Begin Line: layer=0 line=16
G0   X089.9738   Y083.2085   Z003.0000   F2100
G0   X089.9738   Y083.2085   Z000.0000   F210
G0   X089.8246   Y083.6473   Z000.0000   F720
G0   X089.5464   Y084.3020   Z000.0000   F720
G0   X089.1491   Y085.0429   Z000.0000   F720
G0   X088.7400   Y085.7031   Z000.0000   F720
G0   X088.7400   Y085.7031   Z003.0000   F500

;Begin Line: layer=0 line=17
G0   X088.9529   Y085.6339   Z003.0000   F2100
G0   X088.9529   Y085.6339   Z000.0000   F210
G0   X089.4392   Y084.7678   Z000.0000   F720
G0   X089.6750   Y084.2513   Z000.0000   F720
G0   X089.8239   Y083.8674   Z000.0000   F720
G0   X090.0733   Y083.0934   Z000.0000   F720
G0   X090.3396   Y082.0577   Z000.0000   F720
G0   X090.3396   Y082.0577   Z003.0000   F500

;Begin Line: layer=0 line=18
G0   X090.1789   Y081.7591   Z003.0000   F2100
G0   X090.1789   Y081.7591   Z000.0000   F210
G0   X089.9224   Y082.6001   Z000.0000   F720
G0   X089.7482   Y083.0812   Z000.0000   F720
G0   X089.4880   Y083.6723   Z000.0000   F720
G0   X089.1273   Y084.3256   Z000.0000   F720
G0   X088.6485   Y085.0229   Z000.0000   F720
G0   X088.3637   Y085.4016   Z000.0000   F720
G0   X087.8645   Y085.9875   Z000.0000   F720
G0   X087.9300   Y085.9663   Z000.0000   F720
G0   X088.2123   Y085.6459   Z000.0000   F720
G0   X088.5477   Y085.2149   Z000.0000   F720
G0   X088.8690   Y084.7612   Z000.0000   F720
G0   X089.1967   Y084.2384   Z000.0000   F720
G0   X089.4310   Y083.7969   Z000.0000   F720
G0   X089.6890   Y083.2329   Z000.0000   F720
G0   X089.6890   Y083.2329   Z003.0000   F500

;Begin Line: layer=0 line=19
G0   X089.7503   Y083.3717   Z003.0000   F2100
G0   X089.7503   Y083.3717   Z000.0000   F210
G0   X089.5460   Y083.8554   Z000.0000   F720
G0   X089.1932   Y084.5210   Z000.0000   F720
G0   X088.7336   Y085.2257   Z000.0000   F720
G0   X088.2523   Y085.8615   Z000.0000   F720
G0   X088.2523   Y085.8615   Z003.0000   F500

;Begin Line: layer=0 line=20
G0   X087.0878   Y086.0137   Z003.0000   F2100
G0   X087.0878   Y086.0137   Z000.0000   F210
G0   X087.4276   Y085.7024   Z000.0000   F720
G0   X087.8518   Y085.2760   Z000.0000   F720
G0   X088.4732   Y084.5982   Z000.0000   F720
G0   X088.9567   Y083.9633   Z000.0000   F720
G0   X089.2504   Y083.4837   Z000.0000   F720
G0   X089.5623   Y082.8805   Z000.0000   F720
G0   X089.8249   Y082.2463   Z000.0000   F720
G0   X089.8249   Y082.2463   Z003.0000   F500

;Begin Line: layer=0 line=21
G0   X088.4327   Y079.8881   Z003.0000   F2100
G0   X088.4327   Y079.8881   Z000.0000   F210
G0   X073.4107   Y075.0072   Z000.0000   F720
G0   X073.4107   Y090.8022   Z000.0000   F720
G0   X082.6948   Y087.7856   Z000.0000   F720
G0   X088.4327   Y079.8881   Z000.0000   F720
G0   X088.4327   Y079.8881   Z003.0000   F500

;Begin Line: layer=0 line=22
G0   X086.9483   Y079.5241   Z003.0000   F2100
G0   X086.9483   Y079.5241   Z000.0000   F210
G0   X086.1879   Y079.9903   Z000.0000   F720
G0   X085.2989   Y080.4167   Z000.0000   F720
G0   X084.4173   Y080.7533   Z000.0000   F720
G0   X081.8936   Y081.5763   Z000.0000   F720
G0   X081.0295   Y081.8931   Z000.0000   F720
G0   X079.1436   Y082.6429   Z000.0000   F720
G0   X079.1436   Y082.6429   Z003.0000   F500

;Begin Line: layer=0 line=23
G0   X079.7395   Y080.6822   Z003.0000   F2100
G0   X079.7395   Y080.6822   Z000.0000   F210
G0   X078.7600   Y081.0583   Z000.0000   F720
G0   X075.3263   Y082.2932   Z000.0000   F720
G0   X074.3803   Y082.6034   Z000.0000   F720
G0   X073.5232   Y082.8439   Z000.0000   F720
G0   X073.5232   Y082.8439   Z003.0000   F500

;Begin Line: layer=0 line=24
G0   X074.0829   Y083.0182   Z003.0000   F2100
G0   X074.0829   Y083.0182   Z000.0000   F210
G0   X075.2007   Y082.6584   Z000.0000   F720
G0   X076.6159   Y082.1412   Z000.0000   F720
G0   X078.7317   Y081.3592   Z000.0000   F720
G0   X080.6123   Y080.6306   Z000.0000   F720
G0   X081.8044   Y080.1926   Z000.0000   F720
G0   X084.1319   Y079.4807   Z000.0000   F720
G0   X085.1068   Y079.1203   Z000.0000   F720
G0   X085.3444   Y079.0029   Z000.0000   F720
G0   X085.3444   Y079.0029   Z003.0000   F500

;Begin Line: layer=0 line=25
G0   X084.8365   Y078.8379   Z003.0000   F2100
G0   X084.8365   Y078.8379   Z000.0000   F210
G0   X084.2704   Y079.0609   Z000.0000   F720
G0   X081.7391   Y079.8396   Z000.0000   F720
G0   X080.7233   Y080.2062   Z000.0000   F720
G0   X079.4187   Y080.7199   Z000.0000   F720
G0   X078.2781   Y081.1443   Z000.0000   F720
G0   X075.7635   Y082.0368   Z000.0000   F720
G0   X074.7086   Y082.3906   Z000.0000   F720
G0   X073.5232   Y082.7118   Z000.0000   F720
G0   X073.5232   Y082.6929   Z000.0000   F720
G0   X075.0122   Y082.2601   Z000.0000   F720
G0   X076.1489   Y081.8710   Z000.0000   F720
G0   X079.1067   Y080.8140   Z000.0000   F720
G0   X080.9580   Y080.0919   Z000.0000   F720
G0   X081.8570   Y079.7773   Z000.0000   F720
G0   X083.8046   Y079.1873   Z000.0000   F720
G0   X083.8046   Y079.1873   Z003.0000   F500

;Begin Line: layer=0 line=26
G0   X084.6274   Y078.7700   Z003.0000   F2100
G0   X084.6274   Y078.7700   Z000.0000   F210
G0   X084.0002   Y079.0011   Z000.0000   F720
G0   X082.1471   Y079.5577   Z000.0000   F720
G0   X081.3681   Y079.8145   Z000.0000   F720
G0   X080.6240   Y080.0860   Z000.0000   F720
G0   X079.0415   Y080.7030   Z000.0000   F720
G0   X078.0027   Y081.0815   Z000.0000   F720
G0   X075.8330   Y081.8316   Z000.0000   F720
G0   X074.7182   Y082.1963   Z000.0000   F720
G0   X073.5232   Y082.5405   Z000.0000   F720
G0   X073.5232   Y082.5405   Z003.0000   F500

;Begin Line: layer=0 line=27
G0   X073.5232   Y080.5767   Z003.0000   F2100
G0   X073.5232   Y080.5767   Z000.0000   F210
G0   X075.6612   Y080.1222   Z000.0000   F720
G0   X076.8709   Y079.8354   Z000.0000   F720
G0   X078.3433   Y079.4091   Z000.0000   F720
G0   X079.5538   Y078.9620   Z000.0000   F720
G0   X080.9621   Y078.4102   Z000.0000   F720
G0   X082.1967   Y077.9802   Z000.0000   F720
G0   X082.1967   Y077.9802   Z003.0000   F500

;Begin Line: layer=0 line=28
G0   X079.8433   Y077.4136   Z003.0000   F2100
G0   X079.8433   Y077.4136   Z000.0000   F210
G0   X078.8587   Y077.7730   Z000.0000   F720
G0   X077.7958   Y078.1244   Z000.0000   F720
G0   X076.6157   Y078.4376   Z000.0000   F720
G0   X073.5232   Y079.0336   Z000.0000   F720
G0   X073.5232   Y079.0336   Z003.0000   F500

;Begin Line: layer=0 line=29
G0   X070.8982   Y079.5116   Z003.0000   F2100
G0   X070.8982   Y079.5116   Z000.0000   F210
G0   X069.1363   Y079.8200   Z000.0000   F720
G0   X069.1363   Y079.8200   Z003.0000   F500

;Begin Line: layer=0 line=30
G0   X070.8982   Y081.1036   Z003.0000   F2100
G0   X070.8982   Y081.1036   Z000.0000   F210
G0   X069.1702   Y081.4354   Z000.0000   F720
G0   X067.7842   Y081.6810   Z000.0000   F720
G0   X067.7842   Y081.6810   Z003.0000   F500

;Begin Line: layer=0 line=31
G0   X067.4041   Y082.7492   Z003.0000   F2100
G0   X067.4041   Y082.7492   Z000.0000   F210
G0   X066.9400   Y082.8430   Z000.0000   F720
G0   X066.9400   Y082.8430   Z003.0000   F500

;Begin Line: layer=0 line=32
G0   X066.7561   Y082.9047   Z003.0000   F2100
G0   X066.7561   Y082.9047   Z000.0000   F210
G0   X071.0107   Y088.7606   Z000.0000   F720
G0   X071.0107   Y077.0487   Z000.0000   F720
G0   X066.7561   Y082.9047   Z000.0000   F720
G0   X066.7561   Y082.9047   Z003.0000   F500

;Begin Line: layer=0 line=33
G0   X067.2908   Y083.4492   Z003.0000   F2100
G0   X067.2908   Y083.4492   Z000.0000   F210
G0   X069.3942   Y083.0297   Z000.0000   F720
G0   X070.8982   Y082.7034   Z000.0000   F720
G0   X070.8982   Y082.7034   Z003.0000   F500

;Begin Line: layer=0 line=34
G0   X070.8982   Y083.4928   Z003.0000   F2100
G0   X070.8982   Y083.4928   Z000.0000   F210
G0   X067.8121   Y084.1667   Z000.0000   F720
G0   X067.8121   Y084.1667   Z003.0000   F500

;Begin Line: layer=0 line=35
G0   X068.5925   Y083.8592   Z003.0000   F2100
G0   X068.5925   Y083.8592   Z000.0000   F210
G0   X069.9380   Y083.5711   Z000.0000   F720
G0   X070.8982   Y083.3508   Z000.0000   F720
G0   X070.8982   Y083.3323   Z000.0000   F720
G0   X067.7134   Y084.0308   Z000.0000   F720
G0   X068.5925   Y083.8592   Z000.0000   F720
G0   X068.5925   Y083.8592   Z003.0000   F500

;Begin Line: layer=0 line=36
G0   X069.5987   Y086.6257   Z003.0000   F2100
G0   X069.5987   Y086.6257   Z000.0000   F210
G0   X070.8982   Y086.2660   Z000.0000   F720
G0   X070.8982   Y086.2660   Z003.0000   F500

;Begin Line: layer=0 line=37
G0   X070.8982   Y087.2648   Z003.0000   F2100
G0   X070.8982   Y087.2648   Z000.0000   F210
G0   X070.2162   Y087.4756   Z000.0000   F720
G0   X070.2162   Y087.4756   Z003.0000   F500

;Begin Line: layer=0 line=38
G0   X070.7246   Y088.1753   Z003.0000   F2100
G0   X070.7246   Y088.1753   Z000.0000   F210
G0   X070.8982   Y088.1159   Z000.0000   F720
G0   X070.8982   Y088.1159   Z003.0000   F500

;Begin Line: layer=0 line=39
G0   X073.5232   Y087.2370   Z003.0000   F2100
G0   X073.5232   Y087.2370   Z000.0000   F210
G0   X076.9565   Y086.1713   Z000.0000   F720
G0   X078.3076   Y085.6398   Z000.0000   F720
G0   X080.4657   Y084.6186   Z000.0000   F720
G0   X081.6374   Y084.0943   Z000.0000   F720
G0   X082.7562   Y083.6515   Z000.0000   F720
G0   X084.1321   Y083.1454   Z000.0000   F720
G0   X084.9254   Y082.8336   Z000.0000   F720
G0   X085.8274   Y082.4358   Z000.0000   F720
G0   X086.3645   Y082.1577   Z000.0000   F720
G0   X086.8463   Y081.8802   Z000.0000   F720
G0   X086.8463   Y081.8802   Z003.0000   F500

;Begin Line: layer=0 line=40
G0   X087.3626   Y081.1695   Z003.0000   F2100
G0   X087.3626   Y081.1695   Z000.0000   F210
G0   X087.2043   Y081.2833   Z000.0000   F720
