;Generated with vpype gwrite fabian
G90 ; Use absolute position
G92 X0 Y0 Z0 ; Set the current position as (0,0,0)
G0   X000.0000   Y000.0000   Z003.0000   F500

;Begin Line: layer=0 line=0
G0   X086.0967   Y037.1970   Z003.0000   F2100
G0   X086.0967   Y037.1970   Z000.0000   F210
G0   X086.1920   Y038.2410   Z000.0000   F720
G0   X086.1920   Y038.2410   Z003.0000   F500

;Begin Line: layer=0 line=1
G0   X087.5867   Y044.6265   Z003.0000   F2100
G0   X087.5867   Y044.6265   Z000.0000   F210
G0   X087.8340   Y045.1342   Z000.0000   F720
G0   X088.5940   Y046.4935   Z000.0000   F720
G0   X088.5940   Y046.4935   Z003.0000   F500

;Begin Line: layer=0 line=2
G0   X086.0192   Y048.7103   Z003.0000   F2100
G0   X086.0192   Y048.7103   Z000.0000   F210
G0   X085.4553   Y048.0531   Z000.0000   F720
G0   X084.7489   Y047.1851   Z000.0000   F720
G0   X084.7489   Y047.1851   Z003.0000   F500

;Begin Line: layer=0 line=3
G0   X084.7489   Y046.7370   Z003.0000   F2100
G0   X084.7489   Y046.7370   Z000.0000   F210
G0   X085.2571   Y047.3746   Z000.0000   F720
G0   X086.9725   Y049.3761   Z000.0000   F720
G0   X087.5455   Y050.0920   Z000.0000   F720
G0   X087.5455   Y050.0920   Z003.0000   F500

;Begin Line: layer=0 line=4
G0   X089.1705   Y049.6746   Z003.0000   F2100
G0   X089.1705   Y049.6746   Z000.0000   F210
G0   X088.8277   Y049.0283   Z000.0000   F720
G0   X088.5344   Y048.5370   Z000.0000   F720
G0   X087.9799   Y047.7596   Z000.0000   F720
G0   X086.5471   Y045.9424   Z000.0000   F720
G0   X086.0831   Y045.2953   Z000.0000   F720
G0   X085.7751   Y044.8251   Z000.0000   F720
G0   X085.3141   Y043.9890   Z000.0000   F720
G0   X084.9324   Y043.1919   Z000.0000   F720
G0   X084.7489   Y042.7452   Z000.0000   F720
G0   X084.7489   Y042.7452   Z003.0000   F500

;Begin Line: layer=0 line=5
G0   X084.7489   Y042.2615   Z003.0000   F2100
G0   X084.7489   Y042.2615   Z000.0000   F210
G0   X084.8595   Y042.5663   Z000.0000   F720
G0   X085.3480   Y043.7110   Z000.0000   F720
G0   X085.6735   Y044.3401   Z000.0000   F720
G0   X086.0633   Y045.0022   Z000.0000   F720
G0   X086.6389   Y045.8540   Z000.0000   F720
G0   X088.1964   Y047.8584   Z000.0000   F720
G0   X088.5005   Y048.3102   Z000.0000   F720
G0   X088.9689   Y049.0804   Z000.0000   F720
G0   X089.2490   Y049.6370   Z000.0000   F720
G0   X089.6574   Y050.5558   Z000.0000   F720
G0   X090.0011   Y051.4723   Z000.0000   F720
G0   X090.2370   Y052.1899   Z000.0000   F720
G0   X090.2370   Y052.1899   Z003.0000   F500

;Begin Line: layer=0 line=6
G0   X090.4778   Y052.1117   Z003.0000   F2100
G0   X090.4778   Y052.1117   Z000.0000   F210
G0   X090.1788   Y051.0924   Z000.0000   F720
G0   X089.9735   Y050.4539   Z000.0000   F720
G0   X089.7254   Y049.7667   Z000.0000   F720
G0   X089.3467   Y048.8996   Z000.0000   F720
G0   X089.1143   Y048.4232   Z000.0000   F720
G0   X088.6573   Y047.6403   Z000.0000   F720
G0   X088.3166   Y047.1090   Z000.0000   F720
G0   X087.1427   Y045.3796   Z000.0000   F720
G0   X086.6783   Y044.5885   Z000.0000   F720
G0   X086.2352   Y043.6537   Z000.0000   F720
G0   X085.9533   Y042.9679   Z000.0000   F720
G0   X085.6994   Y042.2510   Z000.0000   F720
G0   X085.5957   Y041.8862   Z000.0000   F720
G0   X085.5957   Y041.8862   Z003.0000   F500

;Begin Line: layer=0 line=7
G0   X082.1239   Y040.6930   Z003.0000   F2100
G0   X082.1239   Y040.6930   Z000.0000   F210
G0   X081.7934   Y039.8335   Z000.0000   F720
G0   X081.3922   Y038.7255   Z000.0000   F720
G0   X081.3922   Y038.7255   Z003.0000   F500

;Begin Line: layer=0 line=8
G0   X081.0268   Y038.8443   Z003.0000   F2100
G0   X081.0268   Y038.8443   Z000.0000   F210
G0   X081.7137   Y040.5209   Z000.0000   F720
G0   X082.1239   Y041.4621   Z000.0000   F720
G0   X082.1239   Y041.4621   Z003.0000   F500

;Begin Line: layer=0 line=9
G0   X082.1239   Y041.8874   Z003.0000   F2100
G0   X082.1239   Y041.8874   Z000.0000   F210
G0   X081.9704   Y041.5757   Z000.0000   F720
G0   X080.7906   Y038.9210   Z000.0000   F720
G0   X080.7906   Y038.9210   Z003.0000   F500

;Begin Line: layer=0 line=10
G0   X082.1239   Y039.4939   Z003.0000   F2100
G0   X082.1239   Y039.4939   Z000.0000   F210
G0   X081.8341   Y038.5820   Z000.0000   F720
G0   X081.8036   Y038.5919   Z000.0000   F720
G0   X082.1239   Y039.5879   Z000.0000   F720
G0   X082.1239   Y039.5879   Z003.0000   F500

;Begin Line: layer=0 line=11
G0   X081.2500   Y040.3801   Z003.0000   F2100
G0   X081.2500   Y040.3801   Z000.0000   F210
G0   X080.5974   Y038.9838   Z000.0000   F720
G0   X080.5974   Y038.9838   Z003.0000   F500

;Begin Line: layer=0 line=12
G0   X080.4051   Y039.0463   Z003.0000   F2100
G0   X080.4051   Y039.0463   Z000.0000   F210
G0   X082.1239   Y042.5150   Z000.0000   F720
G0   X082.1239   Y042.5150   Z003.0000   F500

;Begin Line: layer=0 line=13
G0   X082.1239   Y043.1889   Z003.0000   F2100
G0   X082.1239   Y043.1889   Z000.0000   F210
G0   X079.9556   Y039.1923   Z000.0000   F720
G0   X079.9556   Y039.1923   Z003.0000   F500

;Begin Line: layer=0 line=14
G0   X079.5131   Y039.3361   Z003.0000   F2100
G0   X079.5131   Y039.3361   Z000.0000   F210
G0   X080.0228   Y040.1797   Z000.0000   F720
G0   X080.6811   Y041.3031   Z000.0000   F720
G0   X081.4479   Y042.6614   Z000.0000   F720
G0   X082.1239   Y043.7904   Z000.0000   F720
G0   X082.1239   Y043.7904   Z003.0000   F500

;Begin Line: layer=0 line=15
G0   X082.1239   Y044.3507   Z003.0000   F2100
G0   X082.1239   Y044.3507   Z000.0000   F210
G0   X081.5879   Y043.5205   Z000.0000   F720
G0   X080.3706   Y041.4924   Z000.0000   F720
G0   X079.0844   Y039.4754   Z000.0000   F720
G0   X079.0844   Y039.4754   Z003.0000   F500

;Begin Line: layer=0 line=16
G0   X078.8914   Y039.5381   Z003.0000   F2100
G0   X078.8914   Y039.5381   Z000.0000   F210
G0   X079.9257   Y041.1094   Z000.0000   F720
G0   X081.4402   Y043.5948   Z000.0000   F720
G0   X082.1239   Y044.6351   Z000.0000   F720
G0   X082.1239   Y044.6351   Z003.0000   F500

;Begin Line: layer=0 line=17
G0   X079.0893   Y044.9795   Z003.0000   F2100
G0   X079.0893   Y044.9795   Z000.0000   F210
G0   X076.5159   Y041.9219   Z000.0000   F720
G0   X075.4687   Y040.6502   Z000.0000   F720
G0   X075.4687   Y040.6502   Z003.0000   F500

;Begin Line: layer=0 line=18
G0   X075.9049   Y040.5085   Z003.0000   F2100
G0   X075.9049   Y040.5085   Z000.0000   F210
G0   X078.6435   Y043.9414   Z000.0000   F720
G0   X079.9159   Y045.4907   Z000.0000   F720
G0   X079.9159   Y045.4907   Z003.0000   F500

;Begin Line: layer=0 line=19
G0   X082.1239   Y045.7802   Z003.0000   F2100
G0   X082.1239   Y045.7802   Z000.0000   F210
G0   X080.9810   Y044.2095   Z000.0000   F720
G0   X079.3137   Y041.7201   Z000.0000   F720
G0   X077.9969   Y039.8287   Z000.0000   F720
G0   X077.9969   Y039.8287   Z003.0000   F500

;Begin Line: layer=0 line=20
G0   X077.8351   Y039.8813   Z003.0000   F2100
G0   X077.8351   Y039.8813   Z000.0000   F210
G0   X079.5746   Y042.3682   Z000.0000   F720
G0   X080.5502   Y043.8310   Z000.0000   F720
G0   X081.4936   Y045.1488   Z000.0000   F720
G0   X082.1239   Y045.9918   Z000.0000   F720
G0   X082.1239   Y045.9918   Z003.0000   F500

;Begin Line: layer=0 line=21
G0   X084.7489   Y046.3461   Z003.0000   F2100
G0   X084.7489   Y046.3461   Z000.0000   F210
G0   X084.8783   Y046.5250   Z000.0000   F720
G0   X084.8783   Y046.5250   Z003.0000   F500

;Begin Line: layer=0 line=22
G0   X085.4489   Y046.2698   Z003.0000   F2100
G0   X085.4489   Y046.2698   Z000.0000   F210
G0   X085.0255   Y045.7006   Z000.0000   F720
G0   X084.7489   Y045.2698   Z000.0000   F720
G0   X084.7489   Y045.2698   Z003.0000   F500

;Begin Line: layer=0 line=23
G0   X084.7489   Y045.6270   Z003.0000   F2100
G0   X084.7489   Y045.6270   Z000.0000   F210
G0   X085.2666   Y046.3419   Z000.0000   F720
G0   X085.9369   Y047.1697   Z000.0000   F720
G0   X087.0380   Y048.4245   Z000.0000   F720
G0   X087.4845   Y048.9636   Z000.0000   F720
G0   X087.8469   Y049.4414   Z000.0000   F720
G0   X088.3971   Y050.2350   Z000.0000   F720
G0   X088.8320   Y050.9643   Z000.0000   F720
G0   X089.1647   Y051.5893   Z000.0000   F720
G0   X089.5604   Y052.4098   Z000.0000   F720
G0   X089.5604   Y052.4098   Z003.0000   F500

;Begin Line: layer=0 line=24
G0   X090.0484   Y052.2512   Z003.0000   F2100
G0   X090.0484   Y052.2512   Z000.0000   F210
G0   X089.7345   Y051.4058   Z000.0000   F720
G0   X089.3949   Y050.5994   Z000.0000   F720
G0   X089.0555   Y049.8889   Z000.0000   F720
G0   X088.7942   Y049.3961   Z000.0000   F720
G0   X088.3853   Y048.7361   Z000.0000   F720
G0   X087.9492   Y048.1248   Z000.0000   F720
G0   X086.2403   Y046.0416   Z000.0000   F720
G0   X085.6843   Y045.2629   Z000.0000   F720
G0   X085.1905   Y044.4533   Z000.0000   F720
G0   X085.1905   Y044.4533   Z003.0000   F500

;Begin Line: layer=0 line=25
G0   X084.7489   Y044.3691   Z003.0000   F2100
G0   X084.7489   Y044.3691   Z000.0000   F210
G0   X084.9116   Y044.6683   Z000.0000   F720
G0   X085.4325   Y045.4888   Z000.0000   F720
G0   X086.0731   Y046.3577   Z000.0000   F720
G0   X087.6016   Y048.1585   Z000.0000   F720
G0   X087.9837   Y048.6557   Z000.0000   F720
G0   X088.4678   Y049.3542   Z000.0000   F720
G0   X088.9109   Y050.1049   Z000.0000   F720
G0   X089.2476   Y050.7735   Z000.0000   F720
G0   X089.6055   Y051.5678   Z000.0000   F720
G0   X089.9027   Y052.2985   Z000.0000   F720
G0   X089.9027   Y052.2985   Z003.0000   F500

;Begin Line: layer=0 line=26
G0   X088.8230   Y052.6493   Z003.0000   F2100
G0   X088.8230   Y052.6493   Z000.0000   F210
G0   X088.1944   Y051.7312   Z000.0000   F720
G0   X087.7561   Y051.1317   Z000.0000   F720
G0   X087.2301   Y050.4490   Z000.0000   F720
G0   X084.7489   Y047.4502   Z000.0000   F720
G0   X084.7489   Y047.4502   Z003.0000   F500

;Begin Line: layer=0 line=27
G0   X084.7489   Y047.6005   Z003.0000   F2100
G0   X084.7489   Y047.6005   Z000.0000   F210
G0   X086.8649   Y050.1437   Z000.0000   F720
G0   X087.8339   Y051.3821   Z000.0000   F720
G0   X088.2643   Y051.9668   Z000.0000   F720
G0   X088.2643   Y051.9668   Z003.0000   F500

;Begin Line: layer=0 line=28
G0   X088.5334   Y052.7435   Z003.0000   F2100
G0   X088.5334   Y052.7435   Z000.0000   F210
G0   X088.0457   Y052.1046   Z000.0000   F720
G0   X087.0240   Y050.8221   Z000.0000   F720
G0   X084.7489   Y048.0484   Z000.0000   F720
G0   X084.7489   Y048.0484   Z003.0000   F500

;Begin Line: layer=0 line=29
G0   X084.7489   Y049.5191   Z003.0000   F2100
G0   X084.7489   Y049.5191   Z000.0000   F210
G0   X085.8743   Y050.9478   Z000.0000   F720
G0   X086.6271   Y051.8401   Z000.0000   F720
G0   X087.7185   Y053.0082   Z000.0000   F720
G0   X087.7185   Y053.0082   Z003.0000   F500

;Begin Line: layer=0 line=30
G0   X087.4348   Y053.1004   Z003.0000   F2100
G0   X087.4348   Y053.1004   Z000.0000   F210
G0   X086.9578   Y052.6236   Z000.0000   F720
G0   X086.1371   Y051.7259   Z000.0000   F720
G0   X086.1371   Y051.7259   Z003.0000   F500

;Begin Line: layer=0 line=31
G0   X084.7489   Y052.3558   Z003.0000   F2100
G0   X084.7489   Y052.3558   Z000.0000   F210
G0   X085.2920   Y052.9709   Z000.0000   F720
G0   X085.9184   Y053.5931   Z000.0000   F720
G0   X085.9184   Y053.5931   Z003.0000   F500

;Begin Line: layer=0 line=32
G0   X084.7489   Y053.2596   Z003.0000   F2100
G0   X084.7489   Y053.2596   Z000.0000   F210
G0   X085.0295   Y053.5815   Z000.0000   F720
G0   X085.2589   Y053.8074   Z000.0000   F720
G0   X085.2589   Y053.8074   Z003.0000   F500

;Begin Line: layer=0 line=33
G0   X085.3781   Y056.4105   Z003.0000   F2100
G0   X085.3781   Y056.4105   Z000.0000   F210
G0   X091.1159   Y064.3080   Z000.0000   F720
G0   X100.4000   Y067.3246   Z000.0000   F720
G0   X100.4000   Y051.5296   Z000.0000   F720
G0   X085.3781   Y056.4105   Z000.0000   F720
G0   X085.3781   Y056.4105   Z003.0000   F500

;Begin Line: layer=0 line=34
G0   X083.2934   Y058.2095   Z003.0000   F2100
G0   X083.2934   Y058.2095   Z000.0000   F210
G0   X085.2438   Y060.5001   Z000.0000   F720
G0   X085.2438   Y060.5001   Z003.0000   F500

;Begin Line: layer=0 line=35
G0   X086.5112   Y062.2447   Z003.0000   F2100
G0   X086.5112   Y062.2447   Z000.0000   F210
G0   X085.1150   Y060.6559   Z000.0000   F720
G0   X083.1823   Y058.3623   Z000.0000   F720
G0   X083.1823   Y058.3623   Z003.0000   F500

;Begin Line: layer=0 line=36
G0   X082.9049   Y058.7442   Z003.0000   F2100
G0   X082.9049   Y058.7442   Z000.0000   F210
G0   X084.9656   Y061.2689   Z000.0000   F720
G0   X086.0016   Y062.4714   Z000.0000   F720
G0   X086.6824   Y063.1907   Z000.0000   F720
G0   X088.6681   Y065.2133   Z000.0000   F720
G0   X088.6681   Y065.2133   Z003.0000   F500

;Begin Line: layer=0 line=37
G0   X089.7679   Y062.2612   Z003.0000   F2100
G0   X089.7679   Y062.2612   Z000.0000   F210
G0   X090.9873   Y063.7161   Z000.0000   F720
G0   X091.4574   Y064.3006   Z000.0000   F720
G0   X091.4574   Y064.3006   Z003.0000   F500

;Begin Line: layer=0 line=38
G0   X091.1991   Y064.2167   Z003.0000   F2100
G0   X091.1991   Y064.2167   Z000.0000   F210
G0   X091.1097   Y064.1080   Z000.0000   F720
G0   X091.1097   Y064.1080   Z003.0000   F500

;Begin Line: layer=0 line=39
G0   X091.1485   Y063.0261   Z003.0000   F2100
G0   X091.1485   Y063.0261   Z000.0000   F210
G0   X092.3859   Y064.6023   Z000.0000   F720
G0   X092.3859   Y064.6023   Z003.0000   F500

;Begin Line: layer=0 line=40
G0   X093.7023   Y065.0301   Z003.0000   F2100
G0   X093.7023   Y065.0301   Z000.0000   F210
G0   X091.9870   Y062.7440   Z000.0000   F720
G0   X089.1455   Y058.7439   Z000.0000   F720
G0   X088.6183   Y058.0649   Z000.0000   F720
G0   X087.8231   Y057.1390   Z000.0000   F720
G0   X087.8231   Y057.1390   Z003.0000   F500

;Begin Line: layer=0 line=41
G0   X090.6551   Y057.3133   Z003.0000   F2100
G0   X090.6551   Y057.3133   Z000.0000   F210
G0   X089.8327   Y055.8009   Z000.0000   F720
G0   X089.4753   Y055.1975   Z000.0000   F720
G0   X089.4753   Y055.1975   Z003.0000   F500

;Begin Line: layer=0 line=42
G0   X088.9463   Y055.3694   Z003.0000   F2100
G0   X088.9463   Y055.3694   Z000.0000   F210
G0   X089.0880   Y055.5513   Z000.0000   F720
G0   X089.6233   Y056.3332   Z000.0000   F720
G0   X090.1272   Y057.1525   Z000.0000   F720
G0   X090.8930   Y058.4962   Z000.0000   F720
G0   X092.0923   Y060.6959   Z000.0000   F720
G0   X092.6878   Y061.7157   Z000.0000   F720
G0   X093.0917   Y062.3691   Z000.0000   F720
G0   X093.8845   Y063.5470   Z000.0000   F720
G0   X094.9088   Y064.9987   Z000.0000   F720
G0   X095.2537   Y065.5341   Z000.0000   F720
G0   X095.2537   Y065.5341   Z003.0000   F500

;Begin Line: layer=0 line=43
G0   X095.4205   Y065.5883   Z003.0000   F2100
G0   X095.4205   Y065.5883   Z000.0000   F210
G0   X095.1009   Y065.0720   Z000.0000   F720
G0   X094.7424   Y064.5421   Z000.0000   F720
G0   X093.7788   Y063.1614   Z000.0000   F720
G0   X093.3525   Y062.5111   Z000.0000   F720
G0   X092.9700   Y061.8904   Z000.0000   F720
G0   X092.2007   Y060.5306   Z000.0000   F720
G0   X090.5882   Y057.4672   Z000.0000   F720
G0   X089.7682   Y056.0142   Z000.0000   F720
G0   X089.2963   Y055.2557   Z000.0000   F720
G0   X089.2963   Y055.2557   Z003.0000   F500

;Begin Line: layer=0 line=44
G0   X090.1271   Y054.9857   Z003.0000   F2100
G0   X090.1271   Y054.9857   Z000.0000   F210
G0   X092.0259   Y059.1235   Z000.0000   F720
G0   X092.5744   Y060.2663   Z000.0000   F720
G0   X093.1176   Y061.3291   Z000.0000   F720
G0   X093.5251   Y062.0766   Z000.0000   F720
G0   X093.8528   Y062.6251   Z000.0000   F720
G0   X094.9375   Y064.2671   Z000.0000   F720
G0   X094.9375   Y064.2671   Z003.0000   F500

;Begin Line: layer=0 line=45
G0   X094.3150   Y065.2291   Z003.0000   F2100
G0   X094.3150   Y065.2291   Z000.0000   F210
G0   X092.7461   Y063.0996   Z000.0000   F720
G0   X092.1956   Y062.3217   Z000.0000   F720
G0   X091.7078   Y061.6023   Z000.0000   F720
G0   X089.6837   Y058.4943   Z000.0000   F720
G0   X089.0075   Y057.5726   Z000.0000   F720
