;Generated with vpype gwrite fabian
G90 ; Use absolute position
G92 X0 Y0 Z0 ; Set the current position as (0,0,0)
G0   X000.0000   Y000.0000   Z003.0000   F500

;Begin Line: layer=0 line=0
G0   X145.2860   Y083.9819   Z003.0000   F2100
G0   X145.2860   Y083.9819   Z000.0000   F210
G0   X144.6255   Y084.1560   Z000.0000   F720
G0   X143.6224   Y084.4811   Z000.0000   F720
G0   X142.8399   Y084.7961   Z000.0000   F720
G0   X142.2477   Y085.0706   Z000.0000   F720
G0   X141.4058   Y085.5032   Z000.0000   F720
G0   X140.5309   Y086.0248   Z000.0000   F720
G0   X140.5309   Y086.0248   Z003.0000   F500

;Begin Line: layer=0 line=1
G0   X134.6670   Y090.3979   Z003.0000   F2100
G0   X134.6670   Y090.3979   Z000.0000   F210
G0   X133.4712   Y090.5941   Z000.0000   F720
G0   X132.3018   Y090.6651   Z000.0000   F720
G0   X132.3018   Y090.6651   Z003.0000   F500

;Begin Line: layer=0 line=2
G0   X132.3018   Y090.1238   Z003.0000   F2100
G0   X132.3018   Y090.1238   Z000.0000   F210
G0   X133.2579   Y090.0426   Z000.0000   F720
G0   X134.6024   Y089.8088   Z000.0000   F720
G0   X135.6606   Y089.5485   Z000.0000   F720
G0   X136.9491   Y089.1710   Z000.0000   F720
G0   X138.1553   Y088.7715   Z000.0000   F720
G0   X139.1338   Y088.3780   Z000.0000   F720
G0   X140.0901   Y087.9127   Z000.0000   F720
G0   X141.1643   Y087.3631   Z000.0000   F720
G0   X142.0679   Y086.9465   Z000.0000   F720
G0   X142.6610   Y086.6964   Z000.0000   F720
G0   X143.5750   Y086.3518   Z000.0000   F720
G0   X144.5594   Y086.0158   Z000.0000   F720
G0   X145.2041   Y085.8093   Z000.0000   F720
G0   X146.3729   Y085.4779   Z000.0000   F720
G0   X146.3729   Y085.4779   Z003.0000   F500

;Begin Line: layer=0 line=3
G0   X146.0906   Y085.0894   Z003.0000   F2100
G0   X146.0906   Y085.0894   Z000.0000   F210
G0   X145.7353   Y085.1832   Z000.0000   F720
G0   X145.7353   Y085.1832   Z003.0000   F500

;Begin Line: layer=0 line=4
G0   X145.9925   Y084.9543   Z003.0000   F2100
G0   X145.9925   Y084.9543   Z000.0000   F210
G0   X145.5452   Y085.0694   Z000.0000   F720
G0   X144.7374   Y085.3143   Z000.0000   F720
G0   X144.0841   Y085.5383   Z000.0000   F720
G0   X143.2736   Y085.8422   Z000.0000   F720
G0   X142.2904   Y086.2511   Z000.0000   F720
G0   X141.4609   Y086.6506   Z000.0000   F720
G0   X140.4415   Y087.2101   Z000.0000   F720
G0   X139.5599   Y087.7298   Z000.0000   F720
G0   X138.7377   Y088.1673   Z000.0000   F720
G0   X137.6136   Y088.6592   Z000.0000   F720
G0   X136.5785   Y089.0121   Z000.0000   F720
G0   X135.2336   Y089.4126   Z000.0000   F720
G0   X134.0896   Y089.6737   Z000.0000   F720
G0   X132.8693   Y089.8552   Z000.0000   F720
G0   X132.3018   Y089.9008   Z000.0000   F720
G0   X132.3018   Y089.9008   Z003.0000   F500

;Begin Line: layer=0 line=5
G0   X132.3018   Y088.9786   Z003.0000   F2100
G0   X132.3018   Y088.9786   Z000.0000   F210
G0   X133.6249   Y088.7808   Z000.0000   F720
G0   X135.0126   Y088.4492   Z000.0000   F720
G0   X135.9664   Y088.1651   Z000.0000   F720
G0   X136.6920   Y087.9077   Z000.0000   F720
G0   X137.7557   Y087.3802   Z000.0000   F720
G0   X138.6137   Y086.8273   Z000.0000   F720
G0   X140.1076   Y085.7647   Z000.0000   F720
G0   X140.5813   Y085.4469   Z000.0000   F720
G0   X141.2816   Y085.0276   Z000.0000   F720
G0   X142.1763   Y084.5703   Z000.0000   F720
G0   X142.8328   Y084.2725   Z000.0000   F720
G0   X143.6129   Y083.9711   Z000.0000   F720
G0   X144.3788   Y083.7260   Z000.0000   F720
G0   X144.9818   Y083.5632   Z000.0000   F720
G0   X144.9818   Y083.5632   Z003.0000   F500

;Begin Line: layer=0 line=6
G0   X144.7520   Y083.2469   Z003.0000   F2100
G0   X144.7520   Y083.2469   Z000.0000   F210
G0   X144.4770   Y083.3112   Z000.0000   F720
G0   X143.6327   Y083.5552   Z000.0000   F720
G0   X142.9802   Y083.7922   Z000.0000   F720
G0   X142.2989   Y084.0800   Z000.0000   F720
G0   X141.5087   Y084.4611   Z000.0000   F720
G0   X140.9898   Y084.7491   Z000.0000   F720
G0   X140.3639   Y085.1294   Z000.0000   F720
G0   X139.8679   Y085.4628   Z000.0000   F720
G0   X138.0823   Y086.7389   Z000.0000   F720
G0   X137.2957   Y087.2105   Z000.0000   F720
G0   X136.5858   Y087.5378   Z000.0000   F720
G0   X135.5298   Y087.9230   Z000.0000   F720
G0   X134.4775   Y088.2153   Z000.0000   F720
G0   X133.0681   Y088.5190   Z000.0000   F720
G0   X132.3018   Y088.6343   Z000.0000   F720
G0   X132.3018   Y088.6343   Z003.0000   F500

;Begin Line: layer=0 line=7
G0   X132.3018   Y085.7971   Z003.0000   F2100
G0   X132.3018   Y085.7971   Z000.0000   F210
G0   X132.8562   Y085.6422   Z000.0000   F720
G0   X134.0490   Y085.2528   Z000.0000   F720
G0   X134.8548   Y084.9523   Z000.0000   F720
G0   X135.7581   Y084.5561   Z000.0000   F720
G0   X138.8476   Y082.9448   Z000.0000   F720
G0   X139.7084   Y082.5501   Z000.0000   F720
G0   X140.5679   Y082.1965   Z000.0000   F720
G0   X141.2726   Y081.9355   Z000.0000   F720
G0   X141.9823   Y081.7058   Z000.0000   F720
G0   X142.9964   Y081.4483   Z000.0000   F720
G0   X143.3888   Y081.3707   Z000.0000   F720
G0   X143.3888   Y081.3707   Z003.0000   F500

;Begin Line: layer=0 line=8
G0   X142.9723   Y080.7973   Z003.0000   F2100
G0   X142.9723   Y080.7973   Z000.0000   F210
G0   X142.0465   Y081.0048   Z000.0000   F720
G0   X141.0925   Y081.2785   Z000.0000   F720
G0   X139.7033   Y081.7941   Z000.0000   F720
G0   X139.7033   Y081.7941   Z003.0000   F500

;Begin Line: layer=0 line=9
G0   X137.3903   Y080.4400   Z003.0000   F2100
G0   X137.3903   Y080.4400   Z000.0000   F210
G0   X138.7115   Y079.7748   Z000.0000   F720
G0   X139.9537   Y079.1891   Z000.0000   F720
G0   X140.8983   Y078.8226   Z000.0000   F720
G0   X141.4210   Y078.6622   Z000.0000   F720
G0   X141.4210   Y078.6622   Z003.0000   F500

;Begin Line: layer=0 line=10
G0   X141.3243   Y078.5291   Z003.0000   F2100
G0   X141.3243   Y078.5291   Z000.0000   F210
G0   X140.5864   Y078.7688   Z000.0000   F720
G0   X139.7293   Y079.1271   Z000.0000   F720
G0   X138.4676   Y079.7436   Z000.0000   F720
G0   X136.5368   Y080.7354   Z000.0000   F720
G0   X135.4555   Y081.2685   Z000.0000   F720
G0   X134.5883   Y081.6706   Z000.0000   F720
G0   X133.6759   Y082.0672   Z000.0000   F720
G0   X132.3018   Y082.6344   Z000.0000   F720
G0   X132.3018   Y082.6344   Z003.0000   F500

;Begin Line: layer=0 line=11
G0   X132.3018   Y082.1064   Z003.0000   F2100
G0   X132.3018   Y082.1064   Z000.0000   F210
G0   X133.8330   Y081.4356   Z000.0000   F720
G0   X134.5651   Y081.0922   Z000.0000   F720
G0   X135.5724   Y080.5879   Z000.0000   F720
G0   X135.5724   Y080.5879   Z003.0000   F500

;Begin Line: layer=0 line=12
G0   X135.8136   Y080.5754   Z003.0000   F2100
G0   X135.8136   Y080.5754   Z000.0000   F210
G0   X138.9778   Y078.8479   Z000.0000   F720
G0   X139.8286   Y078.4375   Z000.0000   F720
G0   X140.9427   Y078.0039   Z000.0000   F720
G0   X140.9427   Y078.0039   Z003.0000   F500

;Begin Line: layer=0 line=13
G0   X140.1656   Y076.9343   Z003.0000   F2100
G0   X140.1656   Y076.9343   Z000.0000   F210
G0   X139.2458   Y077.3146   Z000.0000   F720
G0   X138.4013   Y077.7271   Z000.0000   F720
G0   X137.6544   Y078.1538   Z000.0000   F720
G0   X135.8315   Y079.3489   Z000.0000   F720
G0   X134.7526   Y080.0177   Z000.0000   F720
G0   X134.0610   Y080.4112   Z000.0000   F720
G0   X133.2428   Y080.8445   Z000.0000   F720
G0   X132.6270   Y081.1483   Z000.0000   F720
G0   X132.6270   Y081.1483   Z003.0000   F500

;Begin Line: layer=0 line=14
G0   X132.1893   Y081.5594   Z003.0000   F2100
G0   X132.1893   Y081.5594   Z000.0000   F210
G0   X137.9272   Y073.6619   Z000.0000   F720
G0   X147.2112   Y086.4404   Z000.0000   F720
G0   X132.1893   Y091.3213   Z000.0000   F720
G0   X132.1893   Y081.5594   Z000.0000   F720
G0   X132.1893   Y081.5594   Z003.0000   F500

;Begin Line: layer=0 line=15
G0   X133.6662   Y079.7180   Z003.0000   F2100
G0   X133.6662   Y079.7180   Z000.0000   F210
G0   X134.7588   Y078.9769   Z000.0000   F720
G0   X136.6353   Y077.5735   Z000.0000   F720
G0   X137.2683   Y077.1432   Z000.0000   F720
G0   X137.8083   Y076.8104   Z000.0000   F720
G0   X138.3806   Y076.4951   Z000.0000   F720
G0   X139.4722   Y075.9799   Z000.0000   F720
G0   X139.4722   Y075.9799   Z003.0000   F500

;Begin Line: layer=0 line=16
G0   X139.2555   Y075.6816   Z003.0000   F2100
G0   X139.2555   Y075.6816   Z000.0000   F210
G0   X138.3634   Y076.1310   Z000.0000   F720
G0   X137.7946   Y076.4503   Z000.0000   F720
G0   X137.3842   Y076.7062   Z000.0000   F720
G0   X136.8870   Y077.0403   Z000.0000   F720
G0   X136.2351   Y077.5142   Z000.0000   F720
G0   X134.6610   Y078.7358   Z000.0000   F720
G0   X134.0653   Y079.1687   Z000.0000   F720
G0   X134.0653   Y079.1687   Z003.0000   F500

;Begin Line: layer=0 line=17
G0   X134.2942   Y078.8537   Z003.0000   F2100
G0   X134.2942   Y078.8537   Z000.0000   F210
G0   X136.3744   Y077.2239   Z000.0000   F720
G0   X136.7749   Y076.9259   Z000.0000   F720
G0   X137.2979   Y076.5662   Z000.0000   F720
G0   X137.9813   Y076.1497   Z000.0000   F720
G0   X138.5219   Y075.8488   Z000.0000   F720
G0   X139.1448   Y075.5293   Z000.0000   F720
G0   X139.1448   Y075.5293   Z003.0000   F500

;Begin Line: layer=0 line=18
G0   X138.8410   Y075.1111   Z003.0000   F2100
G0   X138.8410   Y075.1111   Z000.0000   F210
G0   X137.9031   Y075.6657   Z000.0000   F720
G0   X137.3692   Y076.0151   Z000.0000   F720
G0   X136.7721   Y076.4380   Z000.0000   F720
G0   X136.3054   Y076.7970   Z000.0000   F720
G0   X135.0361   Y077.8325   Z000.0000   F720
G0   X135.0361   Y077.8325   Z003.0000   F500

;Begin Line: layer=0 line=19
G0   X135.6224   Y077.0256   Z003.0000   F2100
G0   X135.6224   Y077.0256   Z000.0000   F210
G0   X136.3779   Y076.3945   Z000.0000   F720
G0   X136.9902   Y075.9172   Z000.0000   F720
G0   X137.9649   Y075.2186   Z000.0000   F720
G0   X138.6106   Y074.7940   Z000.0000   F720
G0   X138.6106   Y074.7940   Z003.0000   F500

;Begin Line: layer=0 line=20
G0   X138.0804   Y074.0643   Z003.0000   F2100
G0   X138.0804   Y074.0643   Z000.0000   F210
G0   X137.1743   Y074.8895   Z000.0000   F720
G0   X137.1743   Y074.8895   Z003.0000   F500

;Begin Line: layer=0 line=21
G0   X136.4439   Y071.6204   Z003.0000   F2100
G0   X136.4439   Y071.6204   Z000.0000   F210
G0   X132.1893   Y077.4763   Z000.0000   F720
G0   X132.1893   Y065.7644   Z000.0000   F720
G0   X136.4439   Y071.6204   Z000.0000   F720
G0   X136.4439   Y071.6204   Z003.0000   F500

;Begin Line: layer=0 line=22
G0   X136.2587   Y071.6838   Z003.0000   F2100
G0   X136.2587   Y071.6838   Z000.0000   F210
G0   X136.2916   Y071.6022   Z000.0000   F720
G0   X136.2916   Y071.6022   Z003.0000   F500

;Begin Line: layer=0 line=23
G0   X135.9608   Y071.1469   Z003.0000   F2100
G0   X135.9608   Y071.1469   Z000.0000   F210
G0   X135.5100   Y072.7143   Z000.0000   F720
G0   X135.5100   Y072.7143   Z003.0000   F500

;Begin Line: layer=0 line=24
G0   X135.2188   Y072.2983   Z003.0000   F2100
G0   X135.2188   Y072.2983   Z000.0000   F210
G0   X135.0939   Y072.8712   Z000.0000   F720
G0   X134.9226   Y073.5228   Z000.0000   F720
G0   X134.9226   Y073.5228   Z003.0000   F500

;Begin Line: layer=0 line=25
G0   X134.6147   Y073.3139   Z003.0000   F2100
G0   X134.6147   Y073.3139   Z000.0000   F210
G0   X134.7033   Y072.8969   Z000.0000   F720
G0   X134.9687   Y071.2038   Z000.0000   F720
G0   X135.1260   Y070.5253   Z000.0000   F720
G0   X135.2530   Y070.1727   Z000.0000   F720
G0   X135.2530   Y070.1727   Z003.0000   F500

;Begin Line: layer=0 line=26
G0   X135.6477   Y070.9283   Z003.0000   F2100
G0   X135.6477   Y070.9283   Z000.0000   F210
G0   X135.6970   Y070.7838   Z000.0000   F720
G0   X135.6970   Y070.7838   Z003.0000   F500

;Begin Line: layer=0 line=27
G0   X135.3446   Y070.2987   Z003.0000   F2100
G0   X135.3446   Y070.2987   Z000.0000   F210
G0   X135.1314   Y071.0391   Z000.0000   F720
G0   X134.7543   Y073.1671   Z000.0000   F720
G0   X134.6428   Y073.5972   Z000.0000   F720
G0   X134.4654   Y074.1521   Z000.0000   F720
G0   X134.4654   Y074.1521   Z003.0000   F500

;Begin Line: layer=0 line=28
G0   X134.2721   Y074.2726   Z003.0000   F2100
G0   X134.2721   Y074.2726   Z000.0000   F210
G0   X134.4602   Y073.6515   Z000.0000   F720
G0   X134.6144   Y072.8701   Z000.0000   F720
G0   X134.8323   Y071.3180   Z000.0000   F720
G0   X134.9096   Y070.8737   Z000.0000   F720
G0   X135.0964   Y070.1767   Z000.0000   F720
G0   X135.1511   Y070.0325   Z000.0000   F720
G0   X135.1511   Y070.0325   Z003.0000   F500

;Begin Line: layer=0 line=29
G0   X134.2899   Y068.8471   Z003.0000   F2100
G0   X134.2899   Y068.8471   Z000.0000   F210
G0   X134.1373   Y069.1736   Z000.0000   F720
G0   X133.9905   Y069.6828   Z000.0000   F720
G0   X133.8640   Y070.3305   Z000.0000   F720
G0   X133.7818   Y071.3139   Z000.0000   F720
G0   X133.7210   Y072.7732   Z000.0000   F720
G0   X133.6639   Y073.4394   Z000.0000   F720
G0   X133.5719   Y074.0114   Z000.0000   F720
G0   X133.3986   Y074.7246   Z000.0000   F720
G0   X133.1717   Y075.3575   Z000.0000   F720
G0   X133.0124   Y075.7011   Z000.0000   F720
G0   X132.8158   Y076.0777   Z000.0000   F720
G0   X132.4546   Y076.6906   Z000.0000   F720
G0   X132.3018   Y076.9045   Z000.0000   F720
G0   X132.3018   Y076.9045   Z003.0000   F500

;Begin Line: layer=0 line=30
G0   X132.3018   Y075.6136   Z003.0000   F2100
G0   X132.3018   Y075.6136   Z000.0000   F210
G0   X132.4749   Y075.0692   Z000.0000   F720
G0   X132.5767   Y074.6521   Z000.0000   F720
G0   X132.6694   Y074.0026   Z000.0000   F720
G0   X132.7089   Y073.3209   Z000.0000   F720
G0   X132.6732   Y071.6587   Z000.0000   F720
G0   X132.6681   Y070.3533   Z000.0000   F720
G0   X132.7026   Y069.8058   Z000.0000   F720
G0   X132.7725   Y069.2603   Z000.0000   F720
G0   X132.9970   Y068.4099   Z000.0000   F720
G0   X133.1562   Y067.9535   Z000.0000   F720
G0   X133.3555   Y067.5610   Z000.0000   F720
G0   X133.3555   Y067.5610   Z003.0000   F500

;Begin Line: layer=0 line=31
G0   X132.3756   Y066.2122   Z003.0000   F2100
G0   X132.3756   Y066.2122   Z000.0000   F210
G0   X132.3018   Y066.3432   Z000.0000   F720
G0   X132.3018   Y066.3432   Z003.0000   F500

;Begin Line: layer=0 line=32
G0   X133.7934   Y068.1636   Z003.0000   F2100
G0   X133.7934   Y068.1636   Z000.0000   F210
G0   X133.6163   Y068.5522   Z000.0000   F720
G0   X133.4609   Y069.0460   Z000.0000   F720
G0   X133.2751   Y069.8807   Z000.0000   F720
G0   X133.1981   Y070.6639   Z000.0000   F720
G0   X133.1773   Y071.4930   Z000.0000   F720
G0   X133.1797   Y072.7753   Z000.0000   F720
G0   X133.1526   Y073.4527   Z000.0000   F720
G0   X133.0785   Y074.1313   Z000.0000   F720
G0   X133.0785   Y074.1313   Z003.0000   F500

;Begin Line: layer=0 line=33
G0   X128.0399   Y074.7738   Z003.0000   F2100
G0   X128.0399   Y074.7738   Z000.0000   F210
G0   X127.7999   Y075.3368   Z000.0000   F720
G0   X127.3535   Y076.2404   Z000.0000   F720
G0   X126.2239   Y078.2411   Z000.0000   F720
G0   X126.2239   Y078.2411   Z003.0000   F500

;Begin Line: layer=0 line=34
G0   X128.3368   Y078.9276   Z003.0000   F2100
G0   X128.3368   Y078.9276   Z000.0000   F210
G0   X129.1897   Y078.1667   Z000.0000   F720
G0   X129.6768   Y077.6686   Z000.0000   F720
G0   X129.6768   Y077.6686   Z003.0000   F500

;Begin Line: layer=0 line=35
G0   X129.6768   Y078.9212   Z003.0000   F2100
G0   X129.6768   Y078.9212   Z000.0000   F210
G0   X129.2638   Y079.2288   Z000.0000   F720
G0   X129.2638   Y079.2288   Z003.0000   F500

;Begin Line: layer=0 line=36
G0   X128.4758   Y081.7329   Z003.0000   F2100
G0   X128.4758   Y081.7329   Z000.0000   F210
G0   X127.4956   Y082.2194   Z000.0000   F720
G0   X124.9281   Y083.6044   Z000.0000   F720
G0   X124.2808   Y083.9271   Z000.0000   F720
G0   X123.5252   Y084.2713   Z000.0000   F720
G0   X122.4226   Y084.7259   Z000.0000   F720
G0   X122.4226   Y084.7259   Z003.0000   F500

;Begin Line: layer=0 line=37
G0   X120.7592   Y085.5619   Z003.0000   F2100
