;Generated with vpype gwrite fabian
G90 ; Use absolute position
G92 X0 Y0 Z0 ; Set the current position as (0,0,0)
G0   X000.0000   Y000.0000   Z003.0000   F500

;Begin Line: layer=0 line=0
G0   X092.9252   Y033.9697   Z003.0000   F2100
G0   X092.9252   Y033.9697   Z000.0000   F210
G0   X092.6336   Y032.5006   Z000.0000   F720
G0   X092.3889   Y031.0700   Z000.0000   F720
G0   X092.2472   Y029.9596   Z000.0000   F720
G0   X092.2472   Y029.9596   Z003.0000   F500

;Begin Line: layer=0 line=1
G0   X102.6703   Y029.9596   Z003.0000   F2100
G0   X102.6703   Y029.9596   Z000.0000   F210
G0   X102.7086   Y030.8393   Z000.0000   F720
G0   X102.8386   Y032.4136   Z000.0000   F720
G0   X102.8386   Y032.4136   Z003.0000   F500

;Begin Line: layer=0 line=2
G0   X101.7925   Y035.6330   Z003.0000   F2100
G0   X101.7925   Y035.6330   Z000.0000   F210
G0   X101.5734   Y034.4508   Z000.0000   F720
G0   X101.3969   Y033.1021   Z000.0000   F720
G0   X101.1398   Y030.8417   Z000.0000   F720
G0   X101.0746   Y029.9596   Z000.0000   F720
G0   X101.0746   Y029.9596   Z003.0000   F500

;Begin Line: layer=0 line=3
G0   X100.0392   Y029.9596   Z003.0000   F2100
G0   X100.0392   Y029.9596   Z000.0000   F210
G0   X100.1327   Y031.3459   Z000.0000   F720
G0   X100.2589   Y032.4079   Z000.0000   F720
G0   X100.4187   Y033.5961   Z000.0000   F720
G0   X100.7098   Y035.4019   Z000.0000   F720
G0   X100.9711   Y036.3982   Z000.0000   F720
G0   X101.2507   Y037.3005   Z000.0000   F720
G0   X101.2507   Y037.3005   Z003.0000   F500

;Begin Line: layer=0 line=4
G0   X100.5549   Y039.0150   Z003.0000   F2100
G0   X100.5549   Y039.0150   Z000.0000   F210
G0   X099.9606   Y037.3713   Z000.0000   F720
G0   X099.5690   Y036.1629   Z000.0000   F720
G0   X099.1939   Y034.5999   Z000.0000   F720
G0   X098.9202   Y033.0163   Z000.0000   F720
G0   X098.6953   Y031.3333   Z000.0000   F720
G0   X098.5715   Y029.9596   Z000.0000   F720
G0   X098.5715   Y029.9596   Z003.0000   F500

;Begin Line: layer=0 line=5
G0   X097.6109   Y029.9596   Z003.0000   F2100
G0   X097.6109   Y029.9596   Z000.0000   F210
G0   X097.8576   Y031.8589   Z000.0000   F720
G0   X098.0460   Y032.9599   Z000.0000   F720
G0   X098.3114   Y034.3307   Z000.0000   F720
G0   X098.7187   Y036.0065   Z000.0000   F720
G0   X099.1833   Y037.4127   Z000.0000   F720
G0   X099.9976   Y039.5564   Z000.0000   F720
G0   X099.9976   Y039.5564   Z003.0000   F500

;Begin Line: layer=0 line=6
G0   X099.7097   Y039.1697   Z003.0000   F2100
G0   X099.7097   Y039.1697   Z000.0000   F210
G0   X099.1971   Y037.8444   Z000.0000   F720
G0   X098.7780   Y036.6862   Z000.0000   F720
G0   X098.2747   Y034.8347   Z000.0000   F720
G0   X098.0096   Y033.6135   Z000.0000   F720
G0   X097.7527   Y032.2027   Z000.0000   F720
G0   X097.5408   Y030.8609   Z000.0000   F720
G0   X097.4482   Y029.9596   Z000.0000   F720
G0   X097.4072   Y029.9596   Z000.0000   F720
G0   X097.5887   Y031.3107   Z000.0000   F720
G0   X097.8130   Y032.6549   Z000.0000   F720
G0   X097.8130   Y032.6549   Z003.0000   F500

;Begin Line: layer=0 line=7
G0   X096.1551   Y032.5703   Z003.0000   F2100
G0   X096.1551   Y032.5703   Z000.0000   F210
G0   X096.4534   Y033.9888   Z000.0000   F720
G0   X096.7057   Y034.9998   Z000.0000   F720
G0   X097.0937   Y036.3070   Z000.0000   F720
G0   X097.7212   Y038.0298   Z000.0000   F720
G0   X098.7481   Y040.4642   Z000.0000   F720
G0   X098.7481   Y040.4642   Z003.0000   F500

;Begin Line: layer=0 line=8
G0   X098.0547   Y040.9680   Z003.0000   F2100
G0   X098.0547   Y040.9680   Z000.0000   F210
G0   X097.6158   Y040.0204   Z000.0000   F720
G0   X096.8709   Y038.2997   Z000.0000   F720
G0   X096.3058   Y036.8542   Z000.0000   F720
G0   X095.9413   Y035.7637   Z000.0000   F720
G0   X095.6768   Y034.8303   Z000.0000   F720
G0   X095.3268   Y033.2340   Z000.0000   F720
G0   X095.0939   Y032.0220   Z000.0000   F720
G0   X094.8784   Y030.7127   Z000.0000   F720
G0   X094.7985   Y029.9596   Z000.0000   F720
G0   X094.7985   Y029.9596   Z003.0000   F500

;Begin Line: layer=0 line=9
G0   X094.5681   Y029.9596   Z003.0000   F2100
G0   X094.5681   Y029.9596   Z000.0000   F210
G0   X094.7453   Y031.2341   Z000.0000   F720
G0   X094.9256   Y032.2751   Z000.0000   F720
G0   X095.1502   Y033.4308   Z000.0000   F720
G0   X095.4453   Y034.7580   Z000.0000   F720
G0   X095.7874   Y035.9906   Z000.0000   F720
G0   X096.3761   Y037.6945   Z000.0000   F720
G0   X096.9055   Y038.9451   Z000.0000   F720
G0   X097.4740   Y040.2234   Z000.0000   F720
G0   X097.8848   Y041.0914   Z000.0000   F720
G0   X097.8848   Y041.0914   Z003.0000   F500

;Begin Line: layer=0 line=10
G0   X094.7075   Y040.3827   Z003.0000   F2100
G0   X094.7075   Y040.3827   Z000.0000   F210
G0   X093.9297   Y038.7970   Z000.0000   F720
G0   X093.4405   Y037.6929   Z000.0000   F720
G0   X092.8484   Y035.9931   Z000.0000   F720
G0   X092.4641   Y034.6515   Z000.0000   F720
G0   X092.1054   Y033.1119   Z000.0000   F720
G0   X091.7643   Y031.3465   Z000.0000   F720
G0   X091.5328   Y029.9596   Z000.0000   F720
G0   X091.5328   Y029.9596   Z003.0000   F500

;Begin Line: layer=0 line=11
G0   X091.8626   Y029.9596   Z003.0000   F2100
G0   X091.8626   Y029.9596   Z000.0000   F210
G0   X092.1022   Y031.5017   Z000.0000   F720
G0   X092.4216   Y033.2014   Z000.0000   F720
G0   X092.6725   Y034.3137   Z000.0000   F720
G0   X093.0959   Y035.9290   Z000.0000   F720
G0   X093.5886   Y037.3796   Z000.0000   F720
G0   X094.0088   Y038.3715   Z000.0000   F720
G0   X094.5958   Y039.6211   Z000.0000   F720
G0   X095.2273   Y040.8552   Z000.0000   F720
G0   X096.0708   Y042.4094   Z000.0000   F720
G0   X096.0708   Y042.4094   Z003.0000   F500

;Begin Line: layer=0 line=12
G0   X097.2955   Y044.7643   Z003.0000   F2100
G0   X097.2955   Y044.7643   Z000.0000   F210
G0   X098.5832   Y047.4279   Z000.0000   F720
G0   X099.0147   Y048.4532   Z000.0000   F720
G0   X099.3915   Y049.4904   Z000.0000   F720
G0   X099.7715   Y050.6562   Z000.0000   F720
G0   X099.7715   Y050.6562   Z003.0000   F500

;Begin Line: layer=0 line=13
G0   X101.8143   Y051.0912   Z003.0000   F2100
G0   X101.8143   Y051.0912   Z000.0000   F210
G0   X101.2404   Y049.1611   Z000.0000   F720
G0   X100.6955   Y047.5276   Z000.0000   F720
G0   X099.9796   Y045.6437   Z000.0000   F720
G0   X099.4700   Y044.4284   Z000.0000   F720
G0   X099.0390   Y043.4975   Z000.0000   F720
G0   X099.0390   Y043.4975   Z003.0000   F500

;Begin Line: layer=0 line=14
G0   X099.1981   Y043.3819   Z003.0000   F2100
G0   X099.1981   Y043.3819   Z000.0000   F210
G0   X099.5041   Y044.0417   Z000.0000   F720
G0   X100.3172   Y045.9506   Z000.0000   F720
G0   X100.7401   Y047.1151   Z000.0000   F720
G0   X101.3837   Y049.0199   Z000.0000   F720
G0   X101.8938   Y050.7409   Z000.0000   F720
G0   X102.3977   Y052.5641   Z000.0000   F720
G0   X102.3977   Y052.5641   Z003.0000   F500

;Begin Line: layer=0 line=15
G0   X104.5312   Y052.6064   Z003.0000   F2100
G0   X104.5312   Y052.6064   Z000.0000   F210
G0   X103.9225   Y050.2809   Z000.0000   F720
G0   X103.4953   Y048.7718   Z000.0000   F720
G0   X102.3544   Y045.1524   Z000.0000   F720
G0   X101.7147   Y043.5666   Z000.0000   F720
G0   X101.0236   Y042.0556   Z000.0000   F720
G0   X101.0236   Y042.0556   Z003.0000   F500

;Begin Line: layer=0 line=16
G0   X099.8611   Y042.9002   Z003.0000   F2100
G0   X099.8611   Y042.9002   Z000.0000   F210
G0   X100.5895   Y044.5304   Z000.0000   F720
G0   X101.0129   Y045.6572   Z000.0000   F720
G0   X101.7007   Y047.7201   Z000.0000   F720
G0   X102.3731   Y049.9759   Z000.0000   F720
G0   X103.2455   Y053.1801   Z000.0000   F720
G0   X103.2455   Y053.1801   Z003.0000   F500

;Begin Line: layer=0 line=17
G0   X098.8350   Y053.2204   Z003.0000   F2100
G0   X098.8350   Y053.2204   Z000.0000   F210
G0   X099.4986   Y055.0540   Z000.0000   F720
G0   X100.1554   Y056.7239   Z000.0000   F720
G0   X100.1554   Y056.7239   Z003.0000   F500

;Begin Line: layer=0 line=18
G0   X101.0011   Y056.7239   Z003.0000   F2100
G0   X101.0011   Y056.7239   Z000.0000   F210
G0   X100.8796   Y056.4307   Z000.0000   F720
G0   X100.0658   Y054.1146   Z000.0000   F720
G0   X100.0658   Y054.1146   Z003.0000   F500

;Begin Line: layer=0 line=19
G0   X101.0815   Y054.8526   Z003.0000   F2100
G0   X101.0815   Y054.8526   Z000.0000   F210
G0   X101.2220   Y055.3095   Z000.0000   F720
G0   X101.5575   Y056.2451   Z000.0000   F720
G0   X101.5575   Y056.2451   Z003.0000   F500

;Begin Line: layer=0 line=20
G0   X102.0326   Y059.3489   Z003.0000   F2100
G0   X102.0326   Y059.3489   Z000.0000   F210
G0   X102.2894   Y060.0740   Z000.0000   F720
G0   X102.5405   Y060.8988   Z000.0000   F720
G0   X102.9498   Y062.3702   Z000.0000   F720
G0   X103.1807   Y063.4099   Z000.0000   F720
G0   X103.3423   Y064.3979   Z000.0000   F720
G0   X103.4212   Y065.1106   Z000.0000   F720
G0   X103.4876   Y065.9121   Z000.0000   F720
G0   X103.5537   Y067.1243   Z000.0000   F720
G0   X103.5592   Y067.8620   Z000.0000   F720
G0   X103.5331   Y068.6129   Z000.0000   F720
G0   X103.4557   Y069.3956   Z000.0000   F720
G0   X103.3443   Y070.0046   Z000.0000   F720
G0   X103.1617   Y070.7259   Z000.0000   F720
G0   X102.8828   Y071.5399   Z000.0000   F720
G0   X102.5976   Y072.1650   Z000.0000   F720
G0   X102.5976   Y072.1650   Z003.0000   F500

;Begin Line: layer=0 line=21
G0   X101.7616   Y071.8501   Z003.0000   F2100
G0   X101.7616   Y071.8501   Z000.0000   F210
G0   X102.0628   Y070.9274   Z000.0000   F720
G0   X102.1948   Y070.4330   Z000.0000   F720
G0   X102.3317   Y069.7596   Z000.0000   F720
G0   X102.4355   Y068.9600   Z000.0000   F720
G0   X102.4750   Y067.9489   Z000.0000   F720
G0   X102.4325   Y066.9177   Z000.0000   F720
G0   X102.3194   Y065.8784   Z000.0000   F720
G0   X102.1350   Y064.7164   Z000.0000   F720
G0   X101.9935   Y063.9542   Z000.0000   F720
G0   X101.6355   Y062.4935   Z000.0000   F720
G0   X101.3886   Y061.6059   Z000.0000   F720
G0   X101.1393   Y060.7833   Z000.0000   F720
G0   X100.7361   Y059.6166   Z000.0000   F720
G0   X100.6260   Y059.3489   Z000.0000   F720
G0   X100.6260   Y059.3489   Z003.0000   F500

;Begin Line: layer=0 line=22
G0   X101.2507   Y059.3489   Z003.0000   F2100
G0   X101.2507   Y059.3489   Z000.0000   F210
G0   X101.7130   Y060.6851   Z000.0000   F720
G0   X101.9714   Y061.5582   Z000.0000   F720
G0   X102.2657   Y062.6481   Z000.0000   F720
G0   X102.5961   Y064.1006   Z000.0000   F720
G0   X102.7314   Y064.9463   Z000.0000   F720
G0   X102.8466   Y065.8506   Z000.0000   F720
G0   X102.9071   Y066.5335   Z000.0000   F720
G0   X102.9641   Y067.6099   Z000.0000   F720
G0   X102.9499   Y068.5089   Z000.0000   F720
G0   X102.8922   Y069.1509   Z000.0000   F720
G0   X102.7566   Y070.0417   Z000.0000   F720
G0   X102.7566   Y070.0417   Z003.0000   F500

;Begin Line: layer=0 line=23
G0   X104.8458   Y067.3011   Z003.0000   F2100
G0   X104.8458   Y067.3011   Z000.0000   F210
G0   X104.8343   Y067.9984   Z000.0000   F720
G0   X104.7996   Y068.7827   Z000.0000   F720
G0   X104.7155   Y069.4635   Z000.0000   F720
G0   X104.6255   Y069.8706   Z000.0000   F720
G0   X104.4348   Y070.5328   Z000.0000   F720
G0   X104.2798   Y070.9106   Z000.0000   F720
G0   X104.0608   Y071.3643   Z000.0000   F720
G0   X103.7386   Y071.9309   Z000.0000   F720
G0   X103.3748   Y072.4740   Z000.0000   F720
G0   X103.0701   Y072.8745   Z000.0000   F720
G0   X102.6014   Y073.4350   Z000.0000   F720
G0   X102.3580   Y073.6854   Z000.0000   F720
G0   X102.3580   Y073.6854   Z003.0000   F500

;Begin Line: layer=0 line=24
G0   X102.4258   Y074.2584   Z003.0000   F2100
G0   X102.4258   Y074.2584   Z000.0000   F210
G0   X097.5449   Y059.2364   Z000.0000   F720
G0   X107.3067   Y059.2364   Z000.0000   F720
G0   X115.2042   Y064.9743   Z000.0000   F720
G0   X102.4258   Y074.2584   Z000.0000   F720
G0   X102.4258   Y074.2584   Z003.0000   F500

;Begin Line: layer=0 line=25
G0   X102.4794   Y074.0592   Z003.0000   F2100
G0   X102.4794   Y074.0592   Z000.0000   F210
G0   X103.0523   Y073.5664   Z000.0000   F720
G0   X103.8651   Y072.7979   Z000.0000   F720
G0   X104.8164   Y071.8400   Z000.0000   F720
G0   X105.2564   Y071.3547   Z000.0000   F720
G0   X105.5608   Y070.9662   Z000.0000   F720
G0   X105.9482   Y070.3834   Z000.0000   F720
G0   X106.1155   Y070.0754   Z000.0000   F720
G0   X106.2816   Y069.7003   Z000.0000   F720
G0   X106.4202   Y069.2916   Z000.0000   F720
G0   X106.5247   Y068.8528   Z000.0000   F720
G0   X106.5971   Y068.3394   Z000.0000   F720
G0   X106.6382   Y067.7939   Z000.0000   F720
G0   X106.6721   Y066.9094   Z000.0000   F720
G0   X106.6827   Y065.6458   Z000.0000   F720
G0   X106.6318   Y064.6051   Z000.0000   F720
G0   X106.6318   Y064.6051   Z003.0000   F500

;Begin Line: layer=0 line=26
G0   X106.3268   Y062.6995   Z003.0000   F2100
G0   X106.3268   Y062.6995   Z000.0000   F210
G0   X106.1741   Y062.0939   Z000.0000   F720
G0   X105.9338   Y061.2764   Z000.0000   F720
G0   X105.7223   Y060.5864   Z000.0000   F720
G0   X105.3068   Y059.3489   Z000.0000   F720
G0   X105.3068   Y059.3489   Z003.0000   F500

;Begin Line: layer=0 line=27
G0   X106.0860   Y055.2439   Z003.0000   F2100
G0   X106.0860   Y055.2439   Z000.0000   F210
G0   X105.3866   Y052.5438   Z000.0000   F720
G0   X104.9362   Y050.6917   Z000.0000   F720
G0   X104.5302   Y049.1710   Z000.0000   F720
G0   X104.1142   Y047.8403   Z000.0000   F720
G0   X104.1142   Y047.8403   Z003.0000   F500

;Begin Line: layer=0 line=28
G0   X104.1831   Y048.4581   Z003.0000   F2100
G0   X104.1831   Y048.4581   Z000.0000   F210
G0   X104.5917   Y049.8604   Z000.0000   F720
G0   X105.4217   Y053.1678   Z000.0000   F720
G0   X105.7367   Y054.3582   Z000.0000   F720
G0   X105.7367   Y054.3582   Z003.0000   F500

;Begin Line: layer=0 line=29
G0   X105.8764   Y053.4623   Z003.0000   F2100
G0   X105.8764   Y053.4623   Z000.0000   F210
G0   X106.3795   Y055.4571   Z000.0000   F720
G0   X106.3795   Y055.4571   Z003.0000   F500

;Begin Line: layer=0 line=30
G0   X107.1228   Y055.5552   Z003.0000   F2100
G0   X107.1228   Y055.5552   Z000.0000   F210
G0   X106.5240   Y052.8954   Z000.0000   F720
G0   X106.1476   Y051.1003   Z000.0000   F720
G0   X105.8230   Y049.6839   Z000.0000   F720
G0   X105.3482   Y048.1138   Z000.0000   F720
G0   X103.9965   Y044.3312   Z000.0000   F720
G0   X103.9965   Y044.3312   Z003.0000   F500

;Begin Line: layer=0 line=31
G0   X103.1517   Y042.8139   Z003.0000   F2100
G0   X103.1517   Y042.8139   Z000.0000   F210
G0   X103.6951   Y044.1253   Z000.0000   F720
G0   X104.1820   Y045.4641   Z000.0000   F720
G0   X105.2324   Y048.4958   Z000.0000   F720
G0   X105.5705   Y049.6834   Z000.0000   F720
G0   X106.0113   Y051.5566   Z000.0000   F720
G0   X106.8296   Y055.1856   Z000.0000   F720
G0   X107.0103   Y055.9016   Z000.0000   F720
G0   X107.0103   Y055.9016   Z003.0000   F500

;Begin Line: layer=0 line=32
G0   X107.0658   Y056.0948   Z003.0000   F2100
G0   X107.0658   Y056.0948   Z000.0000   F210
G0   X111.9467   Y041.0729   Z000.0000   F720
G0   X102.1849   Y041.0729   Z000.0000   F720
G0   X094.2874   Y046.8107   Z000.0000   F720
G0   X107.0658   Y056.0948   Z000.0000   F720
G0   X107.0658   Y056.0948   Z003.0000   F500

;Begin Line: layer=0 line=33
G0   X109.3483   Y056.8364   Z003.0000   F2100
G0   X109.3483   Y056.8364   Z000.0000   F210
G0   X114.2292   Y041.8145   Z000.0000   F720
G0   X122.1267   Y047.5524   Z000.0000   F720
G0   X125.1433   Y056.8364   Z000.0000   F720
G0   X109.3483   Y056.8364   Z000.0000   F720
G0   X109.3483   Y056.8364   Z003.0000   F500

;Begin Line: layer=0 line=34
G0   X109.9363   Y056.7239   Z003.0000   F2100
G0   X109.9363   Y056.7239   Z000.0000   F210
G0   X109.7528   Y055.9557   Z000.0000   F720
G0   X109.7528   Y055.9557   Z003.0000   F500

;Begin Line: layer=0 line=35
G0   X109.9118   Y055.4662   Z003.0000   F2100
G0   X109.9118   Y055.4662   Z000.0000   F210
G0   X110.2101   Y056.7239   Z000.0000   F720
G0   X110.2101   Y056.7239   Z003.0000   F500

