;Generated with vpype gwrite fabian
;plotter-files/9circle-9x6.svg.gcode
G90
G92 X0 Y0 Z0
G00 X0 Y0 Z0 F2100
G00 X0 Y0 Z5 F500

;Begin line
G00 X79.0993 Y132.1283 Z2    F2100
G01 X79.0993 Y132.1283 Z-0.5 F210
G01 X88.9629 Y102.1033 Z-0.5 F720
G00 X88.9629 Y102.1033 Z2    F500

;Begin line
G00 X88.8628 Y102.0789 Z2    F2100
G01 X88.8628 Y102.0789 Z-0.5 F210
G01 X88.9438 Y101.9837 Z-0.5 F720
G00 X88.9438 Y101.9837 Z2    F500

;Begin line
G00 X88.8150 Y101.8969 Z2    F2100
G01 X88.8150 Y101.8969 Z-0.5 F210
G01 X61.1585 Y124.5132 Z-0.5 F720
G00 X61.1585 Y124.5132 Z2    F500

;Begin line
G00 X60.8185 Y123.9896 Z2    F2100
G01 X60.8185 Y123.9896 Z-0.5 F210
G01 X64.4674 Y121.8158 Z-0.5 F720
G00 X64.4674 Y121.8158 Z2    F500

;Begin line
G00 X62.3053 Y121.1488 Z2    F2100
G01 X62.3053 Y121.1488 Z-0.5 F210
G01 X60.1944 Y122.9078 Z-0.5 F720
G00 X60.1944 Y122.9078 Z2    F500

;Begin line
G00 X59.9109 Y122.3515 Z2    F2100
G01 X59.9109 Y122.3515 Z-0.5 F210
G01 X69.7642 Y117.4783 Z-0.5 F720
G00 X69.7642 Y117.4783 Z2    F500

;Begin line
G00 X68.0309 Y118.3161 Z2    F2100
G01 X68.0309 Y118.3161 Z-0.5 F210
G01 X60.4969 Y123.4543 Z-0.5 F720
G00 X60.4969 Y123.4543 Z2    F500

;Begin line
G00 X61.5172 Y125.0246 Z2    F2100
G01 X61.5172 Y125.0246 Z-0.5 F210
G01 X68.1627 Y120.5808 Z-0.5 F720
G00 X68.1627 Y120.5808 Z2    F500

;Begin line
G00 X69.6627 Y123.3797 Z2    F2100
G01 X69.6627 Y123.3797 Z-0.5 F210
G01 X65.4755 Y128.9829 Z-0.5 F720
G00 X65.4755 Y128.9829 Z2    F500

;Begin line
G00 X65.9869 Y129.3416 Z2    F2100
G01 X65.9869 Y129.3416 Z-0.5 F210
G01 X70.2921 Y126.1293 Z-0.5 F720
G00 X70.2921 Y126.1293 Z2    F500

;Begin line
G00 X69.8491 Y126.8583 Z2    F2100
G01 X69.8491 Y126.8583 Z-0.5 F210
G01 X66.5105 Y129.6816 Z-0.5 F720
G00 X66.5105 Y129.6816 Z2    F500

;Begin line
G00 X67.0458 Y130.0032 Z2    F2100
G01 X67.0458 Y130.0032 Z-0.5 F210
G01 X68.5482 Y128.8834 Z-0.5 F720
G00 X68.5482 Y128.8834 Z2    F500

;Begin line
G00 X69.3811 Y129.7363 Z2    F2100
G01 X69.3811 Y129.7363 Z-0.5 F210
G01 X68.1486 Y130.5892 Z-0.5 F720
G00 X68.1486 Y130.5892 Z2    F500

;Begin line
G00 X67.5923 Y130.3057 Z2    F2100
G01 X67.5923 Y130.3057 Z-0.5 F210
G01 X73.8181 Y120.6461 Z-0.5 F720
G00 X73.8181 Y120.6461 Z2    F500

;Begin line
G00 X75.0526 Y119.8000 Z2    F2100
G01 X75.0526 Y119.8000 Z-0.5 F210
G01 X68.7146 Y130.8533 Z-0.5 F720
G00 X68.7146 Y130.8533 Z2    F500

;Begin line
G00 X69.2894 Y131.0972 Z2    F2100
G01 X69.2894 Y131.0972 Z-0.5 F210
G01 X77.8940 Y124.4586 Z-0.5 F720
G00 X77.8940 Y124.4586 Z2    F500

;Begin line
G00 X78.0097 Y125.1739 Z2    F2100
G01 X78.0097 Y125.1739 Z-0.5 F210
G01 X74.1221 Y132.3025 Z-0.5 F720
G00 X74.1221 Y132.3025 Z2    F500

;Begin line
G00 X74.7443 Y132.3566 Z2    F2100
G01 X74.7443 Y132.3566 Z-0.5 F210
G01 X81.1214 Y126.0147 Z-0.5 F720
G00 X81.1214 Y126.0147 Z2    F500

;Begin line
G00 X80.6188 Y127.5942 Z2    F2100
G01 X80.6188 Y127.5942 Z-0.5 F210
G01 X76.6165 Y132.3893 Z-0.5 F720
G00 X76.6165 Y132.3893 Z2    F500

;Begin line
G00 X77.2402 Y132.3566 Z2    F2100
G01 X77.2402 Y132.3566 Z-0.5 F210
G01 X79.8156 Y129.9900 Z-0.5 F720
G00 X79.8156 Y129.9900 Z2    F500

;Begin line
G00 X79.0973 Y130.5892 Z2    F2100
G01 X79.0973 Y130.5892 Z-0.5 F210
G01 X78.4820 Y132.2264 Z-0.5 F720
G00 X78.4820 Y132.2264 Z2    F500

;Begin line
G00 X77.8623 Y132.3025 Z2    F2100
G01 X77.8623 Y132.3025 Z-0.5 F210
G01 X78.3727 Y131.3007 Z-0.5 F720
G00 X78.3727 Y131.3007 Z2    F500

;Begin line
G00 X79.7122 Y132.0092 Z2    F2100
G01 X79.7122 Y132.0092 Z-0.5 F210
G01 X80.9643 Y130.4512 Z-0.5 F720
G00 X80.9643 Y130.4512 Z2    F500

;Begin line
G00 X81.5210 Y131.5247 Z2    F2100
G01 X81.5210 Y131.5247 Z-0.5 F210
G01 X93.7853 Y112.3811 Z-0.5 F720
G00 X93.7853 Y112.3811 Z2    F500

;Begin line
G00 X93.8361 Y112.5231 Z2    F2100
G01 X93.8361 Y112.5231 Z-0.5 F210
G01 X93.7863 Y112.6378 Z-0.5 F720
G00 X93.7863 Y112.6378 Z2    F500

;Begin line
G00 X93.9108 Y113.1560 Z2    F2100
G01 X93.9108 Y113.1560 Z-0.5 F210
G01 X93.8410 Y113.2599 Z-0.5 F720
G00 X93.8410 Y113.2599 Z2    F500

;Begin line
G00 X93.9312 Y113.7728 Z2    F2100
G01 X93.9312 Y113.7728 Z-0.5 F210
G01 X93.8737 Y113.8836 Z-0.5 F720
G00 X93.8737 Y113.8836 Z2    F500

;Begin line
G00 X93.9664 Y114.4140 Z2    F2100
G01 X93.9664 Y114.4140 Z-0.5 F210
G01 X93.8844 Y114.5081 Z-0.5 F720
G00 X93.8844 Y114.5081 Z2    F500

;Begin line
G00 X93.9498 Y115.0337 Z2    F2100
G01 X93.9498 Y115.0337 Z-0.5 F210
G01 X93.8737 Y115.1322 Z-0.5 F720
G00 X93.8737 Y115.1322 Z2    F500

;Begin line
G00 X93.8781 Y115.4845 Z2    F2100
G01 X93.8781 Y115.4845 Z-0.5 F210
G01 X92.5816 Y121.2107 Z-0.5 F720
G00 X92.5816 Y121.2107 Z2    F500

;Begin line
G00 X92.5001 Y121.4464 Z2    F2100
G01 X92.5001 Y121.4464 Z-0.5 F210
G01 X91.4875 Y123.4543 Z-0.5 F720
G00 X91.4875 Y123.4543 Z2    F500

;Begin line
G00 X91.5608 Y123.3528 Z2    F2100
G01 X91.5608 Y123.3528 Z-0.5 F210
G01 X91.1655 Y123.9896 Z-0.5 F720
G00 X91.1655 Y123.9896 Z2    F500

;Begin line
G00 X91.2436 Y123.8911 Z2    F2100
G01 X91.2436 Y123.8911 Z-0.5 F210
G01 X90.8254 Y124.5132 Z-0.5 F720
G00 X90.8254 Y124.5132 Z2    F500

;Begin line
G00 X90.4672 Y125.0246 Z2    F2100
G01 X90.4672 Y125.0246 Z-0.5 F210
G01 X93.5140 Y117.0958 Z-0.5 F720
G00 X93.5140 Y117.0958 Z2    F500

;Begin line
G00 X93.7102 Y116.9982 Z2    F2100
G01 X93.7102 Y116.9982 Z-0.5 F210
G01 X93.7424 Y116.8772 Z-0.5 F720
G00 X93.7424 Y116.8772 Z2    F500

;Begin line
G00 X93.7863 Y116.3780 Z2    F2100
G01 X93.7863 Y116.3780 Z-0.5 F210
G01 X93.8210 Y116.2580 Z-0.5 F720
G00 X93.8210 Y116.2580 Z2    F500

;Begin line
G00 X93.8332 Y116.1257 Z2    F2100
G01 X93.8332 Y116.1257 Z-0.5 F210
G01 X93.0085 Y120.0372 Z-0.5 F720
G00 X93.0085 Y120.0372 Z2    F500

;Begin line
G00 X93.0593 Y119.9225 Z2    F2100
G01 X93.0593 Y119.9225 Z-0.5 F210
G01 X92.8055 Y120.6276 Z-0.5 F720
G00 X92.8055 Y120.6276 Z2    F500

;Begin line
G00 X92.4035 Y121.6792 Z2    F2100
G01 X92.4035 Y121.6792 Z-0.5 F210
G01 X92.3376 Y121.7855 Z-0.5 F720
G00 X92.3376 Y121.7855 Z2    F500

;Begin line
G00 X92.2014 Y122.1369 Z2    F2100
G01 X92.2014 Y122.1369 Z-0.5 F210
G01 X92.0736 Y122.3515 Z-0.5 F720
G00 X92.0736 Y122.3515 Z2    F500

;Begin line
G00 X92.1038 Y122.2271 Z2    F2100
G01 X92.1038 Y122.2271 Z-0.5 F210
G01 X91.7901 Y122.9078 Z-0.5 F720
G00 X91.7901 Y122.9078 Z2    F500

;Begin line
G00 X90.8152 Y122.4735 Z2    F2100
G01 X90.8152 Y122.4735 Z-0.5 F210
G01 X88.8628 Y126.9369 Z-0.5 F720
G00 X88.8628 Y126.9369 Z2    F500

;Begin line
G00 X88.4212 Y127.3785 Z2    F2100
G01 X88.4212 Y127.3785 Z-0.5 F210
G01 X92.7035 Y114.0592 Z-0.5 F720
G00 X92.7035 Y114.0592 Z2    F500

;Begin line
G00 X92.8182 Y113.8455 Z2    F2100
G01 X92.8182 Y113.8455 Z-0.5 F210
G01 X90.0915 Y125.5238 Z-0.5 F720
G00 X90.0915 Y125.5238 Z2    F500

;Begin line
G00 X90.1657 Y125.2695 Z2    F2100
G01 X90.1657 Y125.2695 Z-0.5 F210
G01 X89.6982 Y126.0088 Z-0.5 F720
G00 X89.6982 Y126.0088 Z2    F500

;Begin line
G00 X89.2888 Y126.4802 Z2    F2100
G01 X89.2888 Y126.4802 Z-0.5 F210
G01 X90.2525 Y125.0212 Z-0.5 F720
G00 X90.2525 Y125.0212 Z2    F500

;Begin line
G00 X89.2844 Y124.7006 Z2    F2100
G01 X89.2844 Y124.7006 Z-0.5 F210
G01 X87.9645 Y127.8045 Z-0.5 F720
G00 X87.9645 Y127.8045 Z2    F500

;Begin line
G00 X87.4931 Y128.2144 Z2    F2100
G01 X87.4931 Y128.2144 Z-0.5 F210
G01 X87.9230 Y126.3904 Z-0.5 F720
G00 X87.9230 Y126.3904 Z2    F500

;Begin line
G00 X86.9003 Y128.1446 Z2    F2100
G01 X86.9003 Y128.1446 Z-0.5 F210
G01 X85.9975 Y129.3416 Z-0.5 F720
G00 X85.9975 Y129.3416 Z2    F500

;Begin line
G00 X86.5089 Y128.9829 Z2    F2100
G01 X86.5089 Y128.9829 Z-0.5 F210
G01 X89.9105 Y121.6103 Z-0.5 F720
G00 X89.9105 Y121.6103 Z2    F500

;Begin line
G00 X87.5536 Y122.0915 Z2    F2100
G01 X87.5536 Y122.0915 Z-0.5 F210
G01 X85.4735 Y129.6816 Z-0.5 F720
G00 X85.4735 Y129.6816 Z2    F500

;Begin line
G00 X84.9382 Y130.0032 Z2    F2100
G01 X84.9382 Y130.0032 Z-0.5 F210
G01 X87.1696 Y122.9791 Z-0.5 F720
G00 X87.1696 Y122.9791 Z2    F500

;Begin line
G00 X87.4307 Y122.5672 Z2    F2100
G01 X87.4307 Y122.5672 Z-0.5 F210
G01 X82.1114 Y131.3212 Z-0.5 F720
G00 X82.1114 Y131.3212 Z2    F500

;Begin line
G00 X82.6946 Y131.0972 Z2    F2100
G01 X82.6946 Y131.0972 Z-0.5 F210
G01 X83.9106 Y128.3574 Z-0.5 F720
G00 X83.9106 Y128.3574 Z2    F500

;Begin line
G00 X84.0418 Y128.0860 Z2    F2100
G01 X84.0418 Y128.0860 Z-0.5 F210
G01 X83.2694 Y130.8533 Z-0.5 F720
G00 X83.2694 Y130.8533 Z2    F500

;Begin line
G00 X83.8354 Y130.5892 Z2    F2100
G01 X83.8354 Y130.5892 Z-0.5 F210
G01 X85.5657 Y125.6365 Z-0.5 F720
G00 X85.5657 Y125.6365 Z2    F500

;Begin line
G00 X86.5807 Y123.9252 Z2    F2100
G01 X86.5807 Y123.9252 Z-0.5 F210
G01 X84.3922 Y130.3057 Z-0.5 F720
G00 X84.3922 Y130.3057 Z2    F500

;Begin line
G00 X82.5960 Y129.8510 Z2    F2100
G01 X82.5960 Y129.8510 Z-0.5 F210
G01 X80.9238 Y131.7072 Z-0.5 F720
G00 X80.9238 Y131.7072 Z2    F500

;Begin line
G00 X80.3206 Y131.8687 Z2    F2100
G01 X80.3206 Y131.8687 Z-0.5 F210
G01 X91.6315 Y105.7298 Z-0.5 F720
G00 X91.6315 Y105.7298 Z2    F500

;Begin line
G00 X91.4875 Y105.5619 Z2    F2100
G01 X91.4875 Y105.5619 Z-0.5 F210
G01 X91.5754 Y105.4731 Z-0.5 F720
G00 X91.5754 Y105.4731 Z2    F500

;Begin line
G00 X91.8389 Y105.9933 Z2    F2100
G01 X91.8389 Y105.9933 Z-0.5 F210
G01 X91.7901 Y106.1079 Z-0.5 F720
G00 X91.7901 Y106.1079 Z2    F500

;Begin line
G00 X92.1229 Y106.5495 Z2    F2100
G01 X92.1229 Y106.5495 Z-0.5 F210
G01 X92.0736 Y106.6647 Z-0.5 F720
G00 X92.0736 Y106.6647 Z2    F500

;Begin line
G00 X92.4322 Y107.1492 Z2    F2100
G01 X92.4322 Y107.1492 Z-0.5 F210
G01 X92.3376 Y107.2307 Z-0.5 F720
G00 X92.3376 Y107.2307 Z2    F500

;Begin line
G00 X92.6611 Y107.7089 Z2    F2100
G01 X92.6611 Y107.7089 Z-0.5 F210
G01 X92.5816 Y107.8055 Z-0.5 F720
G00 X92.5816 Y107.8055 Z2    F500

;Begin line
G00 X92.8455 Y108.2701 Z2    F2100
G01 X92.8455 Y108.2701 Z-0.5 F210
G01 X92.8055 Y108.3887 Z-0.5 F720
G00 X92.8055 Y108.3887 Z2    F500

;Begin line
G00 X93.1017 Y108.8952 Z2    F2100
G01 X93.1017 Y108.8952 Z-0.5 F210
G01 X93.0085 Y108.9791 Z-0.5 F720
G00 X93.0085 Y108.9791 Z2    F500

;Begin line
G00 X93.2671 Y109.4768 Z2    F2100
G01 X93.2671 Y109.4768 Z-0.5 F210
G01 X93.1915 Y109.5763 Z-0.5 F720
G00 X93.1915 Y109.5763 Z2    F500

;Begin line
G00 X93.4311 Y110.0819 Z2    F2100
G01 X93.4311 Y110.0819 Z-0.5 F210
G01 X93.3530 Y110.1795 Z-0.5 F720
G00 X93.3530 Y110.1795 Z2    F500

;Begin line
G00 X93.5340 Y110.6698 Z2    F2100
G01 X93.5340 Y110.6698 Z-0.5 F210
G01 X93.4936 Y110.7879 Z-0.5 F720
G00 X93.4936 Y110.7879 Z2    F500

;Begin line
G00 X93.6643 Y111.2871 Z2    F2100
G01 X93.6643 Y111.2871 Z-0.5 F210
G01 X93.6126 Y111.4008 Z-0.5 F720
G00 X93.6126 Y111.4008 Z2    F500

;Begin line
G00 X93.7668 Y111.9063 Z2    F2100
G01 X93.7668 Y111.9063 Z-0.5 F210
G01 X93.7102 Y112.0181 Z-0.5 F720
G00 X93.7102 Y112.0181 Z2    F500

;Begin line
G00 X96.5057 Y112.6378 Z2    F2100
G01 X96.5057 Y112.6378 Z-0.5 F210
G01 X97.0146 Y111.4969 Z-0.5 F720
G01 X97.0766 Y111.4550 Z-0.5 F720
G01 X96.5818 Y112.0181 Z-0.5 F720
G00 X96.5818 Y112.0181 Z2    F500

;Begin line
G00 X96.6794 Y111.4008 Z2    F2100
G01 X96.6794 Y111.4008 Z-0.5 F210
G01 X97.3806 Y110.5225 Z-0.5 F720
G00 X97.3806 Y110.5225 Z2    F500

;Begin line
G00 X96.9390 Y110.1795 Z2    F2100
G01 X96.9390 Y110.1795 Z-0.5 F210
G01 X98.0418 Y108.6209 Z-0.5 F720
G01 X96.7990 Y110.7879 Z-0.5 F720
G00 X96.7990 Y110.7879 Z2    F500

;Begin line
G00 X97.1010 Y109.5763 Z2    F2100
G01 X97.1010 Y109.5763 Z-0.5 F210
G01 X97.3460 Y108.7366 Z-0.5 F720
G00 X97.3460 Y108.7366 Z2    F500

;Begin line
G00 X97.2835 Y108.9791 Z2    F2100
G01 X97.2835 Y108.9791 Z-0.5 F210
G01 X99.2300 Y105.0642 Z-0.5 F720
G00 X99.2300 Y105.0642 Z2    F500

;Begin line
G00 X99.1265 Y105.0266 Z2    F2100
G01 X99.1265 Y105.0266 Z-0.5 F210
G01 X99.1748 Y104.9115 Z-0.5 F720
G00 X99.1748 Y104.9115 Z2    F500

;Begin line
G00 X99.3871 Y104.5899 Z2    F2100
G01 X99.3871 Y104.5899 Z-0.5 F210
G01 X97.4870 Y108.3887 Z-0.5 F720
G00 X97.4870 Y108.3887 Z2    F500

;Begin line
G00 X97.7105 Y107.8055 Z2    F2100
G01 X97.7105 Y107.8055 Z-0.5 F210
G01 X98.3131 Y106.4329 Z-0.5 F720
G00 X98.3131 Y106.4329 Z2    F500

;Begin line
G00 X98.2184 Y106.6647 Z2    F2100
G01 X98.2184 Y106.6647 Z-0.5 F210
G01 X98.9182 Y105.3389 Z-0.5 F720
G00 X98.9182 Y105.3389 Z2    F500

;Begin line
G00 X98.8450 Y105.4433 Z2    F2100
G01 X98.8450 Y105.4433 Z-0.5 F210
G01 X98.8050 Y105.5619 Z-0.5 F720
G00 X98.8050 Y105.5619 Z2    F500

;Begin line
G00 X98.5820 Y106.0123 Z2    F2100
G01 X98.5820 Y106.0123 Z-0.5 F210
G01 X98.5019 Y106.1079 Z-0.5 F720
G00 X98.5019 Y106.1079 Z2    F500

;Begin line
G00 X98.0203 Y107.1243 Z2    F2100
G01 X98.0203 Y107.1243 Z-0.5 F210
G01 X97.9545 Y107.2307 Z-0.5 F720
G00 X97.9545 Y107.2307 Z2    F500

;Begin line
G00 X99.5106 Y104.3859 Z2    F2100
G01 X99.5106 Y104.3859 Z-0.5 F210
G01 X99.4666 Y104.5026 Z-0.5 F720
G01 X99.4173 Y104.5050 Z-0.5 F720
G01 X96.4516 Y113.2599 Z-0.5 F720
G00 X96.4516 Y113.2599 Z2    F500

;Begin line
G00 X96.4188 Y113.8836 Z2    F2100
G01 X96.4188 Y113.8836 Z-0.5 F210
G01 X104.5097 Y99.5161 Z-0.5 F720
G00 X104.5097 Y99.5161 Z2    F500

;Begin line
G00 X104.3594 Y99.5674 Z2    F2100
G01 X104.3594 Y99.5674 Z-0.5 F210
G01 X104.2950 Y99.6747 Z-0.5 F720
G00 X104.2950 Y99.6747 Z2    F500

;Begin line
G00 X103.8129 Y99.9114 Z2    F2100
G01 X103.8129 Y99.9114 Z-0.5 F210
G01 X103.7831 Y100.0329 Z-0.5 F720
G00 X103.7831 Y100.0329 Z2    F500

;Begin line
G00 X103.3381 Y100.2959 Z2    F2100
G01 X103.3381 Y100.2959 Z-0.5 F210
G01 X103.2844 Y100.4086 Z-0.5 F720
G00 X103.2844 Y100.4086 Z2    F500

;Begin line
G00 X102.8706 Y100.6994 Z2    F2100
G01 X102.8706 Y100.6994 Z-0.5 F210
G01 X102.7989 Y100.8019 Z-0.5 F720
G00 X102.7989 Y100.8019 Z2    F500

;Begin line
G00 X102.3817 Y101.0986 Z2    F2100
G01 X102.3817 Y101.0986 Z-0.5 F210
G01 X102.3275 Y101.2113 Z-0.5 F720
G00 X102.3275 Y101.2113 Z2    F500

;Begin line
G00 X101.8972 Y101.5153 Z2    F2100
G01 X101.8972 Y101.5153 Z-0.5 F210
G01 X101.8708 Y101.6373 Z-0.5 F720
G00 X101.8708 Y101.6373 Z2    F500

;Begin line
G00 X101.4751 Y101.9627 Z2    F2100
G01 X101.4751 Y101.9627 Z-0.5 F210
G01 X101.4292 Y102.0789 Z-0.5 F720
G00 X101.4292 Y102.0789 Z2    F500

;Begin line
G00 X101.1598 Y102.3409 Z2    F2100
G01 X101.1598 Y102.3409 Z-0.5 F210
G01 X101.0037 Y102.5356 Z-0.5 F720
G00 X101.0037 Y102.5356 Z2    F500

;Begin line
G00 X100.6543 Y102.8977 Z2    F2100
G01 X100.6543 Y102.8977 Z-0.5 F210
G01 X100.5938 Y103.0070 Z-0.5 F720
G00 X100.5938 Y103.0070 Z2    F500

;Begin line
G00 X100.5035 Y103.0948 Z2    F2100
G01 X100.5035 Y103.0948 Z-0.5 F210
G01 X100.2005 Y103.4925 Z-0.5 F720
G00 X100.2005 Y103.4925 Z2    F500

;Begin line
G00 X99.8726 Y103.8755 Z2    F2100
G01 X99.8726 Y103.8755 Z-0.5 F210
G01 X99.8248 Y103.9912 Z-0.5 F720
G00 X99.8248 Y103.9912 Z2    F500

;Begin line
G00 X102.3378 Y103.3720 Z2    F2100
G01 X102.3378 Y103.3720 Z-0.5 F210
G01 X96.4076 Y114.5081 Z-0.5 F720
G00 X96.4076 Y114.5081 Z2    F500

;Begin line
G00 X96.8966 Y114.3247 Z2    F2100
G01 X96.8966 Y114.3247 Z-0.5 F210
G01 X96.4516 Y115.7558 Z-0.5 F720
G00 X96.4516 Y115.7558 Z2    F500

;Begin line
G00 X96.7292 Y116.0096 Z2    F2100
G01 X96.7292 Y116.0096 Z-0.5 F210
G01 X96.5818 Y116.9982 Z-0.5 F720
G00 X96.5818 Y116.9982 Z2    F500

;Begin line
G00 X96.6794 Y117.6149 Z2    F2100
G01 X96.6794 Y117.6149 Z-0.5 F210
G01 X109.4727 Y97.1803 Z-0.5 F720
G00 X109.4727 Y97.1803 Z2    F500

;Begin line
G00 X109.3688 Y97.1837 Z2    F2100
G01 X109.3688 Y97.1837 Z-0.5 F210
G01 X109.3683 Y97.3086 Z-0.5 F720
G00 X109.3683 Y97.3086 Z2    F500

;Begin line
G00 X108.8208 Y97.3769 Z2    F2100
G01 X108.8208 Y97.3769 Z-0.5 F210
G01 X108.7710 Y97.4916 Z-0.5 F720
G00 X108.7710 Y97.4916 Z2    F500

;Begin line
G00 X108.1957 Y97.5706 Z2    F2100
G01 X108.1957 Y97.5706 Z-0.5 F210
G01 X108.1806 Y97.6946 Z-0.5 F720
G00 X108.1806 Y97.6946 Z2    F500

;Begin line
G00 X107.6238 Y97.7966 Z2    F2100
G01 X107.6238 Y97.7966 Z-0.5 F210
G01 X107.5975 Y97.9185 Z-0.5 F720
G00 X107.5975 Y97.9185 Z2    F500

;Begin line
G00 X107.0758 Y98.0498 Z2    F2100
