;Generated with vpype gwrite fabian
;plotter-files/9circle.svg.gcode
G90
G92 X0 Y0 Z0
G00 X0 Y0 Z0 F2100
G00 X0 Y0 Z5 F500

;Begin line
G00 X76.9786 Y334.3355 Z2    F2100
G01 X76.9786 Y334.3355 Z-0.5 F210
G01 X104.8343 Y249.5420 Z-0.5 F720
G00 X104.8343 Y249.5420 Z2    F500

;Begin line
G00 X104.5518 Y249.4731 Z2    F2100
G01 X104.5518 Y249.4731 Z-0.5 F210
G01 X104.7805 Y249.2044 Z-0.5 F720
G00 X104.7805 Y249.2044 Z2    F500

;Begin line
G00 X104.4167 Y248.9591 Z2    F2100
G01 X104.4167 Y248.9591 Z-0.5 F210
G01 X26.3123 Y312.8298 Z-0.5 F720
G00 X26.3123 Y312.8298 Z2    F500

;Begin line
G00 X25.3518 Y311.3512 Z2    F2100
G01 X25.3518 Y311.3512 Z-0.5 F210
G01 X35.6567 Y305.2120 Z-0.5 F720
G00 X35.6567 Y305.2120 Z2    F500

;Begin line
G00 X29.5507 Y303.3283 Z2    F2100
G01 X29.5507 Y303.3283 Z-0.5 F210
G01 X23.5893 Y308.2961 Z-0.5 F720
G00 X23.5893 Y308.2961 Z2    F500

;Begin line
G00 X22.7886 Y306.7251 Z2    F2100
G01 X22.7886 Y306.7251 Z-0.5 F210
G01 X50.6153 Y292.9627 Z-0.5 F720
G00 X50.6153 Y292.9627 Z2    F500

;Begin line
G00 X45.7206 Y295.3287 Z2    F2100
G01 X45.7206 Y295.3287 Z-0.5 F210
G01 X24.4436 Y309.8395 Z-0.5 F720
G00 X24.4436 Y309.8395 Z2    F500

;Begin line
G00 X27.3251 Y314.2740 Z2    F2100
G01 X27.3251 Y314.2740 Z-0.5 F210
G01 X46.0926 Y301.7242 Z-0.5 F720
G00 X46.0926 Y301.7242 Z2    F500

;Begin line
G00 X50.3287 Y309.6286 Z2    F2100
G01 X50.3287 Y309.6286 Z-0.5 F210
G01 X38.5038 Y325.4527 Z-0.5 F720
G00 X38.5038 Y325.4527 Z2    F500

;Begin line
G00 X39.9479 Y326.4655 Z2    F2100
G01 X39.9479 Y326.4655 Z-0.5 F210
G01 X52.1064 Y317.3939 Z-0.5 F720
G00 X52.1064 Y317.3939 Z2    F500

;Begin line
G00 X50.8551 Y319.4527 Z2    F2100
G01 X50.8551 Y319.4527 Z-0.5 F210
G01 X41.4266 Y327.4260 Z-0.5 F720
G00 X41.4266 Y327.4260 Z2    F500

;Begin line
G00 X42.9383 Y328.3341 Z2    F2100
G01 X42.9383 Y328.3341 Z-0.5 F210
G01 X47.1813 Y325.1715 Z-0.5 F720
G00 X47.1813 Y325.1715 Z2    F500

;Begin line
G00 X49.5336 Y327.5803 Z2    F2100
G01 X49.5336 Y327.5803 Z-0.5 F210
G01 X46.0527 Y329.9892 Z-0.5 F720
G00 X46.0527 Y329.9892 Z2    F500

;Begin line
G00 X44.4817 Y329.1885 Z2    F2100
G01 X44.4817 Y329.1885 Z-0.5 F210
G01 X62.0641 Y301.9089 Z-0.5 F720
G00 X62.0641 Y301.9089 Z2    F500

;Begin line
G00 X65.5505 Y299.5194 Z2    F2100
G01 X65.5505 Y299.5194 Z-0.5 F210
G01 X47.6512 Y330.7347 Z-0.5 F720
G00 X47.6512 Y330.7347 Z2    F500

;Begin line
G00 X49.2745 Y331.4237 Z2    F2100
G01 X49.2745 Y331.4237 Z-0.5 F210
G01 X73.5748 Y312.6755 Z-0.5 F720
G00 X73.5748 Y312.6755 Z2    F500

;Begin line
G00 X73.9014 Y314.6957 Z2    F2100
G01 X73.9014 Y314.6957 Z-0.5 F210
G01 X62.9226 Y334.8275 Z-0.5 F720
G00 X62.9226 Y334.8275 Z2    F500

;Begin line
G00 X64.6796 Y334.9804 Z2    F2100
G01 X64.6796 Y334.9804 Z-0.5 F210
G01 X82.6892 Y317.0701 Z-0.5 F720
G00 X82.6892 Y317.0701 Z2    F500

;Begin line
G00 X81.2698 Y321.5308 Z2    F2100
G01 X81.2698 Y321.5308 Z-0.5 F210
G01 X69.9671 Y335.0727 Z-0.5 F720
G00 X69.9671 Y335.0727 Z2    F500

;Begin line
G00 X71.7283 Y334.9804 Z2    F2100
G01 X71.7283 Y334.9804 Z-0.5 F210
G01 X79.0016 Y328.2969 Z-0.5 F720
G00 X79.0016 Y328.2969 Z2    F500

;Begin line
G00 X76.9731 Y329.9892 Z2    F2100
G01 X76.9731 Y329.9892 Z-0.5 F210
G01 X75.2354 Y334.6125 Z-0.5 F720
G00 X75.2354 Y334.6125 Z2    F500

;Begin line
G00 X73.4853 Y334.8275 Z2    F2100
G01 X73.4853 Y334.8275 Z-0.5 F210
G01 X74.9267 Y331.9983 Z-0.5 F720
G00 X74.9267 Y331.9983 Z2    F500

;Begin line
G00 X78.7094 Y333.9993 Z2    F2100
G01 X78.7094 Y333.9993 Z-0.5 F210
G01 X82.2455 Y329.5992 Z-0.5 F720
G00 X82.2455 Y329.5992 Z2    F500

;Begin line
G00 X83.8178 Y332.6309 Z2    F2100
G01 X83.8178 Y332.6309 Z-0.5 F210
G01 X118.4534 Y278.5677 Z-0.5 F720
G00 X118.4534 Y278.5677 Z2    F500

;Begin line
G00 X118.5967 Y278.9687 Z2    F2100
G01 X118.5967 Y278.9687 Z-0.5 F210
G01 X118.4562 Y279.2925 Z-0.5 F720
G00 X118.4562 Y279.2925 Z2    F500

;Begin line
G00 X118.8076 Y280.7560 Z2    F2100
G01 X118.8076 Y280.7560 Z-0.5 F210
G01 X118.6105 Y281.0495 Z-0.5 F720
G00 X118.6105 Y281.0495 Z2    F500

;Begin line
G00 X118.8654 Y282.4978 Z2    F2100
G01 X118.8654 Y282.4978 Z-0.5 F210
G01 X118.7028 Y282.8106 Z-0.5 F720
G00 X118.7028 Y282.8106 Z2    F500

;Begin line
G00 X118.9647 Y284.3086 Z2    F2100
G01 X118.9647 Y284.3086 Z-0.5 F210
G01 X118.7331 Y284.5745 Z-0.5 F720
G00 X118.7331 Y284.5745 Z2    F500

;Begin line
G00 X118.9178 Y286.0587 Z2    F2100
G01 X118.9178 Y286.0587 Z-0.5 F210
G01 X118.7028 Y286.3370 Z-0.5 F720
G00 X118.7028 Y286.3370 Z2    F500

;Begin line
G00 X118.7152 Y287.3320 Z2    F2100
G01 X118.7152 Y287.3320 Z-0.5 F210
G01 X115.0538 Y303.5033 Z-0.5 F720
G00 X115.0538 Y303.5033 Z2    F500

;Begin line
G00 X114.8237 Y304.1689 Z2    F2100
G01 X114.8237 Y304.1689 Z-0.5 F210
G01 X111.9642 Y309.8395 Z-0.5 F720
G00 X111.9642 Y309.8395 Z2    F500

;Begin line
G00 X112.1709 Y309.5529 Z2    F2100
G01 X112.1709 Y309.5529 Z-0.5 F210
G01 X111.0547 Y311.3512 Z-0.5 F720
G00 X111.0547 Y311.3512 Z2    F500

;Begin line
G00 X111.2752 Y311.0728 Z2    F2100
G01 X111.2752 Y311.0728 Z-0.5 F210
G01 X110.0942 Y312.8298 Z-0.5 F720
G00 X110.0942 Y312.8298 Z2    F500

;Begin line
G00 X109.0827 Y314.2740 Z2    F2100
G01 X109.0827 Y314.2740 Z-0.5 F210
G01 X117.6872 Y291.8823 Z-0.5 F720
G00 X117.6872 Y291.8823 Z2    F500

;Begin line
G00 X118.2412 Y291.6067 Z2    F2100
G01 X118.2412 Y291.6067 Z-0.5 F210
G01 X118.3321 Y291.2649 Z-0.5 F720
G00 X118.3321 Y291.2649 Z2    F500

;Begin line
G00 X118.4562 Y289.8552 Z2    F2100
G01 X118.4562 Y289.8552 Z-0.5 F210
G01 X118.5540 Y289.5162 Z-0.5 F720
G00 X118.5540 Y289.5162 Z2    F500

;Begin line
G00 X118.5885 Y289.1427 Z2    F2100
G01 X118.5885 Y289.1427 Z-0.5 F210
G01 X116.2596 Y300.1891 Z-0.5 F720
G00 X116.2596 Y300.1891 Z2    F500

;Begin line
G00 X116.4029 Y299.8652 Z2    F2100
G01 X116.4029 Y299.8652 Z-0.5 F210
G01 X115.6863 Y301.8565 Z-0.5 F720
G00 X115.6863 Y301.8565 Z2    F500

;Begin line
G00 X114.5508 Y304.8262 Z2    F2100
G01 X114.5508 Y304.8262 Z-0.5 F210
G01 X114.3648 Y305.1266 Z-0.5 F720
G00 X114.3648 Y305.1266 Z2    F500

;Begin line
G00 X113.9803 Y306.1188 Z2    F2100
G01 X113.9803 Y306.1188 Z-0.5 F210
G01 X113.6192 Y306.7251 Z-0.5 F720
G00 X113.6192 Y306.7251 Z2    F500

;Begin line
G00 X113.7047 Y306.3737 Z2    F2100
G01 X113.7047 Y306.3737 Z-0.5 F210
G01 X112.8186 Y308.2961 Z-0.5 F720
G00 X112.8186 Y308.2961 Z2    F500

;Begin line
G00 X110.0653 Y307.0696 Z2    F2100
G01 X110.0653 Y307.0696 Z-0.5 F210
G01 X104.5518 Y319.6745 Z-0.5 F720
G00 X104.5518 Y319.6745 Z2    F500

;Begin line
G00 X103.3046 Y320.9217 Z2    F2100
G01 X103.3046 Y320.9217 Z-0.5 F210
G01 X115.3983 Y283.3067 Z-0.5 F720
G00 X115.3983 Y283.3067 Z2    F500

;Begin line
G00 X115.7221 Y282.7032 Z2    F2100
G01 X115.7221 Y282.7032 Z-0.5 F210
G01 X108.0217 Y315.6837 Z-0.5 F720
G00 X108.0217 Y315.6837 Z2    F500

;Begin line
G00 X108.2311 Y314.9658 Z2    F2100
G01 X108.2311 Y314.9658 Z-0.5 F210
G01 X106.9110 Y317.0535 Z-0.5 F720
G00 X106.9110 Y317.0535 Z2    F500

;Begin line
G00 X105.7548 Y318.3847 Z2    F2100
G01 X105.7548 Y318.3847 Z-0.5 F210
G01 X108.4764 Y314.2644 Z-0.5 F720
G00 X108.4764 Y314.2644 Z2    F500

;Begin line
G00 X105.7424 Y313.3590 Z2    F2100
G01 X105.7424 Y313.3590 Z-0.5 F210
G01 X102.0148 Y322.1247 Z-0.5 F720
G00 X102.0148 Y322.1247 Z2    F500

;Begin line
G00 X100.6836 Y323.2822 Z2    F2100
G01 X100.6836 Y323.2822 Z-0.5 F210
G01 X101.8977 Y318.1311 Z-0.5 F720
G00 X101.8977 Y318.1311 Z2    F500

;Begin line
G00 X99.0093 Y323.0852 Z2    F2100
G01 X99.0093 Y323.0852 Z-0.5 F210
G01 X96.4599 Y326.4655 Z-0.5 F720
G00 X96.4599 Y326.4655 Z2    F500

;Begin line
G00 X97.9041 Y325.4527 Z2    F2100
G01 X97.9041 Y325.4527 Z-0.5 F210
G01 X107.5104 Y304.6319 Z-0.5 F720
G00 X107.5104 Y304.6319 Z2    F500

;Begin line
G00 X100.8545 Y305.9906 Z2    F2100
G01 X100.8545 Y305.9906 Z-0.5 F210
G01 X94.9799 Y327.4260 Z-0.5 F720
G00 X94.9799 Y327.4260 Z2    F500

;Begin line
G00 X93.4682 Y328.3341 Z2    F2100
G01 X93.4682 Y328.3341 Z-0.5 F210
G01 X99.7700 Y308.4973 Z-0.5 F720
G00 X99.7700 Y308.4973 Z2    F500

;Begin line
G00 X100.5072 Y307.3342 Z2    F2100
G01 X100.5072 Y307.3342 Z-0.5 F210
G01 X85.4852 Y332.0562 Z-0.5 F720
G00 X85.4852 Y332.0562 Z2    F500

;Begin line
G00 X87.1320 Y331.4237 Z2    F2100
G01 X87.1320 Y331.4237 Z-0.5 F210
G01 X90.5660 Y323.6860 Z-0.5 F720
G00 X90.5660 Y323.6860 Z2    F500

;Begin line
G00 X90.9367 Y322.9198 Z2    F2100
G01 X90.9367 Y322.9198 Z-0.5 F210
G01 X88.7553 Y330.7347 Z-0.5 F720
G00 X88.7553 Y330.7347 Z2    F500

;Begin line
G00 X90.3538 Y329.9892 Z2    F2100
G01 X90.3538 Y329.9892 Z-0.5 F210
G01 X95.2404 Y316.0021 Z-0.5 F720
G00 X95.2404 Y316.0021 Z2    F500

;Begin line
G00 X98.1067 Y311.1693 Z2    F2100
G01 X98.1067 Y311.1693 Z-0.5 F210
G01 X91.9262 Y329.1885 Z-0.5 F720
G00 X91.9262 Y329.1885 Z2    F500

;Begin line
G00 X86.8536 Y327.9042 Z2    F2100
G01 X86.8536 Y327.9042 Z-0.5 F210
G01 X82.1311 Y333.1462 Z-0.5 F720
G00 X82.1311 Y333.1462 Z2    F500

;Begin line
G00 X80.4278 Y333.6024 Z2    F2100
G01 X80.4278 Y333.6024 Z-0.5 F210
G01 X112.3707 Y259.7836 Z-0.5 F720
G00 X112.3707 Y259.7836 Z2    F500

;Begin line
G00 X111.9642 Y259.3096 Z2    F2100
G01 X111.9642 Y259.3096 Z-0.5 F210
G01 X112.2123 Y259.0588 Z-0.5 F720
G00 X112.2123 Y259.0588 Z2    F500

;Begin line
G00 X112.9564 Y260.5278 Z2    F2100
G01 X112.9564 Y260.5278 Z-0.5 F210
G01 X112.8186 Y260.8516 Z-0.5 F720
G00 X112.8186 Y260.8516 Z2    F500

;Begin line
G00 X113.7584 Y262.0987 Z2    F2100
G01 X113.7584 Y262.0987 Z-0.5 F210
G01 X113.6192 Y262.4239 Z-0.5 F720
G00 X113.6192 Y262.4239 Z2    F500

;Begin line
G00 X114.6321 Y263.7923 Z2    F2100
G01 X114.6321 Y263.7923 Z-0.5 F210
G01 X114.3648 Y264.0225 Z-0.5 F720
G00 X114.3648 Y264.0225 Z2    F500

;Begin line
G00 X115.2784 Y265.3729 Z2    F2100
G01 X115.2784 Y265.3729 Z-0.5 F210
G01 X115.0538 Y265.6458 Z-0.5 F720
G00 X115.0538 Y265.6458 Z2    F500

;Begin line
G00 X115.7993 Y266.9577 Z2    F2100
G01 X115.7993 Y266.9577 Z-0.5 F210
G01 X115.6863 Y267.2926 Z-0.5 F720
G00 X115.6863 Y267.2926 Z2    F500

;Begin line
G00 X116.5228 Y268.7230 Z2    F2100
G01 X116.5228 Y268.7230 Z-0.5 F210
G01 X116.2596 Y268.9600 Z-0.5 F720
G00 X116.2596 Y268.9600 Z2    F500

;Begin line
G00 X116.9899 Y270.3656 Z2    F2100
G01 X116.9899 Y270.3656 Z-0.5 F210
G01 X116.7763 Y270.6467 Z-0.5 F720
G00 X116.7763 Y270.6467 Z2    F500

;Begin line
G00 X117.4530 Y272.0743 Z2    F2100
G01 X117.4530 Y272.0743 Z-0.5 F210
G01 X117.2325 Y272.3500 Z-0.5 F720
G00 X117.2325 Y272.3500 Z2    F500

;Begin line
G00 X117.7437 Y273.7349 Z2    F2100
G01 X117.7437 Y273.7349 Z-0.5 F210
G01 X117.6293 Y274.0684 Z-0.5 F720
G00 X117.6293 Y274.0684 Z2    F500

;Begin line
G00 X118.1117 Y275.4781 Z2    F2100
G01 X118.1117 Y275.4781 Z-0.5 F210
G01 X117.9656 Y275.7992 Z-0.5 F720
G00 X117.9656 Y275.7992 Z2    F500

;Begin line
G00 X118.4010 Y277.2268 Z2    F2100
G01 X118.4010 Y277.2268 Z-0.5 F210
G01 X118.2412 Y277.5424 Z-0.5 F720
G00 X118.2412 Y277.5424 Z2    F500

;Begin line
G00 X126.1360 Y279.2925 Z2    F2100
G01 X126.1360 Y279.2925 Z-0.5 F210
G01 X127.5733 Y276.0707 Z-0.5 F720
G00 X127.5733 Y276.0707 Z2    F500

;Begin line
G00 X127.7483 Y275.9521 Z2    F2100
G01 X127.7483 Y275.9521 Z-0.5 F210
G01 X126.3509 Y277.5424 Z-0.5 F720
G00 X126.3509 Y277.5424 Z2    F500

;Begin line
G00 X126.6266 Y275.7992 Z2    F2100
G01 X126.6266 Y275.7992 Z-0.5 F210
G01 X128.6068 Y273.3187 Z-0.5 F720
G00 X128.6068 Y273.3187 Z2    F500

;Begin line
G00 X127.3597 Y272.3500 Z2    F2100
G01 X127.3597 Y272.3500 Z-0.5 F210
G01 X130.3996 Y268.0188 Z-0.5 F720
G00 X130.3996 Y268.0188 Z2    F500

;Begin line
G00 X130.4740 Y267.9485 Z2    F2100
G01 X130.4740 Y267.9485 Z-0.5 F210
G01 X126.9642 Y274.0684 Z-0.5 F720
G00 X126.9642 Y274.0684 Z2    F500

;Begin line
G00 X127.8172 Y270.6467 Z2    F2100
G01 X127.8172 Y270.6467 Z-0.5 F210
G01 X128.5090 Y268.2751 Z-0.5 F720
G00 X128.5090 Y268.2751 Z2    F500

;Begin line
G00 X128.3326 Y268.9600 Z2    F2100
G01 X128.3326 Y268.9600 Z-0.5 F210
G01 X133.8296 Y257.9040 Z-0.5 F720
G00 X133.8296 Y257.9040 Z2    F500

;Begin line
G00 X133.5374 Y257.7979 Z2    F2100
G01 X133.5374 Y257.7979 Z-0.5 F210
G01 X133.6738 Y257.4727 Z-0.5 F720
G00 X133.6738 Y257.4727 Z2    F500

;Begin line
G00 X134.2733 Y256.5645 Z2    F2100
G01 X134.2733 Y256.5645 Z-0.5 F210
G01 X128.9072 Y267.2926 Z-0.5 F720
G00 X128.9072 Y267.2926 Z2    F500

;Begin line
G00 X129.5383 Y265.6458 Z2    F2100
G01 X129.5383 Y265.6458 Z-0.5 F210
G01 X131.2402 Y261.7694 Z-0.5 F720
G00 X131.2402 Y261.7694 Z2    F500

;Begin line
G00 X130.9729 Y262.4239 Z2    F2100
G01 X130.9729 Y262.4239 Z-0.5 F210
G01 X132.9490 Y258.6798 Z-0.5 F720
G00 X132.9490 Y258.6798 Z2    F500

;Begin line
G00 X132.7423 Y258.9747 Z2    F2100
G01 X132.7423 Y258.9747 Z-0.5 F210
G01 X132.6293 Y259.3096 Z-0.5 F720
G00 X132.6293 Y259.3096 Z2    F500

;Begin line
G00 X131.9995 Y260.5815 Z2    F2100
G01 X131.9995 Y260.5815 Z-0.5 F210
G01 X131.7735 Y260.8516 Z-0.5 F720
G00 X131.7735 Y260.8516 Z2    F500

;Begin line
G00 X130.4134 Y263.7221 Z2    F2100
G01 X130.4134 Y263.7221 Z-0.5 F210
G01 X130.2274 Y264.0225 Z-0.5 F720
G00 X130.2274 Y264.0225 Z2    F500

;Begin line
G00 X134.3587 Y256.3248 Z2    F2100
G01 X134.3587 Y256.3248 Z-0.5 F210
G01 X125.9830 Y281.0495 Z-0.5 F720
G00 X125.9830 Y281.0495 Z2    F500

;Begin line
G00 X125.8907 Y282.8106 Z2    F2100
G01 X125.8907 Y282.8106 Z-0.5 F210
G01 X148.7399 Y242.2357 Z-0.5 F720
G00 X148.7399 Y242.2357 Z2    F500

;Begin line
G00 X148.3155 Y242.3804 Z2    F2100
G01 X148.3155 Y242.3804 Z-0.5 F210
G01 X148.1336 Y242.6836 Z-0.5 F720
G00 X148.1336 Y242.6836 Z2    F500

;Begin line
G00 X146.7721 Y243.3519 Z2    F2100
G01 X146.7721 Y243.3519 Z-0.5 F210
G01 X146.6880 Y243.6950 Z-0.5 F720
G00 X146.6880 Y243.6950 Z2    F500

;Begin line
G00 X145.4313 Y244.4378 Z2    F2100
G01 X145.4313 Y244.4378 Z-0.5 F210
G01 X145.2797 Y244.7561 Z-0.5 F720
G00 X145.2797 Y244.7561 Z2    F500

;Begin line
G00 X144.1111 Y245.5774 Z2    F2100
G01 X144.1111 Y245.5774 Z-0.5 F210
G01 X143.9085 Y245.8668 Z-0.5 F720
G00 X143.9085 Y245.8668 Z2    F500

;Begin line
G00 X142.7303 Y246.7047 Z2    F2100
G01 X142.7303 Y246.7047 Z-0.5 F210
G01 X142.5773 Y247.0230 Z-0.5 F720
G00 X142.5773 Y247.0230 Z2    F500

;Begin line
G00 X141.3619 Y247.8815 Z2    F2100
G01 X141.3619 Y247.8815 Z-0.5 F210
G01 X141.2875 Y248.2260 Z-0.5 F720
G00 X141.2875 Y248.2260 Z2    F500

;Begin line
G00 X140.1699 Y249.1452 Z2    F2100
G01 X140.1699 Y249.1452 Z-0.5 F210
G01 X140.0404 Y249.4731 Z-0.5 F720
G00 X140.0404 Y249.4731 Z2    F500

;Begin line
G00 X139.2797 Y250.2132 Z2    F2100
G01 X139.2797 Y250.2132 Z-0.5 F210
G01 X138.8387 Y250.7630 Z-0.5 F720
G00 X138.8387 Y250.7630 Z2    F500

;Begin line
G00 X137.8521 Y251.7855 Z2    F2100
G01 X137.8521 Y251.7855 Z-0.5 F210
G01 X137.6812 Y252.0942 Z-0.5 F720
G00 X137.6812 Y252.0942 Z2    F500

;Begin line
G00 X137.4262 Y252.3422 Z2    F2100
G01 X137.4262 Y252.3422 Z-0.5 F210
G01 X136.5705 Y253.4653 Z-0.5 F720
G00 X136.5705 Y253.4653 Z2    F500

;Begin line
G00 X135.6444 Y254.5471 Z2    F2100
G01 X135.6444 Y254.5471 Z-0.5 F210
G01 X135.5094 Y254.8737 Z-0.5 F720
G00 X135.5094 Y254.8737 Z2    F500

;Begin line
G00 X134.6219 Y255.9885 Z2    F2100
G01 X134.6219 Y255.9885 Z-0.5 F210
G01 X134.4979 Y256.3179 Z-0.5 F720
G00 X134.4979 Y256.3179 Z2    F500

;Begin line
G00 X142.6063 Y253.1249 Z2    F2100
G01 X142.6063 Y253.1249 Z-0.5 F210
G01 X125.8590 Y284.5745 Z-0.5 F720
G00 X125.8590 Y284.5745 Z2    F500

;Begin line
G00 X127.2398 Y284.0564 Z2    F2100
G01 X127.2398 Y284.0564 Z-0.5 F210
G01 X125.9830 Y288.0982 Z-0.5 F720
G00 X125.9830 Y288.0982 Z2    F500

;Begin line
G00 X126.7671 Y288.8148 Z2    F2100
G01 X126.7671 Y288.8148 Z-0.5 F210
G01 X126.3509 Y291.6067 Z-0.5 F720
G00 X126.3509 Y291.6067 Z2    F500

;Begin line
G00 X126.6266 Y293.3485 Z2    F2100
G01 X126.6266 Y293.3485 Z-0.5 F210
G01 X162.7560 Y235.6390 Z-0.5 F720
G00 X162.7560 Y235.6390 Z2    F500

;Begin line
G00 X162.4624 Y235.6487 Z2    F2100
G01 X162.4624 Y235.6487 Z-0.5 F210
G01 X162.4611 Y236.0014 Z-0.5 F720
