;Generated with vpype gwrite fabian
;circle-groups/circle-groups.svg.gcode
G90
G92 X0 Y0 Z0
G00 X0 Y0 Z0 F2100
G00 X0 Y0 Z5 F500

;Begin line
G00 X64.9842 Y93.3349 Z2    F2100
G01 X64.9842 Y93.3349 Z-0.5 F210
G01 X64.4382 Y92.1525 Z-0.5 F720
G01 X63.8357 Y90.9978 Z-0.5 F720
G01 X63.1254 Y89.7883 Z-0.5 F720
G01 X62.4104 Y88.6997 Z-0.5 F720
G01 X61.6436 Y87.6468 Z-0.5 F720
G01 X60.8270 Y86.6322 Z-0.5 F720
G01 X59.9623 Y85.6582 Z-0.5 F720
G01 X58.9798 Y84.6572 Z-0.5 F720
G01 X58.0220 Y83.7746 Z-0.5 F720
G01 X57.0227 Y82.9393 Z-0.5 F720
G01 X55.9843 Y82.1532 Z-0.5 F720
G01 X54.8250 Y81.3637 Z-0.5 F720
G01 X53.7131 Y80.6854 Z-0.5 F720
G01 X52.4806 Y80.0159 Z-0.5 F720
G01 X51.3063 Y79.4524 Z-0.5 F720
G01 X50.1063 Y78.9461 Z-0.5 F720
G01 X48.8832 Y78.4984 Z-0.5 F720
G01 X47.5436 Y78.0828 Z-0.5 F720
G01 X46.2819 Y77.7598 Z-0.5 F720
G01 X45.0060 Y77.4980 Z-0.5 F720
G01 X43.7190 Y77.2981 Z-0.5 F720
G01 X42.4239 Y77.1605 Z-0.5 F720
G01 X41.1236 Y77.0855 Z-0.5 F720
G01 X39.8212 Y77.0735 Z-0.5 F720
G01 X38.5197 Y77.1242 Z-0.5 F720
G01 X37.2222 Y77.2377 Z-0.5 F720
G01 X35.8329 Y77.4299 Z-0.5 F720
G01 X34.5533 Y77.6727 Z-0.5 F720
G01 X33.2869 Y77.9770 Z-0.5 F720
G01 X32.0366 Y78.3420 Z-0.5 F720
G01 X30.7116 Y78.8021 Z-0.5 F720
G01 X29.5042 Y79.2904 Z-0.5 F720
G01 X28.3217 Y79.8365 Z-0.5 F720
G01 X27.1670 Y80.4390 Z-0.5 F720
G01 X26.0427 Y81.0965 Z-0.5 F720
G01 X24.8690 Y81.8643 Z-0.5 F720
G01 X23.8161 Y82.6310 Z-0.5 F720
G01 X22.8015 Y83.4477 Z-0.5 F720
G01 X21.8275 Y84.3123 Z-0.5 F720
G01 X20.8265 Y85.2949 Z-0.5 F720
G01 X19.8780 Y86.3281 Z-0.5 F720
G01 X19.0463 Y87.3305 Z-0.5 F720
G01 X18.2641 Y88.3718 Z-0.5 F720
G01 X17.5329 Y89.4497 Z-0.5 F720
G01 X16.8547 Y90.5616 Z-0.5 F720
G01 X16.1852 Y91.7941 Z-0.5 F720
G01 X15.6216 Y92.9683 Z-0.5 F720
G01 X15.1154 Y94.1683 Z-0.5 F720
G01 X14.6677 Y95.3914 Z-0.5 F720
G01 X14.2795 Y96.6346 Z-0.5 F720
G01 X13.9517 Y97.8952 Z-0.5 F720
G01 X13.6673 Y99.2686 Z-0.5 F720
G01 X13.4673 Y100.5556 Z-0.5 F720
G01 X13.3297 Y101.8508 Z-0.5 F720
G01 X13.2517 Y103.2512 Z-0.5 F720
G01 X13.2444 Y104.5536 Z-0.5 F720
G01 X13.3000 Y105.8549 Z-0.5 F720
G01 X13.4183 Y107.1520 Z-0.5 F720
G01 X13.5991 Y108.4418 Z-0.5 F720
G01 X13.8419 Y109.7214 Z-0.5 F720
G01 X14.1462 Y110.9878 Z-0.5 F720
G01 X14.5418 Y112.3335 Z-0.5 F720
G01 X14.9714 Y113.5630 Z-0.5 F720
G01 X15.4597 Y114.7705 Z-0.5 F720
G01 X16.0058 Y115.9529 Z-0.5 F720
G01 X16.6082 Y117.1076 Z-0.5 F720
G01 X17.2657 Y118.2319 Z-0.5 F720
G01 X17.9767 Y119.3232 Z-0.5 F720
G01 X18.7395 Y120.3789 Z-0.5 F720
G01 X19.6169 Y121.4732 Z-0.5 F720
G01 X20.4816 Y122.4472 Z-0.5 F720
G01 X21.3922 Y123.3783 Z-0.5 F720
G01 X22.3468 Y124.2645 Z-0.5 F720
G01 X23.3429 Y125.1035 Z-0.5 F720
G01 X24.3784 Y125.8935 Z-0.5 F720
G01 X25.5348 Y126.6873 Z-0.5 F720
G01 X26.6442 Y127.3697 Z-0.5 F720
G01 X27.7852 Y127.9978 Z-0.5 F720
G01 X29.0463 Y128.6117 Z-0.5 F720
G01 X30.2444 Y129.1224 Z-0.5 F720
G01 X31.4658 Y129.5746 Z-0.5 F720
G01 X32.7076 Y129.9674 Z-0.5 F720
G01 X34.0644 Y130.3229 Z-0.5 F720
G01 X35.3393 Y130.5894 Z-0.5 F720
G01 X36.7249 Y130.8073 Z-0.5 F720
G01 X38.0201 Y130.9449 Z-0.5 F720
G01 X39.3203 Y131.0198 Z-0.5 F720
G01 X40.6227 Y131.0319 Z-0.5 F720
G01 X41.9242 Y130.9811 Z-0.5 F720
G01 X43.2217 Y130.8676 Z-0.5 F720
G01 X44.6111 Y130.6755 Z-0.5 F720
G01 X45.8907 Y130.4327 Z-0.5 F720
G01 X47.1571 Y130.1284 Z-0.5 F720
G01 X48.5027 Y129.7328 Z-0.5 F720
G01 X49.7323 Y129.3033 Z-0.5 F720
G01 X50.9397 Y128.8149 Z-0.5 F720
G01 X52.1222 Y128.2689 Z-0.5 F720
G01 X53.3645 Y127.6178 Z-0.5 F720
G01 X54.4863 Y126.9561 Z-0.5 F720
G01 X55.5750 Y126.2411 Z-0.5 F720
G01 X56.6278 Y125.4744 Z-0.5 F720
G01 X57.6424 Y124.6577 Z-0.5 F720
G01 X58.6165 Y123.7931 Z-0.5 F720
G01 X59.6174 Y122.8105 Z-0.5 F720
G01 X60.5660 Y121.7773 Z-0.5 F720
G01 X61.3976 Y120.7749 Z-0.5 F720
G01 X62.1799 Y119.7336 Z-0.5 F720
G01 X62.9110 Y118.6557 Z-0.5 F720
G01 X63.5892 Y117.5438 Z-0.5 F720
G01 X64.2130 Y116.4005 Z-0.5 F720
G01 X64.7810 Y115.2283 Z-0.5 F720
G01 X65.2916 Y114.0302 Z-0.5 F720
G01 X65.7439 Y112.8088 Z-0.5 F720
G01 X66.1367 Y111.5670 Z-0.5 F720
G01 X66.4922 Y110.2102 Z-0.5 F720
G01 X66.7587 Y108.9353 Z-0.5 F720
G01 X66.9634 Y107.6491 Z-0.5 F720
G01 X67.1142 Y106.2546 Z-0.5 F720
G01 X67.1891 Y104.9543 Z-0.5 F720
G01 X67.2012 Y103.6519 Z-0.5 F720
G01 X67.1439 Y102.2505 Z-0.5 F720
G01 X67.0256 Y100.9534 Z-0.5 F720
G01 X66.8448 Y99.6636 Z-0.5 F720
G01 X66.6020 Y98.3840 Z-0.5 F720
G01 X66.2977 Y97.1176 Z-0.5 F720
G01 X65.9021 Y95.7719 Z-0.5 F720
G01 X65.4726 Y94.5423 Z-0.5 F720
G01 X64.9842 Y93.3349 Z-0.5 F720
G00 X64.9842 Y93.3349 Z2    F500

;Begin line
G00 X67.1597 Y100.0130 Z2    F2100
G01 X67.1597 Y100.0130 Z-0.5 F210
G01 X67.2015 Y99.9120 Z-0.5 F720
G01 X67.1597 Y99.8109 Z-0.5 F720
G01 X67.0586 Y99.7691 Z-0.5 F720
G01 X66.9576 Y99.8109 Z-0.5 F720
G01 X66.9158 Y99.9120 Z-0.5 F720
G01 X66.9576 Y100.0130 Z-0.5 F720
G01 X67.0586 Y100.0548 Z-0.5 F720
G01 X67.1597 Y100.0130 Z-0.5 F720
G00 X67.1597 Y100.0130 Z2    F500

;Begin line
G00 X66.7340 Y94.2171 Z2    F2100
G01 X66.7340 Y94.2171 Z-0.5 F210
G01 X66.6344 Y94.2678 Z-0.5 F720
G01 X66.5554 Y94.3468 Z-0.5 F720
G01 X66.5046 Y94.4464 Z-0.5 F720
G01 X66.4871 Y94.5568 Z-0.5 F720
G01 X66.5046 Y94.6672 Z-0.5 F720
G01 X66.5554 Y94.7667 Z-0.5 F720
G01 X66.6344 Y94.8458 Z-0.5 F720
G01 X66.7340 Y94.8965 Z-0.5 F720
G01 X66.8443 Y94.9140 Z-0.5 F720
G01 X66.9547 Y94.8965 Z-0.5 F720
G01 X67.0543 Y94.8458 Z-0.5 F720
G01 X67.1333 Y94.7667 Z-0.5 F720
G01 X67.1840 Y94.6672 Z-0.5 F720
G01 X67.2015 Y94.5568 Z-0.5 F720
G01 X67.1840 Y94.4464 Z-0.5 F720
G01 X67.1333 Y94.3468 Z-0.5 F720
G01 X67.0543 Y94.2678 Z-0.5 F720
G01 X66.9547 Y94.2171 Z-0.5 F720
G01 X66.8443 Y94.1996 Z-0.5 F720
G01 X66.7340 Y94.2171 Z-0.5 F720
G00 X66.7340 Y94.2171 Z2    F500

;Begin line
G00 X66.4184 Y94.0594 Z2    F2100
G01 X66.4184 Y94.0594 Z-0.5 F210
G01 X66.3173 Y94.1012 Z-0.5 F720
G01 X66.2755 Y94.2022 Z-0.5 F720
G01 X66.3173 Y94.3033 Z-0.5 F720
G01 X66.4184 Y94.3451 Z-0.5 F720
G01 X66.5194 Y94.3033 Z-0.5 F720
G01 X66.5612 Y94.2022 Z-0.5 F720
G01 X66.5194 Y94.1012 Z-0.5 F720
G01 X66.4184 Y94.0594 Z-0.5 F720
G00 X66.4184 Y94.0594 Z2    F500

;Begin line
G00 X65.8826 Y91.3072 Z2    F2100
G01 X65.8826 Y91.3072 Z-0.5 F210
G01 X65.6930 Y91.2287 Z-0.5 F720
G01 X65.5922 Y91.2086 Z-0.5 F720
G01 X65.4897 Y91.2019 Z-0.5 F720
G01 X65.2863 Y91.2287 Z-0.5 F720
G01 X65.0968 Y91.3072 Z-0.5 F720
G01 X65.0113 Y91.3643 Z-0.5 F720
G01 X64.8662 Y91.5093 Z-0.5 F720
G01 X64.8091 Y91.5948 Z-0.5 F720
G01 X64.7637 Y91.6870 Z-0.5 F720
G01 X64.7106 Y91.8851 Z-0.5 F720
G01 X64.7106 Y92.0903 Z-0.5 F720
G01 X64.7306 Y92.1911 Z-0.5 F720
G01 X64.7637 Y92.2884 Z-0.5 F720
G01 X64.8662 Y92.4661 Z-0.5 F720
G01 X65.0113 Y92.6111 Z-0.5 F720
G01 X65.0968 Y92.6682 Z-0.5 F720
G01 X65.2863 Y92.7467 Z-0.5 F720
G01 X65.3871 Y92.7668 Z-0.5 F720
G01 X65.4897 Y92.7735 Z-0.5 F720
G01 X65.6930 Y92.7467 Z-0.5 F720
G01 X65.8826 Y92.6682 Z-0.5 F720
G01 X65.9680 Y92.6111 Z-0.5 F720
G01 X66.1131 Y92.4661 Z-0.5 F720
G01 X66.1702 Y92.3806 Z-0.5 F720
G01 X66.2157 Y92.2884 Z-0.5 F720
G01 X66.2688 Y92.0903 Z-0.5 F720
G01 X66.2688 Y91.8851 Z-0.5 F720
G01 X66.2487 Y91.7843 Z-0.5 F720
G01 X66.2157 Y91.6870 Z-0.5 F720
G01 X66.1131 Y91.5093 Z-0.5 F720
G01 X65.9680 Y91.3643 Z-0.5 F720
G01 X65.8826 Y91.3072 Z-0.5 F720
G00 X65.8826 Y91.3072 Z2    F500

;Begin line
G00 X66.2040 Y90.9188 Z2    F2100
G01 X66.2040 Y90.9188 Z-0.5 F210
G01 X66.1622 Y90.8177 Z-0.5 F720
G01 X66.0612 Y90.7759 Z-0.5 F720
G01 X65.9601 Y90.8177 Z-0.5 F720
G01 X65.9183 Y90.9188 Z-0.5 F720
G01 X65.9601 Y91.0198 Z-0.5 F720
G01 X66.0612 Y91.0616 Z-0.5 F720
G01 X66.1622 Y91.0198 Z-0.5 F720
G01 X66.2040 Y90.9188 Z-0.5 F720
G00 X66.2040 Y90.9188 Z2    F500

;Begin line
G00 X66.0487 Y89.0748 Z2    F2100
G01 X66.0487 Y89.0748 Z-0.5 F210
G01 X65.8570 Y88.8369 Z-0.5 F720
G01 X65.6192 Y88.6453 Z-0.5 F720
G01 X65.3460 Y88.5085 Z-0.5 F720
G01 X65.1504 Y88.4511 Z-0.5 F720
G01 X64.8467 Y88.4185 Z-0.5 F720
G01 X64.6434 Y88.4330 Z-0.5 F720
G01 X64.3474 Y88.5085 Z-0.5 F720
G01 X64.0743 Y88.6453 Z-0.5 F720
G01 X63.8365 Y88.8369 Z-0.5 F720
G01 X63.6448 Y89.0748 Z-0.5 F720
G01 X63.5081 Y89.3479 Z-0.5 F720
G01 X63.4506 Y89.5435 Z-0.5 F720
G01 X63.4180 Y89.8472 Z-0.5 F720
G01 X63.4325 Y90.0505 Z-0.5 F720
G01 X63.5081 Y90.3465 Z-0.5 F720
G01 X63.6448 Y90.6196 Z-0.5 F720
G01 X63.8365 Y90.8575 Z-0.5 F720
G01 X64.0743 Y91.0491 Z-0.5 F720
G01 X64.3474 Y91.1859 Z-0.5 F720
G01 X64.5430 Y91.2433 Z-0.5 F720
G01 X64.8467 Y91.2760 Z-0.5 F720
G01 X65.0501 Y91.2614 Z-0.5 F720
G01 X65.3460 Y91.1859 Z-0.5 F720
G01 X65.6192 Y91.0491 Z-0.5 F720
G01 X65.8570 Y90.8575 Z-0.5 F720
G01 X65.9905 Y90.7034 Z-0.5 F720
G01 X66.1464 Y90.4407 Z-0.5 F720
G01 X66.2428 Y90.1509 Z-0.5 F720
G01 X66.2755 Y89.8472 Z-0.5 F720
G01 X66.2609 Y89.6439 Z-0.5 F720
G01 X66.1854 Y89.3479 Z-0.5 F720
G01 X66.0487 Y89.0748 Z-0.5 F720
G00 X66.0487 Y89.0748 Z2    F500

;Begin line
G00 X66.8801 Y89.3899 Z2    F2100
G01 X66.8801 Y89.3899 Z-0.5 F210
G01 X66.9872 Y89.4186 Z-0.5 F720
G01 X67.0944 Y89.3899 Z-0.5 F720
G01 X67.1728 Y89.3114 Z-0.5 F720
G01 X67.2015 Y89.2043 Z-0.5 F720
G01 X67.1728 Y89.0971 Z-0.5 F720
G01 X67.0944 Y89.0187 Z-0.5 F720
G01 X66.9872 Y88.9900 Z-0.5 F720
G01 X66.8801 Y89.0187 Z-0.5 F720
G01 X66.8016 Y89.0971 Z-0.5 F720
G01 X66.7729 Y89.2043 Z-0.5 F720
G01 X66.8016 Y89.3114 Z-0.5 F720
G01 X66.8801 Y89.3899 Z-0.5 F720
G00 X66.8801 Y89.3899 Z2    F500

;Begin line
G00 X66.5521 Y86.9458 Z2    F2100
G01 X66.5521 Y86.9458 Z-0.5 F210
G01 X66.3469 Y86.9209 Z-0.5 F720
G01 X66.1418 Y86.9458 Z-0.5 F720
G01 X66.0429 Y86.9766 Z-0.5 F720
G01 X65.8599 Y87.0727 Z-0.5 F720
G01 X65.7785 Y87.1365 Z-0.5 F720
G01 X65.6414 Y87.2912 Z-0.5 F720
G01 X65.5454 Y87.4742 Z-0.5 F720
G01 X65.5146 Y87.5730 Z-0.5 F720
G01 X65.4959 Y87.6748 Z-0.5 F720
G01 X65.4959 Y87.8815 Z-0.5 F720
G01 X65.5454 Y88.0822 Z-0.5 F720
G01 X65.6414 Y88.2651 Z-0.5 F720
G01 X65.7053 Y88.3466 Z-0.5 F720
G01 X65.8599 Y88.4837 Z-0.5 F720
G01 X65.9485 Y88.5372 Z-0.5 F720
G01 X66.1418 Y88.6105 Z-0.5 F720
G01 X66.3469 Y88.6354 Z-0.5 F720
G01 X66.5521 Y88.6105 Z-0.5 F720
G01 X66.7453 Y88.5372 Z-0.5 F720
G01 X66.8339 Y88.4837 Z-0.5 F720
G01 X66.9154 Y88.4198 Z-0.5 F720
G01 X67.0524 Y88.2651 Z-0.5 F720
G01 X67.1485 Y88.0822 Z-0.5 F720
G01 X67.1793 Y87.9833 Z-0.5 F720
G01 X67.1979 Y87.8815 Z-0.5 F720
G01 X67.1979 Y87.6748 Z-0.5 F720
G01 X67.1485 Y87.4742 Z-0.5 F720
G01 X67.0524 Y87.2912 Z-0.5 F720
G01 X66.9886 Y87.2097 Z-0.5 F720
G01 X66.8339 Y87.0727 Z-0.5 F720
G01 X66.6509 Y86.9766 Z-0.5 F720
G01 X66.5521 Y86.9458 Z-0.5 F720
G00 X66.5521 Y86.9458 Z2    F500

;Begin line
G00 X64.3757 Y87.2486 Z2    F2100
G01 X64.3757 Y87.2486 Z-0.5 F210
G01 X64.2862 Y87.1998 Z-0.5 F720
G01 X64.0911 Y87.1425 Z-0.5 F720
G01 X63.8878 Y87.1425 Z-0.5 F720
G01 X63.6927 Y87.1998 Z-0.5 F720
G01 X63.6033 Y87.2486 Z-0.5 F720
G01 X63.4496 Y87.3818 Z-0.5 F720
G01 X63.3885 Y87.4634 Z-0.5 F720
G01 X63.3397 Y87.5528 Z-0.5 F720
G01 X63.2824 Y87.7479 Z-0.5 F720
G01 X63.2824 Y87.9513 Z-0.5 F720
G01 X63.3397 Y88.1464 Z-0.5 F720
G01 X63.3885 Y88.2358 Z-0.5 F720
G01 X63.4496 Y88.3174 Z-0.5 F720
G01 X63.6033 Y88.4506 Z-0.5 F720
G01 X63.6927 Y88.4994 Z-0.5 F720
G01 X63.8878 Y88.5567 Z-0.5 F720
G01 X64.0911 Y88.5567 Z-0.5 F720
G01 X64.2862 Y88.4994 Z-0.5 F720
G01 X64.3757 Y88.4506 Z-0.5 F720
G01 X64.5294 Y88.3174 Z-0.5 F720
G01 X64.5904 Y88.2358 Z-0.5 F720
G01 X64.6393 Y88.1464 Z-0.5 F720
G01 X64.6966 Y87.9513 Z-0.5 F720
G01 X64.6966 Y87.7479 Z-0.5 F720
G01 X64.6393 Y87.5528 Z-0.5 F720
G01 X64.5904 Y87.4634 Z-0.5 F720
G01 X64.5294 Y87.3818 Z-0.5 F720
G01 X64.3757 Y87.2486 Z-0.5 F720
G00 X64.3757 Y87.2486 Z2    F500

;Begin line
G00 X62.6662 Y86.7176 Z2    F2100
G01 X62.6662 Y86.7176 Z-0.5 F210
G01 X62.5590 Y86.7501 Z-0.5 F720
G01 X62.4602 Y86.8029 Z-0.5 F720
G01 X62.3736 Y86.8740 Z-0.5 F720
G01 X62.3025 Y86.9606 Z-0.5 F720
G01 X62.2497 Y87.0594 Z-0.5 F720
G01 X62.2172 Y87.1666 Z-0.5 F720
G01 X62.2062 Y87.2781 Z-0.5 F720
G01 X62.2172 Y87.3896 Z-0.5 F720
G01 X62.2497 Y87.4968 Z-0.5 F720
G01 X62.3025 Y87.5956 Z-0.5 F720
G01 X62.3736 Y87.6822 Z-0.5 F720
G01 X62.4602 Y87.7533 Z-0.5 F720
G01 X62.5590 Y87.8061 Z-0.5 F720
G01 X62.6662 Y87.8386 Z-0.5 F720
G01 X62.7777 Y87.8496 Z-0.5 F720
G01 X62.8892 Y87.8386 Z-0.5 F720
G01 X62.9964 Y87.8061 Z-0.5 F720
G01 X63.0952 Y87.7533 Z-0.5 F720
G01 X63.1818 Y87.6822 Z-0.5 F720
G01 X63.2529 Y87.5956 Z-0.5 F720
G01 X63.3057 Y87.4968 Z-0.5 F720
G01 X63.3382 Y87.3896 Z-0.5 F720
G01 X63.3492 Y87.2781 Z-0.5 F720
G01 X63.3382 Y87.1666 Z-0.5 F720
G01 X63.3057 Y87.0594 Z-0.5 F720
G01 X63.2529 Y86.9606 Z-0.5 F720
G01 X63.1818 Y86.8740 Z-0.5 F720
G01 X63.0952 Y86.8029 Z-0.5 F720
G01 X62.9964 Y86.7501 Z-0.5 F720
G01 X62.8892 Y86.7176 Z-0.5 F720
G01 X62.7777 Y86.7066 Z-0.5 F720
G01 X62.6662 Y86.7176 Z-0.5 F720
G00 X62.6662 Y86.7176 Z2    F500

;Begin line
G00 X61.3202 Y86.1708 Z2    F2100
G01 X61.3202 Y86.1708 Z-0.5 F210
G01 X61.3489 Y86.0637 Z-0.5 F720
G01 X61.3202 Y85.9565 Z-0.5 F720
G01 X61.2418 Y85.8781 Z-0.5 F720
G01 X61.1346 Y85.8494 Z-0.5 F720
G01 X61.0275 Y85.8781 Z-0.5 F720
G01 X60.9490 Y85.9565 Z-0.5 F720
G01 X60.9203 Y86.0637 Z-0.5 F720
G01 X60.9490 Y86.1708 Z-0.5 F720
G01 X61.0275 Y86.2493 Z-0.5 F720
G01 X61.1346 Y86.2780 Z-0.5 F720
G01 X61.2418 Y86.2493 Z-0.5 F720
G01 X61.3202 Y86.1708 Z-0.5 F720
G00 X61.3202 Y86.1708 Z2    F500

;Begin line
G00 X59.2046 Y83.4984 Z2    F2100
G01 X59.2046 Y83.4984 Z-0.5 F210
G01 X59.1615 Y83.6946 Z-0.5 F720
G01 X59.1397 Y83.8942 Z-0.5 F720
G01 X59.1397 Y84.0950 Z-0.5 F720
G01 X59.1615 Y84.2947 Z-0.5 F720
G01 X59.2341 Y84.5868 Z-0.5 F720
G01 X59.3084 Y84.7734 Z-0.5 F720
G01 X59.4025 Y84.9508 Z-0.5 F720
G01 X59.5152 Y85.1171 Z-0.5 F720
G01 X59.6452 Y85.2701 Z-0.5 F720
G01 X59.8693 Y85.4712 Z-0.5 F720
G01 X60.0355 Y85.5839 Z-0.5 F720
G01 X60.2130 Y85.6779 Z-0.5 F720
G01 X60.4956 Y85.7817 Z-0.5 F720
G01 X60.7912 Y85.8385 Z-0.5 F720
G01 X60.9917 Y85.8494 Z-0.5 F720
G01 X61.1923 Y85.8385 Z-0.5 F720
G01 X61.3905 Y85.8060 Z-0.5 F720
G01 X61.5840 Y85.7523 Z-0.5 F720
G01 X61.8605 Y85.6333 Z-0.5 F720
G01 X62.0326 Y85.5298 Z-0.5 F720
G01 X62.1925 Y85.4082 Z-0.5 F720
G01 X62.3383 Y85.2701 Z-0.5 F720
G01 X62.4683 Y85.1171 Z-0.5 F720
G01 X62.5810 Y84.9508 Z-0.5 F720
G01 X62.6751 Y84.7734 Z-0.5 F720
G01 X62.7789 Y84.4908 Z-0.5 F720
G01 X62.8220 Y84.2947 Z-0.5 F720
G01 X62.8438 Y84.0950 Z-0.5 F720
G01 X62.8356 Y83.7941 Z-0.5 F720
G01 X62.8031 Y83.5959 Z-0.5 F720
G01 X62.7494 Y83.4024 Z-0.5 F720
G01 X62.6751 Y83.2158 Z-0.5 F720
G01 X62.5810 Y83.0384 Z-0.5 F720
G01 X62.4683 Y82.8722 Z-0.5 F720
G01 X62.3383 Y82.7191 Z-0.5 F720
G01 X62.1142 Y82.5181 Z-0.5 F720
G01 X61.9480 Y82.4054 Z-0.5 F720
G01 X61.7705 Y82.3113 Z-0.5 F720
G01 X61.4879 Y82.2075 Z-0.5 F720
G01 X61.1923 Y82.1508 Z-0.5 F720
G01 X60.9917 Y82.1399 Z-0.5 F720
G01 X60.7912 Y82.1508 Z-0.5 F720
G01 X60.5930 Y82.1833 Z-0.5 F720
G01 X60.3995 Y82.2370 Z-0.5 F720
G01 X60.1230 Y82.3559 Z-0.5 F720
G01 X59.9509 Y82.4595 Z-0.5 F720
G01 X59.7910 Y82.5810 Z-0.5 F720
G01 X59.6452 Y82.7191 Z-0.5 F720
G01 X59.5152 Y82.8722 Z-0.5 F720
G01 X59.4025 Y83.0384 Z-0.5 F720
G01 X59.3084 Y83.2158 Z-0.5 F720
G01 X59.2046 Y83.4984 Z-0.5 F720
G00 X59.2046 Y83.4984 Z2    F500

;Begin line
G00 X62.7062 Y82.4230 Z2    F2100
G01 X62.7062 Y82.4230 Z-0.5 F210
G01 X62.7481 Y82.5240 Z-0.5 F720
G01 X62.8491 Y82.5659 Z-0.5 F720
G01 X62.9502 Y82.5240 Z-0.5 F720
G01 X62.9920 Y82.4230 Z-0.5 F720
G01 X62.9502 Y82.3220 Z-0.5 F720
G01 X62.8491 Y82.2801 Z-0.5 F720
G01 X62.7481 Y82.3220 Z-0.5 F720
G01 X62.7062 Y82.4230 Z-0.5 F720
G00 X62.7062 Y82.4230 Z2    F500

;Begin line
G00 X61.8729 Y79.4095 Z2    F2100
G01 X61.8729 Y79.4095 Z-0.5 F210
G01 X61.5874 Y79.5220 Z-0.5 F720
G01 X61.3309 Y79.6903 Z-0.5 F720
G01 X61.1139 Y79.9073 Z-0.5 F720
G01 X60.9456 Y80.1638 Z-0.5 F720
G01 X60.8331 Y80.4493 Z-0.5 F720
G01 X60.7809 Y80.7516 Z-0.5 F720
G01 X60.7914 Y81.0583 Z-0.5 F720
G01 X60.8331 Y81.2588 Z-0.5 F720
G01 X60.9016 Y81.4517 Z-0.5 F720
G01 X61.0520 Y81.7191 Z-0.5 F720
G01 X61.2537 Y81.9504 Z-0.5 F720
G01 X61.4982 Y82.1358 Z-0.5 F720
G01 X61.7752 Y82.2676 Z-0.5 F720
G01 X62.0733 Y82.3402 Z-0.5 F720
G01 X62.3800 Y82.3507 Z-0.5 F720
G01 X62.6824 Y82.2986 Z-0.5 F720
