;Generated with vpype gwrite fabian
;plotter-files/circles-vertical-6x9.svg.gcode
G90
G92 X0 Y0 Z0
G00 X0 Y0 Z0 F2100
G00 X0 Y0 Z5 F500

;Begin Line: layer=0 line=0
G00 X75.6336 Y117.7572 Z2    F2100
G01 X75.6336 Y117.7572 Z-0.5 F210
G01 X75.2634 Y116.2885 Z-0.5 F720
G01 X74.8227 Y114.8393 Z-0.5 F720
G01 X74.5566 Y114.0683 Z-0.5 F720
G01 X74.2705 Y113.3045 Z-0.5 F720
G01 X73.6870 Y111.9068 Z-0.5 F720
G01 X73.0367 Y110.5388 Z-0.5 F720
G01 X72.6594 Y109.8157 Z-0.5 F720
G01 X72.2634 Y109.1026 Z-0.5 F720
G01 X71.4795 Y107.8066 Z-0.5 F720
G01 X70.6339 Y106.5500 Z-0.5 F720
G01 X69.7286 Y105.3356 Z-0.5 F720
G01 X68.7659 Y104.1663 Z-0.5 F720
G01 X67.7478 Y103.0449 Z-0.5 F720
G01 X66.6768 Y101.9739 Z-0.5 F720
G01 X66.0790 Y101.4189 Z-0.5 F720
G01 X65.4670 Y100.8797 Z-0.5 F720
G01 X64.2942 Y99.9213 Z-0.5 F720
G01 X63.0764 Y99.0206 Z-0.5 F720
G01 X61.8167 Y98.1797 Z-0.5 F720
G01 X60.5178 Y97.4005 Z-0.5 F720
G01 X59.1828 Y96.6849 Z-0.5 F720
G01 X57.8148 Y96.0346 Z-0.5 F720
G01 X57.0657 Y95.7121 Z-0.5 F720
G01 X56.3085 Y95.4090 Z-0.5 F720
G01 X55.5436 Y95.1258 Z-0.5 F720
G01 X54.7716 Y94.8626 Z-0.5 F720
G01 X53.3208 Y94.4272 Z-0.5 F720
G01 X51.8508 Y94.0625 Z-0.5 F720
G01 X50.3648 Y93.7690 Z-0.5 F720
G01 X48.8664 Y93.5477 Z-0.5 F720
G01 X48.0557 Y93.4585 Z-0.5 F720
G01 X47.2429 Y93.3904 Z-0.5 F720
G01 X45.7299 Y93.3202 Z-0.5 F720
G01 X44.2152 Y93.3230 Z-0.5 F720
G01 X42.7025 Y93.3989 Z-0.5 F720
G01 X41.1951 Y93.5477 Z-0.5 F720
G01 X39.6968 Y93.7690 Z-0.5 F720
G01 X38.8949 Y93.9181 Z-0.5 F720
G01 X38.0971 Y94.0880 Z-0.5 F720
G01 X37.3040 Y94.2786 Z-0.5 F720
G01 X36.5162 Y94.4897 Z-0.5 F720
G01 X35.0687 Y94.9357 Z-0.5 F720
G01 X33.6445 Y95.4511 Z-0.5 F720
G01 X32.2467 Y96.0346 Z-0.5 F720
G01 X30.8788 Y96.6849 Z-0.5 F720
G01 X29.5438 Y97.4005 Z-0.5 F720
G01 X28.8397 Y97.8123 Z-0.5 F720
G01 X28.1466 Y98.2421 Z-0.5 F720
G01 X26.8899 Y99.0878 Z-0.5 F720
G01 X25.6756 Y99.9930 Z-0.5 F720
G01 X24.5063 Y100.9558 Z-0.5 F720
G01 X23.8963 Y101.4972 Z-0.5 F720
G01 X23.3006 Y102.0544 Z-0.5 F720
G01 X22.2336 Y103.1294 Z-0.5 F720
G01 X21.6809 Y103.7292 Z-0.5 F720
G01 X21.1440 Y104.3432 Z-0.5 F720
G01 X20.1899 Y105.5196 Z-0.5 F720
G01 X19.2937 Y106.7406 Z-0.5 F720
G01 X18.4574 Y108.0035 Z-0.5 F720
G01 X17.6831 Y109.3053 Z-0.5 F720
G01 X16.9726 Y110.6429 Z-0.5 F720
G01 X16.6169 Y111.3769 Z-0.5 F720
G01 X16.2805 Y112.1199 Z-0.5 F720
G01 X15.7073 Y113.5220 Z-0.5 F720
G01 X15.2025 Y114.9500 Z-0.5 F720
G01 X14.7672 Y116.4008 Z-0.5 F720
G01 X14.4024 Y117.8709 Z-0.5 F720
G01 X14.1090 Y119.3568 Z-0.5 F720
G01 X13.8876 Y120.8552 Z-0.5 F720
G01 X13.7985 Y121.6659 Z-0.5 F720
G01 X13.7304 Y122.4787 Z-0.5 F720
G01 X13.6601 Y123.9918 Z-0.5 F720
G01 X13.6629 Y125.5064 Z-0.5 F720
G01 X13.7388 Y127.0191 Z-0.5 F720
G01 X13.8876 Y128.5265 Z-0.5 F720
G01 X14.1090 Y130.0249 Z-0.5 F720
G01 X14.2581 Y130.8268 Z-0.5 F720
G01 X14.4280 Y131.6245 Z-0.5 F720
G01 X14.7982 Y133.0932 Z-0.5 F720
G01 X15.2389 Y134.5423 Z-0.5 F720
G01 X15.5050 Y135.3133 Z-0.5 F720
G01 X15.7911 Y136.0772 Z-0.5 F720
G01 X16.3746 Y137.4749 Z-0.5 F720
G01 X17.0249 Y138.8429 Z-0.5 F720
G01 X17.7405 Y140.1778 Z-0.5 F720
G01 X18.1522 Y140.8819 Z-0.5 F720
G01 X18.5821 Y141.5750 Z-0.5 F720
G01 X19.4277 Y142.8317 Z-0.5 F720
G01 X20.3329 Y144.0461 Z-0.5 F720
G01 X21.2957 Y145.2153 Z-0.5 F720
G01 X22.3138 Y146.3368 Z-0.5 F720
G01 X22.8841 Y146.9199 Z-0.5 F720
G01 X23.4693 Y147.4880 Z-0.5 F720
G01 X24.0692 Y148.0408 Z-0.5 F720
G01 X24.6831 Y148.5777 Z-0.5 F720
G01 X25.8595 Y149.5318 Z-0.5 F720
G01 X27.0806 Y150.4280 Z-0.5 F720
G01 X28.3435 Y151.2642 Z-0.5 F720
G01 X29.6453 Y152.0385 Z-0.5 F720
G01 X30.9829 Y152.7491 Z-0.5 F720
G01 X32.3532 Y153.3943 Z-0.5 F720
G01 X33.7531 Y153.9726 Z-0.5 F720
G01 X34.5180 Y154.2558 Z-0.5 F720
G01 X35.2900 Y154.5191 Z-0.5 F720
G01 X36.7407 Y154.9544 Z-0.5 F720
G01 X38.2108 Y155.3192 Z-0.5 F720
G01 X39.6968 Y155.6126 Z-0.5 F720
G01 X41.1951 Y155.8340 Z-0.5 F720
G01 X42.0059 Y155.9232 Z-0.5 F720
G01 X42.8187 Y155.9912 Z-0.5 F720
G01 X44.3317 Y156.0615 Z-0.5 F720
G01 X45.8464 Y156.0587 Z-0.5 F720
G01 X47.3591 Y155.9828 Z-0.5 F720
G01 X48.8664 Y155.8340 Z-0.5 F720
G01 X50.3648 Y155.6126 Z-0.5 F720
G01 X51.1667 Y155.4635 Z-0.5 F720
G01 X51.9645 Y155.2937 Z-0.5 F720
G01 X52.7575 Y155.1031 Z-0.5 F720
G01 X53.5454 Y154.8920 Z-0.5 F720
G01 X54.9929 Y154.4459 Z-0.5 F720
G01 X56.4171 Y153.9305 Z-0.5 F720
G01 X57.8148 Y153.3470 Z-0.5 F720
G01 X59.1828 Y152.6967 Z-0.5 F720
G01 X60.5178 Y151.9812 Z-0.5 F720
G01 X61.8167 Y151.2020 Z-0.5 F720
G01 X62.5001 Y150.7568 Z-0.5 F720
G01 X63.1716 Y150.2939 Z-0.5 F720
G01 X64.3860 Y149.3887 Z-0.5 F720
G01 X65.5553 Y148.4259 Z-0.5 F720
G01 X66.1653 Y147.8844 Z-0.5 F720
G01 X66.7610 Y147.3273 Z-0.5 F720
G01 X67.8280 Y146.2523 Z-0.5 F720
G01 X68.3807 Y145.6525 Z-0.5 F720
G01 X68.9176 Y145.0385 Z-0.5 F720
G01 X69.8717 Y143.8621 Z-0.5 F720
G01 X70.7679 Y142.6410 Z-0.5 F720
G01 X71.6041 Y141.3781 Z-0.5 F720
G01 X72.3785 Y140.0764 Z-0.5 F720
G01 X73.0890 Y138.7388 Z-0.5 F720
G01 X73.4447 Y138.0047 Z-0.5 F720
G01 X73.7811 Y137.2617 Z-0.5 F720
G01 X74.3543 Y135.8597 Z-0.5 F720
G01 X74.6346 Y135.0938 Z-0.5 F720
G01 X74.8950 Y134.3208 Z-0.5 F720
G01 X75.3250 Y132.8685 Z-0.5 F720
G01 X75.6843 Y131.3970 Z-0.5 F720
G01 X75.9722 Y129.9100 Z-0.5 F720
G01 X76.0974 Y129.1040 Z-0.5 F720
G01 X76.2016 Y128.2951 Z-0.5 F720
G01 X76.3392 Y126.7867 Z-0.5 F720
G01 X76.4039 Y125.2734 Z-0.5 F720
G01 X76.3954 Y123.7588 Z-0.5 F720
G01 X76.3139 Y122.2463 Z-0.5 F720
G01 X76.1595 Y120.7396 Z-0.5 F720
G01 X75.9326 Y119.2420 Z-0.5 F720
G01 X75.6336 Y117.7572 Z-0.5 F720
G00 X75.6336 Y117.7572 Z2    F500

;Begin Line: layer=0 line=1
G00 X76.1225 Y119.9929 Z2    F2100
G01 X76.1225 Y119.9929 Z-0.5 F210
G01 X76.2400 Y120.0416 Z-0.5 F720
G01 X76.3575 Y119.9929 Z-0.5 F720
G01 X76.4062 Y119.8754 Z-0.5 F720
G01 X76.3575 Y119.7580 Z-0.5 F720
G01 X76.2400 Y119.7093 Z-0.5 F720
G01 X76.1225 Y119.7580 Z-0.5 F720
G01 X76.0739 Y119.8754 Z-0.5 F720
G01 X76.1225 Y119.9929 Z-0.5 F720
G00 X76.1225 Y119.9929 Z2    F500

;Begin Line: layer=0 line=2
G00 X75.7467 Y113.9838 Z2    F2100
G01 X75.7467 Y113.9838 Z-0.5 F210
G01 X75.8625 Y114.0428 Z-0.5 F720
G01 X75.9908 Y114.0631 Z-0.5 F720
G01 X76.1192 Y114.0428 Z-0.5 F720
G01 X76.2350 Y113.9838 Z-0.5 F720
G01 X76.3269 Y113.8919 Z-0.5 F720
G01 X76.3859 Y113.7761 Z-0.5 F720
G01 X76.4062 Y113.6478 Z-0.5 F720
G01 X76.3859 Y113.5194 Z-0.5 F720
G01 X76.3269 Y113.4036 Z-0.5 F720
G01 X76.2350 Y113.3117 Z-0.5 F720
G01 X76.1192 Y113.2527 Z-0.5 F720
G01 X75.9908 Y113.2324 Z-0.5 F720
G01 X75.8625 Y113.2527 Z-0.5 F720
G01 X75.7467 Y113.3117 Z-0.5 F720
G01 X75.6548 Y113.4036 Z-0.5 F720
G01 X75.5958 Y113.5194 Z-0.5 F720
G01 X75.5754 Y113.6478 Z-0.5 F720
G01 X75.5958 Y113.7761 Z-0.5 F720
G01 X75.6548 Y113.8919 Z-0.5 F720
G01 X75.7467 Y113.9838 Z-0.5 F720
G00 X75.7467 Y113.9838 Z2    F500

;Begin Line: layer=0 line=3
G00 X75.6129 Y113.1180 Z2    F2100
G01 X75.6129 Y113.1180 Z-0.5 F210
G01 X75.4954 Y113.0693 Z-0.5 F720
G01 X75.3779 Y113.1180 Z-0.5 F720
G01 X75.3293 Y113.2355 Z-0.5 F720
G01 X75.3779 Y113.3529 Z-0.5 F720
G01 X75.4954 Y113.4016 Z-0.5 F720
G01 X75.6129 Y113.3529 Z-0.5 F720
G01 X75.6616 Y113.2355 Z-0.5 F720
G01 X75.6129 Y113.1180 Z-0.5 F720
G00 X75.6129 Y113.1180 Z2    F500

;Begin Line: layer=0 line=4
G00 X73.5094 Y110.5408 Z2    F2100
G01 X73.5094 Y110.5408 Z-0.5 F210
G01 X73.5094 Y110.7793 Z-0.5 F720
G01 X73.5327 Y110.8966 Z-0.5 F720
G01 X73.6240 Y111.1170 Z-0.5 F720
G01 X73.6904 Y111.2164 Z-0.5 F720
G01 X73.7692 Y111.3062 Z-0.5 F720
G01 X73.9585 Y111.4515 Z-0.5 F720
G01 X74.0657 Y111.5043 Z-0.5 F720
G01 X74.2962 Y111.5661 Z-0.5 F720
G01 X74.5347 Y111.5661 Z-0.5 F720
G01 X74.6519 Y111.5428 Z-0.5 F720
G01 X74.8724 Y111.4515 Z-0.5 F720
G01 X74.9717 Y111.3851 Z-0.5 F720
G01 X75.0616 Y111.3062 Z-0.5 F720
G01 X75.2068 Y111.1170 Z-0.5 F720
G01 X75.2597 Y111.0098 Z-0.5 F720
G01 X75.3215 Y110.7793 Z-0.5 F720
G01 X75.3215 Y110.5408 Z-0.5 F720
G01 X75.2981 Y110.4235 Z-0.5 F720
G01 X75.2068 Y110.2031 Z-0.5 F720
G01 X75.1404 Y110.1037 Z-0.5 F720
G01 X75.0616 Y110.0139 Z-0.5 F720
G01 X74.8724 Y109.8686 Z-0.5 F720
G01 X74.6519 Y109.7774 Z-0.5 F720
G01 X74.5347 Y109.7540 Z-0.5 F720
G01 X74.4154 Y109.7462 Z-0.5 F720
G01 X74.1789 Y109.7774 Z-0.5 F720
G01 X73.9585 Y109.8686 Z-0.5 F720
G01 X73.8591 Y109.9351 Z-0.5 F720
G01 X73.7692 Y110.0139 Z-0.5 F720
G01 X73.6240 Y110.2031 Z-0.5 F720
G01 X73.5711 Y110.3104 Z-0.5 F720
G01 X73.5094 Y110.5408 Z-0.5 F720
G00 X73.5094 Y110.5408 Z2    F500

;Begin Line: layer=0 line=5
G00 X75.0800 Y109.2508 Z2    F2100
G01 X75.0800 Y109.2508 Z-0.5 F210
G01 X74.9626 Y109.2995 Z-0.5 F720
G01 X74.9139 Y109.4170 Z-0.5 F720
G01 X74.9626 Y109.5345 Z-0.5 F720
G01 X75.0800 Y109.5831 Z-0.5 F720
G01 X75.1975 Y109.5345 Z-0.5 F720
G01 X75.2462 Y109.4170 Z-0.5 F720
G01 X75.1975 Y109.2995 Z-0.5 F720
G01 X75.0800 Y109.2508 Z-0.5 F720
G00 X75.0800 Y109.2508 Z2    F500

;Begin Line: layer=0 line=6
G00 X73.9042 Y109.8155 Z2    F2100
G01 X73.9042 Y109.8155 Z-0.5 F210
G01 X74.1358 Y109.7651 Z-0.5 F720
G01 X74.4640 Y109.6291 Z-0.5 F720
G01 X74.7558 Y109.4265 Z-0.5 F720
G01 X74.9979 Y109.1666 Z-0.5 F720
G01 X75.1791 Y108.8610 Z-0.5 F720
G01 X75.2913 Y108.5240 Z-0.5 F720
G01 X75.3250 Y108.2894 Z-0.5 F720
G01 X75.3124 Y107.9344 Z-0.5 F720
G01 X75.2245 Y107.5902 Z-0.5 F720
G01 X75.0655 Y107.2725 Z-0.5 F720
G01 X74.9235 Y107.0828 Z-0.5 F720
G01 X74.6634 Y106.8407 Z-0.5 F720
G01 X74.3580 Y106.6594 Z-0.5 F720
G01 X74.0209 Y106.5473 Z-0.5 F720
G01 X73.7863 Y106.5135 Z-0.5 F720
G01 X73.4313 Y106.5262 Z-0.5 F720
G01 X73.0871 Y106.6140 Z-0.5 F720
G01 X72.8714 Y106.7125 Z-0.5 F720
G01 X72.5797 Y106.9151 Z-0.5 F720
G01 X72.3376 Y107.1751 Z-0.5 F720
G01 X72.1563 Y107.4806 Z-0.5 F720
G01 X72.0735 Y107.7027 Z-0.5 F720
G01 X72.0104 Y108.0523 Z-0.5 F720
G01 X72.0231 Y108.4073 Z-0.5 F720
G01 X72.1110 Y108.7515 Z-0.5 F720
G01 X72.2699 Y109.0691 Z-0.5 F720
G01 X72.4120 Y109.2589 Z-0.5 F720
G01 X72.6720 Y109.5010 Z-0.5 F720
G01 X72.8714 Y109.6291 Z-0.5 F720
G01 X73.1996 Y109.7651 Z-0.5 F720
G01 X73.5492 Y109.8281 Z-0.5 F720
G01 X73.9042 Y109.8155 Z-0.5 F720
G00 X73.9042 Y109.8155 Z2    F500

;Begin Line: layer=0 line=7
G00 X76.2816 Y107.6390 Z2    F2100
G01 X76.2816 Y107.6390 Z-0.5 F210
G01 X76.3728 Y107.5478 Z-0.5 F720
G01 X76.4062 Y107.4231 Z-0.5 F720
G01 X76.3728 Y107.2985 Z-0.5 F720
G01 X76.2816 Y107.2073 Z-0.5 F720
G01 X76.1570 Y107.1739 Z-0.5 F720
G01 X76.0323 Y107.2073 Z-0.5 F720
G01 X75.9411 Y107.2985 Z-0.5 F720
G01 X75.9077 Y107.4231 Z-0.5 F720
G01 X75.9411 Y107.5478 Z-0.5 F720
G01 X76.0323 Y107.6390 Z-0.5 F720
G01 X76.1570 Y107.6724 Z-0.5 F720
G01 X76.2816 Y107.6390 Z-0.5 F720
G00 X76.2816 Y107.6390 Z2    F500

;Begin Line: layer=0 line=8
G00 X76.4020 Y105.8848 Z2    F2100
G01 X76.4020 Y105.8848 Z-0.5 F210
G01 X76.4093 Y105.7647 Z-0.5 F720
G01 X76.3803 Y105.5261 Z-0.5 F720
G01 X76.2951 Y105.3014 Z-0.5 F720
G01 X76.1586 Y105.1036 Z-0.5 F720
G01 X76.0734 Y105.0185 Z-0.5 F720
G01 X75.8756 Y104.8819 Z-0.5 F720
G01 X75.7659 Y104.8325 Z-0.5 F720
G01 X75.5325 Y104.7750 Z-0.5 F720
G01 X75.2922 Y104.7750 Z-0.5 F720
G01 X75.0588 Y104.8325 Z-0.5 F720
G01 X74.8460 Y104.9442 Z-0.5 F720
G01 X74.7513 Y105.0185 Z-0.5 F720
G01 X74.6661 Y105.1036 Z-0.5 F720
G01 X74.5296 Y105.3014 Z-0.5 F720
G01 X74.4802 Y105.4112 Z-0.5 F720
G01 X74.4227 Y105.6445 Z-0.5 F720
G01 X74.4227 Y105.8848 Z-0.5 F720
G01 X74.4802 Y106.1182 Z-0.5 F720
G01 X74.5919 Y106.3310 Z-0.5 F720
G01 X74.6661 Y106.4258 Z-0.5 F720
G01 X74.7513 Y106.5109 Z-0.5 F720
G01 X74.9491 Y106.6474 Z-0.5 F720
G01 X75.1738 Y106.7326 Z-0.5 F720
G01 X75.2922 Y106.7543 Z-0.5 F720
G01 X75.4123 Y106.7616 Z-0.5 F720
G01 X75.6509 Y106.7326 Z-0.5 F720
G01 X75.8756 Y106.6474 Z-0.5 F720
G01 X76.0734 Y106.5109 Z-0.5 F720
G01 X76.1586 Y106.4258 Z-0.5 F720
G01 X76.2951 Y106.2280 Z-0.5 F720
G01 X76.3803 Y106.0033 Z-0.5 F720
G01 X76.4020 Y105.8848 Z-0.5 F720
G00 X76.4020 Y105.8848 Z2    F500

;Begin Line: layer=0 line=9
G00 X73.4931 Y105.7295 Z2    F2100
G01 X73.4931 Y105.7295 Z-0.5 F210
G01 X73.4265 Y105.5026 Z-0.5 F720
G01 X73.2987 Y105.3037 Z-0.5 F720
G01 X73.2149 Y105.2199 Z-0.5 F720
G01 X73.1199 Y105.1489 Z-0.5 F720
G01 X72.9049 Y105.0506 Z-0.5 F720
G01 X72.7890 Y105.0254 Z-0.5 F720
G01 X72.5526 Y105.0254 Z-0.5 F720
G01 X72.4368 Y105.0506 Z-0.5 F720
G01 X72.2217 Y105.1489 Z-0.5 F720
G01 X72.1268 Y105.2199 Z-0.5 F720
G01 X71.9719 Y105.3986 Z-0.5 F720
G01 X71.8737 Y105.6137 Z-0.5 F720
G01 X71.8485 Y105.7295 Z-0.5 F720
G01 X71.8485 Y105.9660 Z-0.5 F720
G01 X71.8737 Y106.0818 Z-0.5 F720
G01 X71.9719 Y106.2969 Z-0.5 F720
G01 X72.1268 Y106.4756 Z-0.5 F720
G01 X72.3257 Y106.6034 Z-0.5 F720
G01 X72.4368 Y106.6449 Z-0.5 F720
G01 X72.6708 Y106.6785 Z-0.5 F720
G01 X72.7890 Y106.6701 Z-0.5 F720
G01 X73.0159 Y106.6034 Z-0.5 F720
G01 X73.2149 Y106.4756 Z-0.5 F720
G01 X73.2987 Y106.3918 Z-0.5 F720
G01 X73.4265 Y106.1929 Z-0.5 F720
G01 X73.4679 Y106.0818 Z-0.5 F720
G01 X73.5016 Y105.8478 Z-0.5 F720
G01 X73.4931 Y105.7295 Z-0.5 F720
G00 X73.4931 Y105.7295 Z2    F500

;Begin Line: layer=0 line=10
G00 X70.6097 Y105.0535 Z2    F2100
G01 X70.6097 Y105.0535 Z-0.5 F210
G01 X70.5970 Y105.1831 Z-0.5 F720
G01 X70.6097 Y105.3128 Z-0.5 F720
G01 X70.6475 Y105.4375 Z-0.5 F720
G01 X70.7090 Y105.5524 Z-0.5 F720
G01 X70.7916 Y105.6531 Z-0.5 F720
G01 X70.8923 Y105.7357 Z-0.5 F720
G01 X71.0072 Y105.7972 Z-0.5 F720
G01 X71.1319 Y105.8350 Z-0.5 F720
G01 X71.2616 Y105.8478 Z-0.5 F720
G01 X71.3912 Y105.8350 Z-0.5 F720
G01 X71.5159 Y105.7972 Z-0.5 F720
G01 X71.6308 Y105.7357 Z-0.5 F720
G01 X71.7315 Y105.6531 Z-0.5 F720
G01 X71.8142 Y105.5524 Z-0.5 F720
G01 X71.8756 Y105.4375 Z-0.5 F720
G01 X71.9134 Y105.3128 Z-0.5 F720
G01 X71.9262 Y105.1831 Z-0.5 F720
G01 X71.9134 Y105.0535 Z-0.5 F720
G01 X71.8756 Y104.9288 Z-0.5 F720
G01 X71.8142 Y104.8139 Z-0.5 F720
G01 X71.7315 Y104.7132 Z-0.5 F720
G01 X71.6308 Y104.6305 Z-0.5 F720
G01 X71.5159 Y104.5691 Z-0.5 F720
G01 X71.3912 Y104.5313 Z-0.5 F720
G01 X71.2616 Y104.5185 Z-0.5 F720
G01 X71.1319 Y104.5313 Z-0.5 F720
G01 X71.0072 Y104.5691 Z-0.5 F720
G01 X70.8923 Y104.6305 Z-0.5 F720
G01 X70.7916 Y104.7132 Z-0.5 F720
G01 X70.7090 Y104.8139 Z-0.5 F720
G01 X70.6475 Y104.9288 Z-0.5 F720
G01 X70.6097 Y105.0535 Z-0.5 F720
G00 X70.6097 Y105.0535 Z2    F500

;Begin Line: layer=0 line=11
G00 X69.3508 Y103.5216 Z2    F2100
G01 X69.3508 Y103.5216 Z-0.5 F210
G01 X69.2262 Y103.5550 Z-0.5 F720
G01 X69.1350 Y103.6462 Z-0.5 F720
G01 X69.1016 Y103.7708 Z-0.5 F720
G01 X69.1350 Y103.8954 Z-0.5 F720
G01 X69.2262 Y103.9867 Z-0.5 F720
G01 X69.3508 Y104.0201 Z-0.5 F720
G01 X69.4754 Y103.9867 Z-0.5 F720
G01 X69.5666 Y103.8954 Z-0.5 F720
G01 X69.6000 Y103.7708 Z-0.5 F720
G01 X69.5666 Y103.6462 Z-0.5 F720
G01 X69.4754 Y103.5550 Z-0.5 F720
G01 X69.3508 Y103.5216 Z-0.5 F720
G00 X69.3508 Y103.5216 Z2    F500

;Begin Line: layer=0 line=12
G00 X67.0561 Y101.0157 Z2    F2100
G01 X67.0561 Y101.0157 Z-0.5 F210
G01 X67.0277 Y101.3647 Z-0.5 F720
G01 X67.0404 Y101.5979 Z-0.5 F720
G01 X67.0782 Y101.8283 Z-0.5 F720
G01 X67.1809 Y102.1630 Z-0.5 F720
G01 X67.2790 Y102.3750 Z-0.5 F720
G01 X67.3994 Y102.5751 Z-0.5 F720
G01 X67.5407 Y102.7610 Z-0.5 F720
G01 X67.7013 Y102.9306 Z-0.5 F720
G01 X67.8793 Y103.0818 Z-0.5 F720
G01 X68.0726 Y103.2128 Z-0.5 F720
G01 X68.2790 Y103.3222 Z-0.5 F720
G01 X68.4960 Y103.4087 Z-0.5 F720
G01 X68.8357 Y103.4932 Z-0.5 F720
G01 X69.0679 Y103.5184 Z-0.5 F720
G01 X69.3014 Y103.5184 Z-0.5 F720
G01 X69.6483 Y103.4712 Z-0.5 F720
G01 X69.9830 Y103.3684 Z-0.5 F720
G01 X70.1950 Y103.2703 Z-0.5 F720
G01 X70.3951 Y103.1499 Z-0.5 F720
G01 X70.5810 Y103.0086 Z-0.5 F720
G01 X70.7506 Y102.8480 Z-0.5 F720
G01 X70.9018 Y102.6700 Z-0.5 F720
G01 X71.0328 Y102.4767 Z-0.5 F720
G01 X71.1422 Y102.2704 Z-0.5 F720
G01 X71.2287 Y102.0534 Z-0.5 F720
G01 X71.3132 Y101.7136 Z-0.5 F720
G01 X71.3384 Y101.4814 Z-0.5 F720
G01 X71.3384 Y101.2479 Z-0.5 F720
G01 X71.2911 Y100.9010 Z-0.5 F720
G01 X71.2287 Y100.6760 Z-0.5 F720
G01 X71.1422 Y100.4590 Z-0.5 F720
G01 X70.9699 Y100.1542 Z-0.5 F720
G01 X70.8286 Y99.9683 Z-0.5 F720
G01 X70.6680 Y99.7987 Z-0.5 F720
G01 X70.4900 Y99.6476 Z-0.5 F720
G01 X70.2967 Y99.5165 Z-0.5 F720
G01 X70.0903 Y99.4071 Z-0.5 F720
G01 X69.8734 Y99.3206 Z-0.5 F720
