;Generated with vpype gwrite fabian
;plotter-files/hexes2-6x9.svg.gcode
G90
G92 X0 Y0 Z0
G00 X0 Y0 Z0 F2100
G00 X0 Y0 Z5 F500

;Begin Line: layer=0 line=0
G00 X87.3029 Y169.4055 Z2    F2100
G01 X87.3029 Y169.4055 Z-0 F210
G01 X86.8837 Y170.1696 Z-0 F720
G01 X87.3548 Y169.3536 Z-0 F720
G01 X86.8319 Y170.2214 Z-0 F720
G01 X89.8882 Y165.0103 Z-0 F720
G01 X86.9440 Y170.1093 Z-0 F720
G01 X89.8882 Y164.8701 Z-0 F720
G01 X86.9440 Y169.9691 Z-0 F720
G01 X90.0284 Y165.0103 Z-0 F720
G01 X87.0842 Y170.1093 Z-0 F720
G01 X90.0284 Y164.8701 Z-0 F720
G01 X87.0842 Y169.9691 Z-0 F720
G01 X89.7760 Y165.1225 Z-0 F720
G01 X82.4157 Y152.2335 Z-0 F720
G01 X89.7760 Y164.9823 Z-0 F720
G01 X82.4157 Y152.0933 Z-0 F720
G01 X89.7760 Y164.8421 Z-0 F720
G01 X82.4157 Y151.9531 Z-0 F720
G01 X89.7760 Y164.7019 Z-0 F720
G01 X82.5559 Y152.3737 Z-0 F720
G01 X89.9162 Y165.1225 Z-0 F720
G01 X82.5559 Y152.2335 Z-0 F720
G01 X89.9162 Y164.9823 Z-0 F720
G01 X82.5559 Y152.0933 Z-0 F720
G01 X89.9162 Y164.8421 Z-0 F720
G01 X82.5559 Y151.9531 Z-0 F720
G01 X89.9162 Y164.7019 Z-0 F720
G01 X82.6961 Y152.3737 Z-0 F720
G01 X90.0564 Y165.1225 Z-0 F720
G01 X82.6961 Y152.2335 Z-0 F720
G01 X90.0564 Y164.9823 Z-0 F720
G01 X82.6961 Y152.0933 Z-0 F720
G01 X90.0564 Y164.8421 Z-0 F720
G01 X82.6961 Y151.9531 Z-0 F720
G01 X90.0564 Y164.7019 Z-0 F720
G01 X82.8363 Y152.3737 Z-0 F720
G01 X90.1966 Y165.1225 Z-0 F720
G01 X82.8363 Y152.2335 Z-0 F720
G01 X90.1966 Y164.9823 Z-0 F720
G01 X82.8363 Y152.0933 Z-0 F720
G01 X90.1966 Y164.8421 Z-0 F720
G01 X82.8363 Y151.9531 Z-0 F720
G01 X90.1966 Y164.7019 Z-0 F720
G01 X82.4157 Y152.3737 Z-0 F720
G01 X89.7760 Y139.4854 Z-0 F720
G01 X82.4157 Y152.2335 Z-0 F720
G01 X89.7760 Y139.3452 Z-0 F720
G01 X82.4157 Y152.0933 Z-0 F720
G01 X89.7760 Y139.2050 Z-0 F720
G01 X82.4157 Y151.9531 Z-0 F720
G01 X89.9162 Y139.6256 Z-0 F720
G01 X82.5559 Y152.3737 Z-0 F720
G01 X89.9162 Y139.4854 Z-0 F720
G01 X82.5559 Y152.2335 Z-0 F720
G01 X89.9162 Y139.3452 Z-0 F720
G01 X82.5559 Y152.0933 Z-0 F720
G01 X89.9162 Y139.2050 Z-0 F720
G01 X82.5559 Y151.9531 Z-0 F720
G01 X90.0564 Y139.6256 Z-0 F720
G01 X82.6961 Y152.3737 Z-0 F720
G01 X90.0564 Y139.4854 Z-0 F720
G01 X82.6961 Y152.2335 Z-0 F720
G01 X90.0564 Y139.3452 Z-0 F720
G01 X82.6961 Y152.0933 Z-0 F720
G01 X90.0564 Y139.2050 Z-0 F720
G01 X82.6961 Y151.9531 Z-0 F720
G01 X90.1966 Y139.6256 Z-0 F720
G01 X82.8363 Y152.3737 Z-0 F720
G01 X90.1966 Y139.4854 Z-0 F720
G01 X82.8363 Y152.2335 Z-0 F720
G01 X90.1966 Y139.3452 Z-0 F720
G01 X82.8363 Y152.0933 Z-0 F720
G01 X90.1966 Y139.2050 Z-0 F720
G01 X82.8363 Y151.9531 Z-0 F720
G01 X89.7760 Y139.6256 Z-0 F720
G01 X82.4157 Y126.7366 Z-0 F720
G01 X89.7760 Y139.4854 Z-0 F720
G01 X82.4157 Y126.5964 Z-0 F720
G01 X89.7760 Y139.3452 Z-0 F720
G01 X82.4157 Y126.4562 Z-0 F720
G01 X89.7760 Y139.2050 Z-0 F720
G01 X82.5559 Y126.8768 Z-0 F720
G01 X89.9162 Y139.6256 Z-0 F720
G01 X82.5559 Y126.7366 Z-0 F720
G01 X89.9162 Y139.4854 Z-0 F720
G01 X82.5559 Y126.5964 Z-0 F720
G01 X89.9162 Y139.3452 Z-0 F720
G01 X82.5559 Y126.4562 Z-0 F720
G01 X89.9162 Y139.2050 Z-0 F720
G01 X82.6961 Y126.8768 Z-0 F720
G01 X90.0564 Y139.6256 Z-0 F720
G01 X82.6961 Y126.7366 Z-0 F720
G01 X90.0564 Y139.4854 Z-0 F720
G01 X82.6961 Y126.5964 Z-0 F720
G01 X90.0564 Y139.3452 Z-0 F720
G01 X82.6961 Y126.4562 Z-0 F720
G01 X90.0564 Y139.2050 Z-0 F720
G01 X82.8363 Y126.8768 Z-0 F720
G01 X90.1966 Y139.6256 Z-0 F720
G01 X82.8363 Y126.7366 Z-0 F720
G01 X90.1966 Y139.4854 Z-0 F720
G01 X82.8363 Y126.5964 Z-0 F720
G01 X90.1966 Y139.3452 Z-0 F720
G01 X82.8363 Y126.4562 Z-0 F720
G01 X90.1966 Y139.2050 Z-0 F720
G01 X82.4157 Y126.8768 Z-0 F720
G01 X83.7279 Y128.7820 Z-0 F720
G01 X82.5503 Y126.7422 Z-0 F720
G01 X83.5933 Y128.9166 Z-0 F720
G01 X82.5503 Y130.8219 Z-0 F720
G01 X83.7279 Y128.7820 Z-0 F720
G01 X82.4157 Y130.9565 Z-0 F720
G00 X82.4157 Y130.9565 Z2    F500

;Begin Line: layer=0 line=1
G00 X82.4157 Y126.8768 Z2    F2100
G01 X82.4157 Y126.8768 Z-0 F210
G01 X90.1966 Y113.7074 Z-0 F720
G01 X82.8363 Y126.4562 Z-0 F720
G01 X90.1966 Y113.8476 Z-0 F720
G01 X82.8363 Y126.5964 Z-0 F720
G01 X90.1966 Y113.9878 Z-0 F720
G01 X82.8363 Y126.7366 Z-0 F720
G01 X90.1966 Y114.1280 Z-0 F720
G01 X82.8363 Y126.8768 Z-0 F720
G01 X90.0564 Y113.7074 Z-0 F720
G01 X82.6961 Y126.4562 Z-0 F720
G01 X90.0564 Y113.8476 Z-0 F720
G01 X82.6961 Y126.5964 Z-0 F720
G01 X90.0564 Y113.9878 Z-0 F720
G01 X82.6961 Y126.7366 Z-0 F720
G01 X90.0564 Y114.1280 Z-0 F720
G01 X82.6961 Y126.8768 Z-0 F720
G01 X89.9162 Y113.7074 Z-0 F720
G01 X82.5559 Y126.4562 Z-0 F720
G01 X89.9162 Y113.8476 Z-0 F720
G01 X82.5559 Y126.5964 Z-0 F720
G01 X89.9162 Y113.9878 Z-0 F720
G01 X82.5559 Y126.7366 Z-0 F720
G01 X89.9162 Y114.1280 Z-0 F720
G01 X82.5559 Y126.8768 Z-0 F720
G01 X89.7760 Y113.7074 Z-0 F720
G01 X82.4157 Y126.4562 Z-0 F720
G01 X89.7760 Y113.8476 Z-0 F720
G01 X82.4157 Y126.5964 Z-0 F720
G01 X89.7760 Y113.9878 Z-0 F720
G01 X82.4157 Y126.7366 Z-0 F720
G01 X89.7760 Y114.1280 Z-0 F720
G01 X82.8363 Y100.9593 Z-0 F720
G01 X90.1966 Y113.7074 Z-0 F720
G01 X82.8363 Y101.0995 Z-0 F720
G01 X90.1966 Y113.8476 Z-0 F720
G01 X82.8363 Y101.2397 Z-0 F720
G01 X90.1966 Y113.9878 Z-0 F720
G01 X82.8363 Y101.3799 Z-0 F720
G01 X90.1966 Y114.1280 Z-0 F720
G01 X82.6961 Y100.9593 Z-0 F720
G01 X90.0564 Y113.7074 Z-0 F720
G01 X82.6961 Y101.0995 Z-0 F720
G01 X90.0564 Y113.8476 Z-0 F720
G01 X82.6961 Y101.2397 Z-0 F720
G01 X90.0564 Y113.9878 Z-0 F720
G01 X82.6961 Y101.3799 Z-0 F720
G01 X90.0564 Y114.1280 Z-0 F720
G01 X82.5559 Y100.9593 Z-0 F720
G01 X89.9162 Y113.7074 Z-0 F720
G01 X82.5559 Y101.0995 Z-0 F720
G01 X89.9162 Y113.8476 Z-0 F720
G01 X82.5559 Y101.2397 Z-0 F720
G01 X89.9162 Y113.9878 Z-0 F720
G01 X82.5559 Y101.3799 Z-0 F720
G01 X89.9162 Y114.1280 Z-0 F720
G01 X82.4157 Y100.9593 Z-0 F720
G01 X89.7760 Y113.7074 Z-0 F720
G01 X82.4157 Y101.0995 Z-0 F720
G01 X89.7760 Y113.8476 Z-0 F720
G01 X82.4157 Y101.2397 Z-0 F720
G01 X89.7760 Y113.9878 Z-0 F720
G01 X82.4157 Y101.3799 Z-0 F720
G01 X76.7797 Y101.1275 Z-0 F720
G01 X82.6680 Y101.1275 Z-0 F720
G01 X76.7797 Y101.2677 Z-0 F720
G01 X82.6680 Y101.2677 Z-0 F720
G01 X76.6396 Y101.1275 Z-0 F720
G01 X82.5278 Y101.1275 Z-0 F720
G01 X76.6396 Y101.2677 Z-0 F720
G01 X82.5278 Y101.2677 Z-0 F720
G01 X76.5274 Y101.3799 Z-0 F720
G01 X73.8356 Y106.2272 Z-0 F720
G01 X76.7797 Y101.1275 Z-0 F720
G01 X73.8356 Y106.3674 Z-0 F720
G01 X76.7797 Y101.2677 Z-0 F720
G01 X73.6954 Y106.2272 Z-0 F720
G01 X76.6396 Y101.1275 Z-0 F720
G01 X73.6954 Y106.3674 Z-0 F720
G01 X76.6396 Y101.2677 Z-0 F720
G01 X73.5833 Y106.4795 Z-0 F720
G01 X74.1062 Y105.6110 Z-0 F720
G01 X73.6351 Y106.4270 Z-0 F720
G01 X74.0543 Y105.6636 Z-0 F720
G00 X74.0543 Y105.6636 Z2    F500

;Begin Line: layer=0 line=2
G00 X77.0440 Y107.5485 Z2    F2100
G01 X77.0440 Y107.5485 Z-0 F210
G01 X77.0083 Y107.6179 Z-0 F720
G01 X77.3342 Y107.3172 Z-0 F720
G01 X77.2606 Y107.3656 Z-0 F720
G01 X77.3342 Y107.4574 Z-0 F720
G01 X77.2606 Y107.5058 Z-0 F720
G01 X77.1940 Y107.3172 Z-0 F720
G01 X77.1204 Y107.3656 Z-0 F720
G01 X77.1940 Y107.4574 Z-0 F720
G01 X77.1204 Y107.5058 Z-0 F720
G01 X77.0819 Y107.5696 Z-0 F720
G01 X77.4050 Y107.2639 Z-0 F720
G01 X77.3342 Y107.3172 Z-0 F720
G01 X77.4050 Y107.4041 Z-0 F720
G01 X77.3342 Y107.4574 Z-0 F720
G01 X77.2648 Y107.2639 Z-0 F720
G01 X77.1940 Y107.3172 Z-0 F720
G01 X77.2648 Y107.4041 Z-0 F720
G01 X77.1940 Y107.4574 Z-0 F720
G01 X77.1527 Y107.5163 Z-0 F720
G01 X77.4716 Y107.2064 Z-0 F720
G01 X77.4050 Y107.2639 Z-0 F720
G01 X77.4716 Y107.3466 Z-0 F720
G01 X77.4050 Y107.4041 Z-0 F720
G01 X77.3314 Y107.2064 Z-0 F720
G01 X77.2648 Y107.2639 Z-0 F720
G01 X77.3314 Y107.3466 Z-0 F720
G01 X77.2193 Y107.4588 Z-0 F720
G01 X77.5340 Y107.1447 Z-0 F720
G01 X77.4716 Y107.2064 Z-0 F720
G01 X77.5340 Y107.2849 Z-0 F720
G01 X77.4716 Y107.3466 Z-0 F720
G01 X77.3938 Y107.1447 Z-0 F720
G01 X77.3314 Y107.2064 Z-0 F720
G01 X77.3938 Y107.2849 Z-0 F720
G01 X77.2817 Y107.3971 Z-0 F720
G01 X77.5929 Y107.0789 Z-0 F720
G01 X77.5340 Y107.1447 Z-0 F720
G01 X77.5929 Y107.2191 Z-0 F720
G01 X77.5340 Y107.2849 Z-0 F720
G01 X77.4527 Y107.0789 Z-0 F720
G01 X77.3938 Y107.1447 Z-0 F720
G01 X77.4527 Y107.2191 Z-0 F720
G01 X77.3406 Y107.3312 Z-0 F720
G01 X77.6469 Y107.0095 Z-0 F720
G01 X77.5929 Y107.0789 Z-0 F720
G01 X77.6469 Y107.1497 Z-0 F720
G01 X77.5929 Y107.2191 Z-0 F720
G01 X77.5067 Y107.0095 Z-0 F720
G01 X77.4527 Y107.0789 Z-0 F720
G01 X77.5067 Y107.1497 Z-0 F720
G01 X77.4527 Y107.2191 Z-0 F720
G01 X77.3945 Y107.2618 Z-0 F720
G01 X77.6966 Y106.9366 Z-0 F720
G01 X77.6469 Y107.0095 Z-0 F720
G01 X77.6966 Y107.0767 Z-0 F720
G01 X77.6469 Y107.1497 Z-0 F720
G01 X77.5565 Y106.9366 Z-0 F720
G01 X77.5067 Y107.0095 Z-0 F720
G01 X77.5565 Y107.0767 Z-0 F720
G01 X77.5067 Y107.1497 Z-0 F720
G01 X77.4443 Y107.1889 Z-0 F720
G01 X77.7408 Y106.8608 Z-0 F720
G01 X77.6966 Y106.9366 Z-0 F720
G01 X77.7408 Y107.0011 Z-0 F720
G01 X77.6966 Y107.0767 Z-0 F720
G01 X77.6006 Y106.8608 Z-0 F720
G01 X77.5565 Y106.9366 Z-0 F720
G01 X77.6006 Y107.0011 Z-0 F720
G01 X77.5565 Y107.0767 Z-0 F720
G01 X77.4885 Y107.1132 Z-0 F720
G01 X77.7801 Y106.7816 Z-0 F720
G01 X77.7408 Y106.8608 Z-0 F720
G01 X77.7801 Y106.9218 Z-0 F720
G01 X77.7408 Y107.0011 Z-0 F720
G01 X77.6399 Y106.7816 Z-0 F720
G01 X77.6006 Y106.8608 Z-0 F720
G01 X77.6399 Y106.9218 Z-0 F720
G01 X77.6006 Y107.0011 Z-0 F720
G01 X77.5277 Y107.0340 Z-0 F720
G01 X77.8144 Y106.7010 Z-0 F720
G01 X77.7801 Y106.7816 Z-0 F720
G01 X77.8144 Y106.8412 Z-0 F720
G01 X77.7801 Y106.9218 Z-0 F720
G01 X77.6742 Y106.7010 Z-0 F720
G01 X77.6399 Y106.7816 Z-0 F720
G01 X77.6742 Y106.8412 Z-0 F720
G01 X77.6399 Y106.9218 Z-0 F720
G01 X77.5621 Y106.9534 Z-0 F720
G01 X77.8424 Y106.6176 Z-0 F720
G01 X77.8144 Y106.7010 Z-0 F720
G01 X77.8424 Y106.7578 Z-0 F720
G01 X77.8144 Y106.8412 Z-0 F720
G01 X77.7022 Y106.6176 Z-0 F720
G01 X77.6742 Y106.7010 Z-0 F720
G01 X77.7022 Y106.7578 Z-0 F720
G01 X77.6742 Y106.8412 Z-0 F720
G01 X77.5901 Y106.8700 Z-0 F720
G01 X77.8656 Y106.5321 Z-0 F720
G01 X77.8424 Y106.6176 Z-0 F720
G01 X77.8656 Y106.6723 Z-0 F720
G01 X77.8424 Y106.7578 Z-0 F720
G01 X77.7254 Y106.5321 Z-0 F720
G01 X77.7022 Y106.6176 Z-0 F720
G01 X77.7254 Y106.6723 Z-0 F720
G01 X77.7022 Y106.7578 Z-0 F720
G01 X77.6132 Y106.7844 Z-0 F720
G01 X77.8831 Y106.4459 Z-0 F720
G01 X77.8656 Y106.5321 Z-0 F720
G01 X77.8831 Y106.5861 Z-0 F720
G01 X77.8656 Y106.6723 Z-0 F720
G01 X77.7429 Y106.4459 Z-0 F720
G01 X77.7254 Y106.5321 Z-0 F720
G01 X77.7429 Y106.5861 Z-0 F720
G01 X77.7254 Y106.6723 Z-0 F720
G01 X77.6307 Y106.6982 Z-0 F720
G01 X77.8950 Y106.3590 Z-0 F720
G01 X77.8831 Y106.5861 Z-0 F720
G01 X77.7548 Y106.3590 Z-0 F720
G01 X77.7429 Y106.5861 Z-0 F720
G01 X77.6427 Y106.6113 Z-0 F720
G01 X77.9006 Y106.2706 Z-0 F720
G01 X77.8950 Y106.4991 Z-0 F720
G01 X77.7604 Y106.2706 Z-0 F720
G01 X77.7548 Y106.4991 Z-0 F720
G01 X77.6483 Y106.5230 Z-0 F720
G01 X77.9006 Y106.1830 Z-0 F720
G01 X77.9006 Y106.4108 Z-0 F720
G01 X77.7604 Y106.1830 Z-0 F720
G01 X77.7604 Y106.4108 Z-0 F720
G01 X77.6483 Y106.4353 Z-0 F720
G01 X77.8950 Y106.0947 Z-0 F720
G01 X77.9006 Y106.3232 Z-0 F720
G01 X77.7548 Y106.0947 Z-0 F720
G01 X77.7604 Y106.3232 Z-0 F720
G01 X77.6427 Y106.3470 Z-0 F720
G01 X77.8831 Y106.0078 Z-0 F720
G01 X77.8950 Y106.2349 Z-0 F720
G01 X77.7429 Y106.0078 Z-0 F720
G01 X77.7548 Y106.2349 Z-0 F720
G01 X77.6307 Y106.2601 Z-0 F720
G01 X77.8656 Y105.9215 Z-0 F720
G01 X77.8831 Y106.0078 Z-0 F720
G01 X77.8656 Y106.0617 Z-0 F720
G01 X77.8831 Y106.1480 Z-0 F720
G01 X77.7254 Y105.9215 Z-0 F720
G01 X77.7429 Y106.0078 Z-0 F720
G01 X77.7254 Y106.0617 Z-0 F720
G01 X77.7429 Y106.1480 Z-0 F720
G01 X77.6132 Y106.1739 Z-0 F720
G01 X77.8424 Y105.8360 Z-0 F720
G01 X77.8656 Y105.9215 Z-0 F720
G01 X77.8424 Y105.9762 Z-0 F720
G01 X77.8656 Y106.0617 Z-0 F720
G01 X77.7022 Y105.8360 Z-0 F720
G01 X77.7254 Y105.9215 Z-0 F720
G01 X77.7022 Y105.9762 Z-0 F720
G01 X77.7254 Y106.0617 Z-0 F720
G01 X77.5901 Y106.0884 Z-0 F720
G01 X77.8144 Y105.7533 Z-0 F720
G01 X77.8424 Y105.8360 Z-0 F720
G01 X77.8144 Y105.8935 Z-0 F720
G01 X77.8424 Y105.9762 Z-0 F720
G01 X77.6742 Y105.7533 Z-0 F720
G01 X77.7022 Y105.8360 Z-0 F720
G01 X77.6742 Y105.8935 Z-0 F720
G01 X77.7022 Y105.9762 Z-0 F720
G01 X77.5621 Y106.0057 Z-0 F720
G01 X77.7801 Y105.6720 Z-0 F720
G01 X77.8144 Y105.7533 Z-0 F720
G01 X77.7801 Y105.8122 Z-0 F720
G01 X77.8144 Y105.8935 Z-0 F720
G01 X77.6399 Y105.6720 Z-0 F720
G01 X77.6742 Y105.7533 Z-0 F720
G01 X77.6399 Y105.8122 Z-0 F720
G01 X77.6742 Y105.8935 Z-0 F720
G01 X77.5277 Y105.9243 Z-0 F720
G01 X77.7408 Y105.5928 Z-0 F720
G01 X77.7801 Y105.6720 Z-0 F720
G01 X77.7408 Y105.7330 Z-0 F720
G01 X77.7801 Y105.8122 Z-0 F720
G01 X77.6006 Y105.5928 Z-0 F720
G01 X77.6399 Y105.6720 Z-0 F720
G01 X77.6006 Y105.7330 Z-0 F720
G01 X77.6399 Y105.8122 Z-0 F720
G01 X77.4885 Y105.8451 Z-0 F720
G01 X77.6966 Y105.5171 Z-0 F720
G01 X77.7408 Y105.5928 Z-0 F720
G01 X77.6966 Y105.6573 Z-0 F720
G01 X77.7408 Y105.7330 Z-0 F720
G01 X77.5565 Y105.5171 Z-0 F720
G01 X77.6006 Y105.5928 Z-0 F720
G01 X77.5565 Y105.6573 Z-0 F720
G01 X77.6006 Y105.7330 Z-0 F720
G01 X77.4443 Y105.7694 Z-0 F720
G01 X77.6469 Y105.4442 Z-0 F720
G01 X77.6966 Y105.5171 Z-0 F720
G01 X77.6469 Y105.5844 Z-0 F720
G01 X77.6966 Y105.6573 Z-0 F720
G01 X77.5067 Y105.4442 Z-0 F720
G01 X77.5565 Y105.5171 Z-0 F720
G01 X77.5067 Y105.5844 Z-0 F720
G01 X77.5565 Y105.6573 Z-0 F720
G01 X77.3945 Y105.6965 Z-0 F720
G01 X77.5929 Y105.3748 Z-0 F720
G01 X77.6469 Y105.4442 Z-0 F720
G01 X77.5929 Y105.5150 Z-0 F720
G01 X77.6469 Y105.5844 Z-0 F720
G01 X77.4527 Y105.3748 Z-0 F720
G01 X77.5067 Y105.4442 Z-0 F720
G01 X77.4527 Y105.5150 Z-0 F720
G01 X77.5067 Y105.5844 Z-0 F720
G01 X77.3406 Y105.6271 Z-0 F720
G01 X77.5340 Y105.3089 Z-0 F720
G01 X77.5929 Y105.3748 Z-0 F720
G01 X77.5340 Y105.4491 Z-0 F720
G01 X77.5929 Y105.5150 Z-0 F720
G01 X77.3938 Y105.3089 Z-0 F720
G01 X77.4527 Y105.3748 Z-0 F720
G01 X77.3938 Y105.4491 Z-0 F720
G01 X77.4527 Y105.5150 Z-0 F720
G01 X77.2817 Y105.5612 Z-0 F720
G01 X77.4716 Y105.2472 Z-0 F720
G01 X77.5340 Y105.3089 Z-0 F720
G01 X77.4716 Y105.3874 Z-0 F720
G01 X77.5340 Y105.4491 Z-0 F720
G01 X77.3314 Y105.2472 Z-0 F720
G01 X77.3938 Y105.3089 Z-0 F720
G01 X77.3314 Y105.3874 Z-0 F720
G01 X77.3938 Y105.4491 Z-0 F720
G01 X77.2193 Y105.4995 Z-0 F720
G01 X77.4050 Y105.1897 Z-0 F720
G01 X77.4716 Y105.2472 Z-0 F720
G01 X77.4050 Y105.3299 Z-0 F720
G01 X77.4716 Y105.3874 Z-0 F720
G01 X77.2648 Y105.1897 Z-0 F720
G01 X77.3314 Y105.2472 Z-0 F720
G01 X77.2648 Y105.3299 Z-0 F720
G01 X77.3314 Y105.3874 Z-0 F720
G01 X77.1527 Y105.4421 Z-0 F720
G01 X77.3342 Y105.1364 Z-0 F720
G01 X77.4050 Y105.1897 Z-0 F720
G01 X77.3342 Y105.2766 Z-0 F720
G01 X77.4050 Y105.3299 Z-0 F720
G01 X77.1940 Y105.1364 Z-0 F720
G01 X77.2648 Y105.1897 Z-0 F720
G01 X77.1940 Y105.2766 Z-0 F720
G01 X77.2648 Y105.3299 Z-0 F720
G01 X77.0819 Y105.3888 Z-0 F720
G01 X77.2606 Y105.0881 Z-0 F720
G01 X77.3342 Y105.1364 Z-0 F720
G01 X77.2606 Y105.2283 Z-0 F720
G01 X77.3342 Y105.2766 Z-0 F720
G01 X77.1204 Y105.0881 Z-0 F720
G01 X77.1940 Y105.1364 Z-0 F720
G01 X77.1204 Y105.2283 Z-0 F720
G01 X77.1940 Y105.2766 Z-0 F720
G01 X77.0083 Y105.3404 Z-0 F720
G01 X77.1842 Y105.0453 Z-0 F720
G01 X77.2606 Y105.0881 Z-0 F720
G01 X77.1842 Y105.1855 Z-0 F720
G01 X77.2606 Y105.2283 Z-0 F720
G01 X77.0440 Y105.0453 Z-0 F720
G01 X77.1204 Y105.0881 Z-0 F720
G01 X77.0440 Y105.1855 Z-0 F720
G01 X77.1204 Y105.2283 Z-0 F720
G01 X76.9319 Y105.2977 Z-0 F720
G01 X77.1043 Y105.0074 Z-0 F720
G01 X77.1842 Y105.0453 Z-0 F720
G01 X77.1043 Y105.1476 Z-0 F720
G01 X77.1842 Y105.1855 Z-0 F720
G01 X76.9641 Y105.0074 Z-0 F720
G01 X77.0440 Y105.0453 Z-0 F720
G01 X76.9641 Y105.1476 Z-0 F720
G01 X77.0440 Y105.1855 Z-0 F720
G01 X76.8519 Y105.2598 Z-0 F720
G01 X77.0230 Y104.9745 Z-0 F720
G01 X77.1043 Y105.0074 Z-0 F720
G01 X77.0230 Y105.1147 Z-0 F720
G01 X77.1043 Y105.1476 Z-0 F720
G01 X76.8828 Y104.9745 Z-0 F720
G01 X76.9641 Y105.0074 Z-0 F720
G01 X76.8828 Y105.1147 Z-0 F720
G01 X76.9641 Y105.1476 Z-0 F720
G01 X76.7706 Y105.2269 Z-0 F720
G01 X76.9389 Y104.9472 Z-0 F720
G01 X77.0230 Y104.9745 Z-0 F720
G01 X76.9389 Y105.0874 Z-0 F720
G01 X77.0230 Y105.1147 Z-0 F720
G01 X76.7987 Y104.9472 Z-0 F720
G01 X76.8828 Y104.9745 Z-0 F720
