;Generated with vpype gwrite fabian
;plotter-files/hexes-6x9.svg.gcode
G90
G92 X0 Y0 Z0
G00 X0 Y0 Z0 F2100
G00 X0 Y0 Z5 F500

;Begin Line: layer=0 line=0
G00 X75.3115 Y129.3647 Z2    F2100
G01 X75.3115 Y129.3647 Z-0.2 F210
G01 X72.2801 Y129.2355 Z-0.2 F720
G01 X75.4408 Y129.2355 Z-0.2 F720
G01 X72.1509 Y129.3647 Z-0.2 F720
G01 X78.5284 Y129.3085 Z-0.2 F720
G01 X72.2071 Y129.3085 Z-0.2 F720
G01 X78.5284 Y129.1680 Z-0.2 F720
G01 X72.2071 Y129.1680 Z-0.2 F720
G01 X78.6689 Y129.3085 Z-0.2 F720
G01 X72.3475 Y129.3085 Z-0.2 F720
G01 X78.6689 Y129.1680 Z-0.2 F720
G01 X72.3475 Y129.1680 Z-0.2 F720
G01 X78.4722 Y129.3647 Z-0.2 F720
G01 X75.4408 Y129.2355 Z-0.2 F720
G01 X78.6014 Y129.2355 Z-0.2 F720
G01 X75.3115 Y129.3647 Z-0.2 F720
G01 X73.8605 Y126.4983 Z-0.2 F720
G01 X75.4408 Y129.2355 Z-0.2 F720
G01 X73.7312 Y126.6276 Z-0.2 F720
G01 X75.4408 Y123.7612 Z-0.2 F720
G01 X73.8605 Y126.4983 Z-0.2 F720
G01 X75.3115 Y123.8904 Z-0.2 F720
G01 X72.3475 Y118.2195 Z-0.2 F720
G01 X75.5082 Y123.6938 Z-0.2 F720
G01 X72.3475 Y118.3600 Z-0.2 F720
G01 X75.5082 Y123.8342 Z-0.2 F720
G01 X72.2071 Y118.2195 Z-0.2 F720
G01 X75.3677 Y123.6938 Z-0.2 F720
G01 X72.2071 Y118.3600 Z-0.2 F720
G01 X75.3677 Y123.8342 Z-0.2 F720
G01 X72.1509 Y118.4162 Z-0.2 F720
G01 X78.6689 Y118.2195 Z-0.2 F720
G01 X72.3475 Y118.2195 Z-0.2 F720
G01 X78.6689 Y118.3600 Z-0.2 F720
G01 X72.3475 Y118.3600 Z-0.2 F720
G01 X78.5284 Y118.2195 Z-0.2 F720
G01 X72.2071 Y118.2195 Z-0.2 F720
G01 X78.5284 Y118.3600 Z-0.2 F720
G01 X72.2071 Y118.3600 Z-0.2 F720
G01 X78.4722 Y118.4162 Z-0.2 F720
G01 X75.4408 Y118.2869 Z-0.2 F720
G01 X78.6014 Y118.2869 Z-0.2 F720
G01 X75.3115 Y118.4162 Z-0.2 F720
G00 X75.3115 Y118.4162 Z2    F500

;Begin Line: layer=0 line=1
G00 X72.1509 Y118.4162 Z2    F2100
G01 X72.1509 Y118.4162 Z-0.2 F210
G01 X75.5082 Y112.7445 Z-0.2 F720
G01 X72.3475 Y118.2195 Z-0.2 F720
G01 X75.5082 Y112.8850 Z-0.2 F720
G01 X72.3475 Y118.3600 Z-0.2 F720
G01 X75.3677 Y112.7445 Z-0.2 F720
G01 X72.2071 Y118.2195 Z-0.2 F720
G01 X75.3677 Y112.8850 Z-0.2 F720
G01 X72.2071 Y118.3600 Z-0.2 F720
G01 X75.3115 Y112.9412 Z-0.2 F720
G01 X73.8605 Y110.0748 Z-0.2 F720
G01 X75.4408 Y112.8120 Z-0.2 F720
G01 X73.7312 Y110.2041 Z-0.2 F720
G01 X70.6998 Y110.0748 Z-0.2 F720
G01 X73.8605 Y110.0748 Z-0.2 F720
G01 X70.5706 Y110.2041 Z-0.2 F720
G01 X69.1195 Y112.8120 Z-0.2 F720
G01 X70.6998 Y110.0748 Z-0.2 F720
G01 X68.9902 Y112.9412 Z-0.2 F720
G01 X72.3475 Y118.2195 Z-0.2 F720
G01 X69.1869 Y112.7445 Z-0.2 F720
G01 X72.3475 Y118.3600 Z-0.2 F720
G01 X69.1869 Y112.8850 Z-0.2 F720
G01 X72.2071 Y118.2195 Z-0.2 F720
G01 X69.0464 Y112.7445 Z-0.2 F720
G01 X72.2071 Y118.3600 Z-0.2 F720
G01 X69.0464 Y112.8850 Z-0.2 F720
G01 X72.1509 Y118.4162 Z-0.2 F720
G01 X65.8858 Y118.3600 Z-0.2 F720
G01 X72.2071 Y118.3600 Z-0.2 F720
G01 X65.8858 Y118.2195 Z-0.2 F720
G01 X72.2071 Y118.2195 Z-0.2 F720
G01 X66.0262 Y118.3600 Z-0.2 F720
G01 X72.3475 Y118.3600 Z-0.2 F720
G01 X66.0262 Y118.2195 Z-0.2 F720
G01 X72.3475 Y118.2195 Z-0.2 F720
G01 X65.8296 Y118.4162 Z-0.2 F720
G01 X69.1195 Y118.2869 Z-0.2 F720
G01 X65.9588 Y118.2869 Z-0.2 F720
G01 X68.9902 Y118.4162 Z-0.2 F720
G01 X70.6998 Y115.5491 Z-0.2 F720
G01 X69.1195 Y118.2869 Z-0.2 F720
G01 X70.5706 Y115.6783 Z-0.2 F720
G01 X72.2261 Y115.6032 Z-0.2 F720
G01 X70.6457 Y115.6032 Z-0.2 F720
G01 X72.1509 Y115.6783 Z-0.2 F720
G00 X72.1509 Y115.6783 Z2    F500

;Begin Line: layer=0 line=2
G00 X68.9902 Y118.4162 Z2    F2100
G01 X68.9902 Y118.4162 Z-0.2 F210
G01 X67.5391 Y115.5491 Z-0.2 F720
G01 X69.1195 Y118.2869 Z-0.2 F720
G01 X67.4099 Y115.6783 Z-0.2 F720
G00 X67.4099 Y115.6783 Z2    F500

;Begin Line: layer=0 line=3
G00 X68.6454 Y118.7034 Z2    F2100
G01 X68.6454 Y118.7034 Z-0.2 F210
G01 X68.5660 Y118.6578 Z-0.2 F720
G01 X68.5702 Y118.7786 Z-0.2 F720
G01 X68.7339 Y118.7294 Z-0.2 F720
G01 X68.6454 Y118.7034 Z-0.2 F720
G01 X68.6580 Y118.8046 Z-0.2 F720
G01 X68.8252 Y118.7350 Z-0.2 F720
G01 X68.7339 Y118.7294 Z-0.2 F720
G01 X68.7500 Y118.8102 Z-0.2 F720
G01 X68.9158 Y118.7189 Z-0.2 F720
G01 X68.8252 Y118.7350 Z-0.2 F720
G01 X68.8399 Y118.7940 Z-0.2 F720
G01 X68.9993 Y118.6824 Z-0.2 F720
G01 X68.9158 Y118.7189 Z-0.2 F720
G01 X68.9242 Y118.7582 Z-0.2 F720
G01 X69.0731 Y118.6276 Z-0.2 F720
G01 X68.9993 Y118.6824 Z-0.2 F720
G01 X69.1321 Y118.5573 Z-0.2 F720
G01 X69.0731 Y118.6276 Z-0.2 F720
G01 X69.1736 Y118.4759 Z-0.2 F720
G01 X69.1321 Y118.5573 Z-0.2 F720
G01 X69.0984 Y118.5510 Z-0.2 F720
G01 X69.1946 Y118.3867 Z-0.2 F720
G01 X69.1736 Y118.4759 Z-0.2 F720
G01 X69.1195 Y118.4618 Z-0.2 F720
G01 X69.1946 Y118.2947 Z-0.2 F720
G01 X69.1946 Y118.3867 Z-0.2 F720
G01 X69.1195 Y118.3698 Z-0.2 F720
G01 X69.1736 Y118.2054 Z-0.2 F720
G01 X69.1946 Y118.2947 Z-0.2 F720
G01 X69.0984 Y118.2806 Z-0.2 F720
G01 X69.1321 Y118.1233 Z-0.2 F720
G01 X69.1736 Y118.2054 Z-0.2 F720
G01 X69.0569 Y118.1984 Z-0.2 F720
G01 X69.0731 Y118.0530 Z-0.2 F720
G01 X69.1321 Y118.1233 Z-0.2 F720
G01 X68.9979 Y118.1282 Z-0.2 F720
G01 X68.9993 Y117.9983 Z-0.2 F720
G01 X69.0731 Y118.0530 Z-0.2 F720
G01 X68.9242 Y118.0734 Z-0.2 F720
G01 X68.9158 Y117.9617 Z-0.2 F720
G01 X68.9993 Y117.9983 Z-0.2 F720
G01 X68.8399 Y118.0376 Z-0.2 F720
G01 X68.8252 Y117.9463 Z-0.2 F720
G01 X68.9158 Y117.9617 Z-0.2 F720
G01 X68.7500 Y118.0214 Z-0.2 F720
G01 X68.7339 Y117.9512 Z-0.2 F720
G01 X68.8252 Y117.9463 Z-0.2 F720
G01 X68.6580 Y118.0271 Z-0.2 F720
G01 X68.6454 Y117.9779 Z-0.2 F720
G01 X68.7339 Y117.9512 Z-0.2 F720
G01 X68.5702 Y118.0530 Z-0.2 F720
G01 X68.5660 Y118.0235 Z-0.2 F720
G01 X68.6454 Y117.9779 Z-0.2 F720
G01 X68.4908 Y118.0987 Z-0.2 F720
G01 X68.5660 Y118.0235 Z-0.2 F720
G01 X68.4241 Y118.1619 Z-0.2 F720
G01 X68.4494 Y118.1633 Z-0.2 F720
G01 X68.4993 Y118.0868 Z-0.2 F720
G01 X68.3736 Y118.2385 Z-0.2 F720
G01 X68.4178 Y118.2497 Z-0.2 F720
G01 X68.4494 Y118.1633 Z-0.2 F720
G01 X68.3427 Y118.3249 Z-0.2 F720
G01 X68.4073 Y118.3403 Z-0.2 F720
G01 X68.4178 Y118.2497 Z-0.2 F720
G01 X68.3321 Y118.4162 Z-0.2 F720
G01 X68.4073 Y118.3403 Z-0.2 F720
G01 X68.3321 Y118.4162 Z-0.2 F720
G01 X68.4178 Y118.4316 Z-0.2 F720
G01 X68.4073 Y118.3403 Z-0.2 F720
G01 X68.3427 Y118.5068 Z-0.2 F720
G01 X68.4494 Y118.5180 Z-0.2 F720
G01 X68.4178 Y118.4316 Z-0.2 F720
G01 X68.3736 Y118.5932 Z-0.2 F720
G01 X68.4993 Y118.5946 Z-0.2 F720
G01 X68.4494 Y118.5180 Z-0.2 F720
G01 X68.4241 Y118.6697 Z-0.2 F720
G01 X68.5660 Y118.6578 Z-0.2 F720
G01 X68.4993 Y118.5946 Z-0.2 F720
G01 X68.4908 Y118.7329 Z-0.2 F720
G01 X68.6454 Y118.7034 Z-0.2 F720
G00 X68.6454 Y118.7034 Z2    F500

;Begin Line: layer=0 line=4
G00 X69.0935 Y118.4309 Z2    F2100
G01 X69.0935 Y118.4309 Z-0.2 F210
G01 X69.0345 Y118.4162 Z-0.2 F720
G01 X69.0935 Y118.2504 Z-0.2 F720
G01 X69.1096 Y118.3403 Z-0.2 F720
G01 X69.0183 Y118.3256 Z-0.2 F720
G01 X69.0478 Y118.1711 Z-0.2 F720
G01 X69.0935 Y118.2504 Z-0.2 F720
G01 X68.9727 Y118.2462 Z-0.2 F720
G01 X68.9776 Y118.1127 Z-0.2 F720
G01 X69.0478 Y118.1711 Z-0.2 F720
G01 X68.9024 Y118.1879 Z-0.2 F720
G01 X68.8919 Y118.0811 Z-0.2 F720
G01 X68.9776 Y118.1127 Z-0.2 F720
G01 X68.8167 Y118.1563 Z-0.2 F720
G01 X68.8006 Y118.0811 Z-0.2 F720
G01 X68.8919 Y118.0811 Z-0.2 F720
G01 X68.7247 Y118.1563 Z-0.2 F720
G01 X68.7142 Y118.1127 Z-0.2 F720
G01 X68.8006 Y118.0811 Z-0.2 F720
G01 X68.6390 Y118.1879 Z-0.2 F720
G01 X68.7142 Y118.1127 Z-0.2 F720
G01 X68.5688 Y118.2462 Z-0.2 F720
G01 X68.5983 Y118.2504 Z-0.2 F720
G01 X68.6440 Y118.1711 Z-0.2 F720
G01 X68.5232 Y118.3256 Z-0.2 F720
G01 X68.5828 Y118.3403 Z-0.2 F720
G01 X68.5983 Y118.2504 Z-0.2 F720
G01 X68.5077 Y118.4162 Z-0.2 F720
G01 X68.5828 Y118.3403 Z-0.2 F720
G01 X68.5077 Y118.4162 Z-0.2 F720
G01 X68.5983 Y118.4309 Z-0.2 F720
G01 X68.5828 Y118.3403 Z-0.2 F720
G01 X68.5232 Y118.5061 Z-0.2 F720
G01 X68.6440 Y118.5096 Z-0.2 F720
G01 X68.5983 Y118.4309 Z-0.2 F720
G01 X68.5688 Y118.5854 Z-0.2 F720
G01 X68.7142 Y118.5686 Z-0.2 F720
G01 X68.6440 Y118.5096 Z-0.2 F720
G01 X68.6390 Y118.6437 Z-0.2 F720
G01 X68.8006 Y118.6002 Z-0.2 F720
G01 X68.7142 Y118.5686 Z-0.2 F720
G01 X68.7247 Y118.6753 Z-0.2 F720
G01 X68.8919 Y118.6002 Z-0.2 F720
G01 X68.8006 Y118.6002 Z-0.2 F720
G01 X68.8167 Y118.6753 Z-0.2 F720
G01 X68.9776 Y118.5686 Z-0.2 F720
G01 X68.8919 Y118.6002 Z-0.2 F720
G01 X68.9024 Y118.6437 Z-0.2 F720
G01 X69.0478 Y118.5096 Z-0.2 F720
G01 X68.9776 Y118.5686 Z-0.2 F720
G01 X69.0935 Y118.4309 Z-0.2 F720
G01 X69.0478 Y118.5096 Z-0.2 F720
G01 X69.0183 Y118.5061 Z-0.2 F720
G01 X69.1096 Y118.3403 Z-0.2 F720
G01 X69.0935 Y118.4309 Z-0.2 F720
G00 X69.0935 Y118.4309 Z2    F500

;Begin Line: layer=0 line=5
G00 X68.2001 Y119.7844 Z2    F2100
G01 X68.2001 Y119.7844 Z-0.2 F210
G01 X67.4851 Y121.0774 Z-0.2 F720
G01 X68.2752 Y119.7092 Z-0.2 F720
G01 X67.4099 Y121.1533 Z-0.2 F720
G01 X69.1195 Y118.2869 Z-0.2 F720
G01 X67.5391 Y121.0241 Z-0.2 F720
G01 X68.9902 Y118.4162 Z-0.2 F720
G01 X72.2801 Y118.2869 Z-0.2 F720
G01 X69.1195 Y118.2869 Z-0.2 F720
G01 X72.1509 Y118.4162 Z-0.2 F720
G01 X69.0464 Y123.8342 Z-0.2 F720
G01 X72.2071 Y118.3600 Z-0.2 F720
G01 X69.0464 Y123.6938 Z-0.2 F720
G01 X72.2071 Y118.2195 Z-0.2 F720
G01 X69.1869 Y123.8342 Z-0.2 F720
G01 X72.3475 Y118.3600 Z-0.2 F720
G01 X69.1869 Y123.6938 Z-0.2 F720
G01 X72.3475 Y118.2195 Z-0.2 F720
G01 X68.9902 Y123.8904 Z-0.2 F720
G01 X72.2071 Y129.3085 Z-0.2 F720
G01 X69.0464 Y123.8342 Z-0.2 F720
G01 X72.2071 Y129.1680 Z-0.2 F720
G01 X69.0464 Y123.6938 Z-0.2 F720
G01 X72.3475 Y129.3085 Z-0.2 F720
G01 X69.1869 Y123.8342 Z-0.2 F720
G01 X72.3475 Y129.1680 Z-0.2 F720
G01 X69.1869 Y123.6938 Z-0.2 F720
G01 X72.1509 Y129.3647 Z-0.2 F720
G01 X70.6998 Y126.4983 Z-0.2 F720
G01 X72.2801 Y129.2355 Z-0.2 F720
G01 X70.5706 Y126.6276 Z-0.2 F720
G01 X67.5391 Y126.4983 Z-0.2 F720
G01 X70.6998 Y126.4983 Z-0.2 F720
G01 X67.4099 Y126.6276 Z-0.2 F720
G00 X67.4099 Y126.6276 Z2    F500

;Begin Line: layer=0 line=6
G00 X66.6197 Y125.2586 Z2    F2100
G01 X66.6197 Y125.2586 Z-0.2 F210
G01 X65.9047 Y123.8153 Z-0.2 F720
G01 X66.6949 Y125.1835 Z-0.2 F720
G01 X65.8296 Y123.8904 Z-0.2 F720
G01 X62.7981 Y123.7612 Z-0.2 F720
G01 X65.9588 Y123.7612 Z-0.2 F720
G01 X62.6689 Y123.8904 Z-0.2 F720
G01 X64.3785 Y121.0241 Z-0.2 F720
G01 X62.7981 Y123.7612 Z-0.2 F720
G01 X64.2492 Y121.1533 Z-0.2 F720
G01 X62.7981 Y118.2869 Z-0.2 F720
G01 X64.3785 Y121.0241 Z-0.2 F720
G01 X62.6689 Y118.4162 Z-0.2 F720
G00 X62.6689 Y118.4162 Z2    F500

;Begin Line: layer=0 line=7
G00 X63.4591 Y119.7844 Z2    F2100
G01 X63.4591 Y119.7844 Z-0.2 F210
G01 X64.3244 Y121.0774 Z-0.2 F720
G01 X63.5342 Y119.7092 Z-0.2 F720
G01 X64.2492 Y121.1533 Z-0.2 F720
G00 X64.2492 Y121.1533 Z2    F500

;Begin Line: layer=0 line=8
G00 X62.6689 Y121.1533 Z2    F2100
G01 X62.6689 Y121.1533 Z-0.2 F210
G01 X64.3244 Y121.0774 Z-0.2 F720
G01 X62.7441 Y121.0774 Z-0.2 F720
G01 X64.2492 Y121.1533 Z-0.2 F720
G01 X65.9588 Y118.2869 Z-0.2 F720
G01 X64.3785 Y121.0241 Z-0.2 F720
G01 X65.8296 Y118.4162 Z-0.2 F720
G01 X62.7251 Y112.8850 Z-0.2 F720
G01 X65.8858 Y118.3600 Z-0.2 F720
G01 X62.7251 Y112.7445 Z-0.2 F720
G01 X65.8858 Y118.2195 Z-0.2 F720
G01 X62.8656 Y112.8850 Z-0.2 F720
G01 X66.0262 Y118.3600 Z-0.2 F720
G01 X62.8656 Y112.7445 Z-0.2 F720
G01 X66.0262 Y118.2195 Z-0.2 F720
G01 X62.6689 Y112.9412 Z-0.2 F720
G01 X59.6375 Y112.8120 Z-0.2 F720
G01 X62.7981 Y112.8120 Z-0.2 F720
G01 X59.5082 Y112.9412 Z-0.2 F720
G01 X56.4768 Y112.8120 Z-0.2 F720
G01 X59.6375 Y112.8120 Z-0.2 F720
G01 X56.3476 Y112.9412 Z-0.2 F720
G01 X62.7251 Y112.8850 Z-0.2 F720
G01 X56.4038 Y112.8850 Z-0.2 F720
G01 X62.7251 Y112.7445 Z-0.2 F720
G01 X56.4038 Y112.7445 Z-0.2 F720
G01 X62.8656 Y112.8850 Z-0.2 F720
G01 X56.5442 Y112.8850 Z-0.2 F720
G01 X62.8656 Y112.7445 Z-0.2 F720
G01 X56.5442 Y112.7445 Z-0.2 F720
G01 X62.6689 Y112.9412 Z-0.2 F720
G01 X64.3785 Y110.0748 Z-0.2 F720
G01 X62.7981 Y112.8120 Z-0.2 F720
G01 X64.2492 Y110.2041 Z-0.2 F720
G01 X65.9588 Y107.3377 Z-0.2 F720
G01 X64.3785 Y110.0748 Z-0.2 F720
G01 X65.8296 Y107.4669 Z-0.2 F720
G01 X72.3475 Y107.2703 Z-0.2 F720
G01 X66.0262 Y107.2703 Z-0.2 F720
G01 X72.3475 Y107.4108 Z-0.2 F720
G01 X66.0262 Y107.4108 Z-0.2 F720
G01 X72.2071 Y107.2703 Z-0.2 F720
G01 X65.8858 Y107.2703 Z-0.2 F720
G01 X72.2071 Y107.4108 Z-0.2 F720
G01 X65.8858 Y107.4108 Z-0.2 F720
G01 X72.1509 Y107.4669 Z-0.2 F720
G01 X69.1869 Y112.7445 Z-0.2 F720
G01 X72.3475 Y107.2703 Z-0.2 F720
G01 X69.1869 Y112.8850 Z-0.2 F720
G01 X72.3475 Y107.4108 Z-0.2 F720
G01 X69.0464 Y112.7445 Z-0.2 F720
G01 X72.2071 Y107.2703 Z-0.2 F720
G01 X69.0464 Y112.8850 Z-0.2 F720
G01 X72.2071 Y107.4108 Z-0.2 F720
G01 X68.9902 Y112.9412 Z-0.2 F720
G01 X67.5391 Y110.0748 Z-0.2 F720
G01 X69.1195 Y112.8120 Z-0.2 F720
G01 X67.4099 Y110.2041 Z-0.2 F720
G01 X64.3785 Y110.0748 Z-0.2 F720
G01 X67.5391 Y110.0748 Z-0.2 F720
G01 X64.2492 Y110.2041 Z-0.2 F720
G01 X65.9047 Y110.1289 Z-0.2 F720
G01 X64.3244 Y110.1289 Z-0.2 F720
G01 X65.8296 Y110.2041 Z-0.2 F720
G00 X65.8296 Y110.2041 Z2    F500

;Begin Line: layer=0 line=9
G00 X67.4099 Y107.4669 Z2    F2100
G01 X67.4099 Y107.4669 Z-0.2 F210
G01 X65.9047 Y107.3918 Z-0.2 F720
G01 X67.4851 Y107.3918 Z-0.2 F720
G01 X65.8296 Y107.4669 Z-0.2 F720
G01 X59.5082 Y118.2757 Z-0.2 F720
G01 X65.8296 Y107.3265 Z-0.2 F720
G01 X59.5082 Y118.1352 Z-0.2 F720
G01 X65.8296 Y107.1860 Z-0.2 F720
G01 X59.6487 Y118.4162 Z-0.2 F720
G01 X65.9701 Y107.4669 Z-0.2 F720
G01 X59.6487 Y118.2757 Z-0.2 F720
G01 X65.9701 Y107.3265 Z-0.2 F720
G01 X59.6487 Y118.1352 Z-0.2 F720
G01 X65.9701 Y107.1860 Z-0.2 F720
G01 X59.7892 Y118.4162 Z-0.2 F720
G01 X66.1105 Y107.4669 Z-0.2 F720
G01 X59.7892 Y118.2757 Z-0.2 F720
G01 X66.1105 Y107.3265 Z-0.2 F720
G01 X59.7892 Y118.1352 Z-0.2 F720
G01 X66.1105 Y107.1860 Z-0.2 F720
G01 X59.5082 Y118.4162 Z-0.2 F720
G01 X47.1466 Y118.1352 Z-0.2 F720
G01 X59.7892 Y118.1352 Z-0.2 F720
G01 X47.1466 Y118.2757 Z-0.2 F720
G01 X59.7892 Y118.2757 Z-0.2 F720
G01 X47.1466 Y118.4162 Z-0.2 F720
G01 X59.7892 Y118.4162 Z-0.2 F720
G01 X47.0061 Y118.1352 Z-0.2 F720
G01 X59.6487 Y118.1352 Z-0.2 F720
G01 X47.0061 Y118.2757 Z-0.2 F720
G01 X59.6487 Y118.2757 Z-0.2 F720
G01 X47.0061 Y118.4162 Z-0.2 F720
G01 X59.6487 Y118.4162 Z-0.2 F720
G01 X46.8656 Y118.1352 Z-0.2 F720
G01 X59.5082 Y118.1352 Z-0.2 F720
G01 X46.8656 Y118.2757 Z-0.2 F720
G01 X59.5082 Y118.2757 Z-0.2 F720
G01 X46.8656 Y118.4162 Z-0.2 F720
G01 X50.1555 Y118.2869 Z-0.2 F720
G01 X46.9948 Y118.2869 Z-0.2 F720
G01 X50.0263 Y118.4162 Z-0.2 F720
G01 X50.8916 Y119.7092 Z-0.2 F720
G01 X50.1014 Y118.3403 Z-0.2 F720
G01 X50.8164 Y119.7844 Z-0.2 F720
G01 X51.6818 Y121.0774 Z-0.2 F720
G01 X50.8916 Y119.7092 Z-0.2 F720
G01 X51.6066 Y121.1533 Z-0.2 F720
G01 X53.2621 Y121.0774 Z-0.2 F720
G01 X51.6818 Y121.0774 Z-0.2 F720
G01 X53.1869 Y121.1533 Z-0.2 F720
G00 X53.1869 Y121.1533 Z2    F500

;Begin Line: layer=0 line=10
G00 X54.7673 Y121.1533 Z2    F2100
G01 X54.7673 Y121.1533 Z-0.2 F210
G01 X53.3162 Y118.2869 Z-0.2 F720
G01 X54.8965 Y121.0241 Z-0.2 F720
G01 X53.1869 Y118.4162 Z-0.2 F720
G01 X56.4768 Y118.2869 Z-0.2 F720
G01 X53.3162 Y118.2869 Z-0.2 F720
G01 X56.3476 Y118.4162 Z-0.2 F720
G00 X56.3476 Y118.4162 Z2    F500

;Begin Line: layer=0 line=11
G00 X59.5082 Y118.4162 Z2    F2100
G01 X59.5082 Y118.4162 Z-0.2 F210
G01 X65.8296 Y129.2242 Z-0.2 F720
G01 X59.5082 Y118.2757 Z-0.2 F720
G01 X65.8296 Y129.0837 Z-0.2 F720
G01 X59.5082 Y118.1352 Z-0.2 F720
G01 X65.9701 Y129.3647 Z-0.2 F720
G01 X59.6487 Y118.4162 Z-0.2 F720
G01 X65.9701 Y129.2242 Z-0.2 F720
G01 X59.6487 Y118.2757 Z-0.2 F720
G01 X65.9701 Y129.0837 Z-0.2 F720
G01 X59.6487 Y118.1352 Z-0.2 F720
G01 X66.1105 Y129.3647 Z-0.2 F720
G01 X59.7892 Y118.4162 Z-0.2 F720
G01 X66.1105 Y129.2242 Z-0.2 F720
G01 X59.7892 Y118.2757 Z-0.2 F720
G01 X66.1105 Y129.0837 Z-0.2 F720
G01 X59.7892 Y118.1352 Z-0.2 F720
G01 X65.8296 Y129.3647 Z-0.2 F720
G01 X69.1195 Y129.2355 Z-0.2 F720
G01 X65.9588 Y129.2355 Z-0.2 F720
G01 X68.9902 Y129.3647 Z-0.2 F720
G01 X70.6998 Y131.9726 Z-0.2 F720
G01 X69.1195 Y129.2355 Z-0.2 F720
G01 X70.5706 Y132.1018 Z-0.2 F720
G01 X72.2261 Y132.0267 Z-0.2 F720
G01 X70.6457 Y132.0267 Z-0.2 F720
G01 X72.1509 Y132.1018 Z-0.2 F720
G00 X72.1509 Y132.1018 Z2    F500

;Begin Line: layer=0 line=12
G00 X72.9411 Y130.7336 Z2    F2100
G01 X72.9411 Y130.7336 Z-0.2 F210
G01 X72.2261 Y129.2895 Z-0.2 F720
