;Generated with vpype gwrite fabian
;hexflow/HexFlow.svg.gcode
G90
G92 X0 Y0 Z0
G00 X0 Y0 Z0 F2100
G00 X0 Y0 Z5 F500

;Begin line
G00 X59.6965 Y126.3805 Z2    F2100
G01 X59.6965 Y126.3805 Z-0.5 F210
G01 X58.1484 Y128.2652 Z-0.5 F720
G01 X56.8456 Y130.4464 Z-0.5 F720
G01 X54.4559 Y133.4078 Z-0.5 F720
G01 X51.7969 Y136.1349 Z-0.5 F720
G01 X49.3315 Y138.1373 Z-0.5 F720
G01 X46.6588 Y139.8432 Z-0.5 F720
G01 X41.7441 Y142.0802 Z-0.5 F720
G01 X35.5646 Y144.0715 Z-0.5 F720
G00 X35.5646 Y144.0715 Z2    F500

;Begin line
G00 X34.9606 Y143.0257 Z2    F2100
G01 X34.9606 Y143.0257 Z-0.5 F210
G01 X39.3490 Y141.9034 Z-0.5 F720
G01 X44.4647 Y140.1813 Z-0.5 F720
G01 X47.0629 Y138.9878 Z-0.5 F720
G01 X48.1126 Y138.2732 Z-0.5 F720
G01 X49.5432 Y137.5809 Z-0.5 F720
G01 X51.7617 Y135.7794 Z-0.5 F720
G00 X51.7617 Y135.7794 Z2    F500

;Begin line
G00 X51.0567 Y135.6655 Z2    F2100
G01 X51.0567 Y135.6655 Z-0.5 F210
G01 X49.3307 Y137.0675 Z-0.5 F720
G01 X44.1220 Y139.4036 Z-0.5 F720
G01 X41.6950 Y140.1580 Z-0.5 F720
G01 X39.1998 Y140.6332 Z-0.5 F720
G01 X36.0383 Y140.9469 Z-0.5 F720
G01 X34.0348 Y141.4229 Z-0.5 F720
G00 X34.0348 Y141.4229 Z2    F500

;Begin line
G00 X33.5616 Y140.6026 Z2    F2100
G01 X33.5616 Y140.6026 Z-0.5 F210
G01 X39.5174 Y140.0743 Z-0.5 F720
G01 X42.0138 Y139.5991 Z-0.5 F720
G01 X46.8218 Y137.9887 Z-0.5 F720
G00 X46.8218 Y137.9887 Z2    F500

;Begin line
G00 X47.7971 Y138.1798 Z2    F2100
G01 X47.7971 Y138.1798 Z-0.5 F210
G01 X44.3887 Y139.8695 Z-0.5 F720
G01 X41.9617 Y140.6239 Z-0.5 F720
G01 X34.6425 Y142.4745 Z-0.5 F720
G00 X34.6425 Y142.4745 Z2    F500

;Begin line
G00 X33.2918 Y140.1360 Z2    F2100
G01 X33.2918 Y140.1360 Z-0.5 F210
G01 X39.5200 Y139.5843 Z-0.5 F720
G01 X42.0164 Y139.1091 Z-0.5 F720
G01 X43.8366 Y138.5433 Z-0.5 F720
G00 X43.8366 Y138.5433 Z2    F500

;Begin line
G00 X42.0883 Y138.3191 Z2    F2100
G01 X42.0883 Y138.3191 Z-0.5 F210
G01 X35.7691 Y138.4258 Z-0.5 F720
G01 X32.0099 Y137.9156 Z-0.5 F720
G00 X32.0099 Y137.9156 Z2    F500

;Begin line
G00 X32.2956 Y138.4100 Z2    F2100
G01 X32.2956 Y138.4100 Z-0.5 F210
G01 X33.6520 Y138.3740 Z-0.5 F720
G00 X33.6520 Y138.3740 Z2    F500

;Begin line
G00 X32.5928 Y138.9253 Z2    F2100
G01 X32.5928 Y138.9253 Z-0.5 F210
G01 X35.6102 Y138.6744 Z-0.5 F720
G00 X35.6102 Y138.6744 Z2    F500

;Begin line
G00 X37.0545 Y138.1126 Z2    F2100
G01 X37.0545 Y138.1126 Z-0.5 F210
G01 X31.7085 Y137.3937 Z-0.5 F720
G00 X31.7085 Y137.3937 Z2    F500

;Begin line
G00 X31.4433 Y136.9353 Z2    F2100
G01 X31.4433 Y136.9353 Z-0.5 F210
G01 X39.2866 Y137.9163 Z-0.5 F720
G01 X41.8277 Y137.9672 Z-0.5 F720
G01 X44.3527 Y137.6868 Z-0.5 F720
G01 X47.1159 Y136.9523 Z-0.5 F720
G01 X49.1173 Y135.9846 Z-0.5 F720
G00 X49.1173 Y135.9846 Z2    F500

;Begin line
G00 X47.0043 Y136.1062 Z2    F2100
G01 X47.0043 Y136.1062 Z-0.5 F210
G01 X44.5476 Y136.7588 Z-0.5 F720
G01 X42.0226 Y137.0392 Z-0.5 F720
G01 X39.4815 Y136.9883 Z-0.5 F720
G01 X30.8745 Y135.9495 Z-0.5 F720
G00 X30.8745 Y135.9495 Z2    F500

;Begin line
G00 X31.2299 Y136.5653 Z2    F2100
G01 X31.2299 Y136.5653 Z-0.5 F210
G01 X39.3894 Y137.5600 Z-0.5 F720
G01 X41.9305 Y137.6108 Z-0.5 F720
G01 X44.4555 Y137.3305 Z-0.5 F720
G01 X46.9110 Y136.6779 Z-0.5 F720
G01 X48.6270 Y135.8479 Z-0.5 F720
G01 X49.5501 Y135.6097 Z-0.5 F720
G01 X52.2711 Y133.9931 Z-0.5 F720
G00 X52.2711 Y133.9931 Z2    F500

;Begin line
G00 X52.2913 Y133.0436 Z2    F2100
G01 X52.2913 Y133.0436 Z-0.5 F210
G01 X49.5355 Y134.6205 Z-0.5 F720
G01 X47.0763 Y135.2570 Z-0.5 F720
G01 X44.5376 Y135.3688 Z-0.5 F720
G01 X42.0139 Y135.0662 Z-0.5 F720
G01 X39.2532 Y134.3255 Z-0.5 F720
G01 X36.8771 Y133.4235 Z-0.5 F720
G01 X33.5443 Y130.9868 Z-0.5 F720
G01 X31.8011 Y129.1382 Z-0.5 F720
G01 X30.8221 Y128.3281 Z-0.5 F720
G01 X29.1942 Y126.3777 Z-0.5 F720
G01 X28.4596 Y125.7710 Z-0.5 F720
G01 X26.5575 Y123.6358 Z-0.5 F720
G01 X24.1938 Y121.5217 Z-0.5 F720
G01 X21.5025 Y119.7190 Z-0.5 F720
G00 X21.5025 Y119.7190 Z2    F500

;Begin line
G00 X20.6999 Y118.3297 Z2    F2100
G01 X20.6999 Y118.3297 Z-0.5 F210
G01 X21.4458 Y118.6887 Z-0.5 F720
G01 X23.9745 Y120.6117 Z-0.5 F720
G01 X26.7240 Y123.2482 Z-0.5 F720
G01 X29.4959 Y126.3040 Z-0.5 F720
G00 X29.4959 Y126.3040 Z2    F500

;Begin line
G00 X27.6395 Y125.9639 Z2    F2100
G01 X27.6395 Y125.9639 Z-0.5 F210
G01 X26.7610 Y125.0508 Z-0.5 F720
G01 X23.1521 Y122.5769 Z-0.5 F720
G00 X23.1521 Y122.5769 Z2    F500

;Begin line
G00 X22.4467 Y121.3545 Z2    F2100
G01 X22.4467 Y121.3545 Z-0.5 F210
G01 X24.1380 Y122.3582 Z-0.5 F720
G01 X26.6071 Y124.3458 Z-0.5 F720
G01 X27.8740 Y125.7688 Z-0.5 F720
G01 X29.0986 Y126.7800 Z-0.5 F720
G01 X30.5652 Y128.4450 Z-0.5 F720
G00 X30.5652 Y128.4450 Z2    F500

;Begin line
G00 X29.2314 Y129.6723 Z2    F2100
G01 X29.2314 Y129.6723 Z-0.5 F210
G01 X26.3044 Y128.0353 Z-0.5 F720
G00 X26.3044 Y128.0353 Z2    F500

;Begin line
G00 X25.7642 Y127.0996 Z2    F2100
G01 X25.7642 Y127.0996 Z-0.5 F210
G01 X27.2806 Y128.1854 Z-0.5 F720
G01 X29.2150 Y129.2822 Z-0.5 F720
G01 X31.1717 Y130.9025 Z-0.5 F720
G01 X34.8668 Y133.3690 Z-0.5 F720
G01 X39.2926 Y135.1320 Z-0.5 F720
G01 X41.4392 Y135.7089 Z-0.5 F720
G00 X41.4392 Y135.7089 Z2    F500

;Begin line
G00 X39.7579 Y136.0278 Z2    F2100
G01 X39.7579 Y136.0278 Z-0.5 F210
G01 X38.8099 Y135.9496 Z-0.5 F720
G01 X32.3107 Y133.3839 Z-0.5 F720
G01 X29.2597 Y131.6867 Z-0.5 F720
G01 X28.2048 Y131.3264 Z-0.5 F720
G00 X28.2048 Y131.3264 Z2    F500

;Begin line
G00 X28.7005 Y132.1846 Z2    F2100
G01 X28.7005 Y132.1846 Z-0.5 F210
G01 X31.1776 Y133.4012 Z-0.5 F720
G01 X38.0068 Y135.9569 Z-0.5 F720
G00 X38.0068 Y135.9569 Z2    F500

;Begin line
G00 X35.7045 Y135.9376 Z2    F2100
G01 X35.7045 Y135.9376 Z-0.5 F210
G01 X31.8655 Y134.4165 Z-0.5 F720
G01 X29.6343 Y133.8017 Z-0.5 F720
G00 X29.6343 Y133.8017 Z2    F500

;Begin line
G00 X30.2341 Y134.8407 Z2    F2100
G01 X30.2341 Y134.8407 Z-0.5 F210
G01 X33.3831 Y135.8663 Z-0.5 F720
G01 X39.3673 Y136.6417 Z-0.5 F720
G01 X41.9072 Y136.6925 Z-0.5 F720
G01 X44.4334 Y136.4122 Z-0.5 F720
G01 X49.6670 Y135.1107 Z-0.5 F720
G01 X52.1647 Y133.7199 Z-0.5 F720
G01 X54.6761 Y131.7870 Z-0.5 F720
G01 X55.4491 Y130.7771 Z-0.5 F720
G01 X57.0584 Y129.2436 Z-0.5 F720
G01 X57.7085 Y128.1530 Z-0.5 F720
G01 X59.5053 Y126.0488 Z-0.5 F720
G00 X59.5053 Y126.0488 Z2    F500

;Begin line
G00 X59.3075 Y125.7063 Z2    F2100
G01 X59.3075 Y125.7063 Z-0.5 F210
G01 X57.2171 Y128.1550 Z-0.5 F720
G01 X54.6872 Y130.5656 Z-0.5 F720
G01 X52.0803 Y132.3721 Z-0.5 F720
G01 X49.3915 Y133.3299 Z-0.5 F720
G01 X46.9323 Y133.9651 Z-0.5 F720
G01 X44.3937 Y134.0781 Z-0.5 F720
G01 X41.8699 Y133.7743 Z-0.5 F720
G01 X40.3363 Y133.3636 Z-0.5 F720
G01 X36.6215 Y130.9294 Z-0.5 F720
G01 X34.5605 Y128.5126 Z-0.5 F720
G01 X32.8805 Y125.8178 Z-0.5 F720
G01 X29.1321 Y117.0611 Z-0.5 F720
G01 X27.0811 Y113.1158 Z-0.5 F720
G01 X21.5510 Y104.2176 Z-0.5 F720
G01 X16.4638 Y96.5515 Z-0.5 F720
G01 X15.3955 Y95.3753 Z-0.5 F720
G01 X13.9313 Y93.2997 Z-0.5 F720
G01 X8.8975 Y87.5889 Z-0.5 F720
G01 X6.9284 Y85.0976 Z-0.5 F720
G01 X5.4928 Y82.6286 Z-0.5 F720
G01 X4.4568 Y79.9649 Z-0.5 F720
G01 X3.6129 Y76.2481 Z-0.5 F720
G00 X3.6129 Y76.2481 Z2    F500

;Begin line
G00 X2.6294 Y77.9518 Z2    F2100
G01 X2.6294 Y77.9518 Z-0.5 F210
G01 X3.2236 Y80.1437 Z-0.5 F720
G01 X4.3577 Y82.7653 Z-0.5 F720
G01 X5.8987 Y85.1722 Z-0.5 F720
G01 X7.9336 Y87.6051 Z-0.5 F720
G01 X8.9163 Y88.4103 Z-0.5 F720
G01 X10.5802 Y90.3309 Z-0.5 F720
G01 X11.5282 Y91.1683 Z-0.5 F720
G00 X11.5282 Y91.1683 Z2    F500

;Begin line
G00 X11.0094 Y92.6643 Z2    F2100
G01 X11.0094 Y92.6643 Z-0.5 F210
G01 X8.7722 Y90.8851 Z-0.5 F720
G01 X7.6468 Y90.2946 Z-0.5 F720
G01 X6.4197 Y89.2871 Z-0.5 F720
G01 X2.7227 Y87.1976 Z-0.5 F720
G00 X2.7227 Y87.1976 Z2    F500

;Begin line
G00 X2.1534 Y86.2112 Z2    F2100
G01 X2.1534 Y86.2112 Z-0.5 F210
G01 X4.1939 Y87.7004 Z-0.5 F720
G00 X4.1939 Y87.7004 Z2    F500

;Begin line
G00 X4.0206 Y87.1620 Z2    F2100
G01 X4.0206 Y87.1620 Z-0.5 F210
G01 X1.8185 Y85.6316 Z-0.5 F720
G00 X1.8185 Y85.6316 Z2    F500

;Begin line
G00 X1.0582 Y84.3150 Z2    F2100
G01 X1.0582 Y84.3150 Z-0.5 F210
G01 X1.8122 Y85.1478 Z-0.5 F720
G01 X3.6647 Y86.3773 Z-0.5 F720
G00 X3.6647 Y86.3773 Z2    F500

;Begin line
G00 X3.5197 Y85.1680 Z2    F2100
G01 X3.5197 Y85.1680 Z-0.5 F210
G01 X1.2540 Y82.5080 Z-0.5 F720
G01 X0.5938 Y81.4763 Z-0.5 F720
G00 X0.5938 Y81.4763 Z2    F500

;Begin line
G00 X0.2875 Y82.0074 Z2    F2100
G01 X0.2875 Y82.0074 Z-0.5 F210
G01 X3.1130 Y85.2524 Z-0.5 F720
G01 X3.9071 Y85.7797 Z-0.5 F720
G01 X5.9743 Y87.7548 Z-0.5 F720
G01 X11.4374 Y92.1046 Z-0.5 F720
G01 X12.2811 Y93.0500 Z-0.5 F720
G00 X12.2811 Y93.0500 Z2    F500

;Begin line
G00 X14.1649 Y93.1012 Z2    F2100
G01 X14.1649 Y93.1012 Z-0.5 F210
G01 X9.7738 Y87.6782 Z-0.5 F720
G01 X8.2166 Y85.2874 Z-0.5 F720
G01 X6.9125 Y82.7440 Z-0.5 F720
G01 X5.9509 Y80.0530 Z-0.5 F720
G01 X4.6706 Y74.4167 Z-0.5 F720
G00 X4.6706 Y74.4167 Z2    F500

;Begin line
G00 X5.6080 Y72.7936 Z2    F2100
G01 X5.6080 Y72.7936 Z-0.5 F210
G01 X7.5297 Y79.9058 Z-0.5 F720
G01 X9.4690 Y84.9393 Z-0.5 F720
G01 X12.7248 Y90.3871 Z-0.5 F720
G01 X13.9383 Y91.8573 Z-0.5 F720
G01 X14.3726 Y92.7059 Z-0.5 F720
G01 X16.4174 Y95.5359 Z-0.5 F720
G01 X21.4810 Y103.5953 Z-0.5 F720
G00 X21.4810 Y103.5953 Z2    F500

;Begin line
G00 X20.3986 Y105.7273 Z2    F2100
G01 X20.3986 Y105.7273 Z-0.5 F210
G01 X19.0647 Y103.9495 Z-0.5 F720
G01 X16.2444 Y100.9371 Z-0.5 F720
G00 X16.2444 Y100.9371 Z2    F500

;Begin line
G00 X16.3347 Y100.6861 Z2    F2100
G01 X16.3347 Y100.6861 Z-0.5 F210
G01 X13.9611 Y98.5770 Z-0.5 F720
G01 X11.2674 Y96.9008 Z-0.5 F720
G01 X8.9149 Y95.9405 Z-0.5 F720
G01 X7.6206 Y95.6790 Z-0.5 F720
G00 X7.6206 Y95.6790 Z2    F500

;Begin line
G00 X7.8262 Y96.0359 Z2    F2100
G01 X7.8262 Y96.0359 Z-0.5 F210
G01 X8.9459 Y96.2609 Z-0.5 F720
G01 X11.2985 Y97.2212 Z-0.5 F720
G00 X11.2985 Y97.2212 Z2    F500

;Begin line
G00 X11.2328 Y95.0840 Z2    F2100
G01 X11.2328 Y95.0840 Z-0.5 F210
G01 X9.0155 Y93.8433 Z-0.5 F720
G01 X6.0265 Y92.9184 Z-0.5 F720
G00 X6.0265 Y92.9184 Z2    F500

;Begin line
G00 X6.4464 Y93.6461 Z2    F2100
G01 X6.4464 Y93.6461 Z-0.5 F210
G01 X8.7871 Y94.4133 Z-0.5 F720
G01 X11.3319 Y95.7036 Z-0.5 F720
G01 X13.9462 Y97.5088 Z-0.5 F720
G01 X16.4948 Y99.8946 Z-0.5 F720
G00 X16.4948 Y99.8946 Z2    F500

;Begin line
G00 X16.5644 Y98.7682 Z2    F2100
G01 X16.5644 Y98.7682 Z-0.5 F210
G01 X13.9141 Y96.0350 Z-0.5 F720
G01 X11.4462 Y94.0449 Z-0.5 F720
G01 X6.4818 Y91.2273 Z-0.5 F720
G01 X4.7417 Y90.6934 Z-0.5 F720
G00 X4.7417 Y90.6934 Z2    F500

;Begin line
G00 X5.5799 Y92.1456 Z2    F2100
G01 X5.5799 Y92.1456 Z-0.5 F210
G01 X8.6670 Y93.2593 Z-0.5 F720
G01 X11.1622 Y94.6550 Z-0.5 F720
G01 X13.7269 Y96.5222 Z-0.5 F720
G01 X16.2085 Y98.9751 Z-0.5 F720
G01 X19.0213 Y102.4142 Z-0.5 F720
G01 X24.1532 Y109.6722 Z-0.5 F720
G01 X26.5268 Y113.4327 Z-0.5 F720
G01 X29.1821 Y118.4946 Z-0.5 F720
G01 X30.1288 Y120.8531 Z-0.5 F720
G01 X32.6203 Y125.9920 Z-0.5 F720
G00 X32.6203 Y125.9920 Z2    F500

;Begin line
G00 X31.9065 Y125.9825 Z2    F2100
G01 X31.9065 Y125.9825 Z-0.5 F210
G01 X30.2550 Y123.2704 Z-0.5 F720
G01 X29.1768 Y120.9690 Z-0.5 F720
G01 X26.3714 Y115.9901 Z-0.5 F720
G01 X23.8774 Y112.3103 Z-0.5 F720
G01 X21.3202 Y109.0696 Z-0.5 F720
G01 X18.7518 Y106.2570 Z-0.5 F720
G01 X16.1747 Y103.9010 Z-0.5 F720
G01 X13.8048 Y102.3055 Z-0.5 F720
G01 X10.6860 Y100.9881 Z-0.5 F720
G00 X10.6860 Y100.9881 Z2    F500

;Begin line
G00 X11.3868 Y100.4375 Z2    F2100
G01 X11.3868 Y100.4375 Z-0.5 F210
G01 X10.1792 Y100.1103 Z-0.5 F720
G00 X10.1792 Y100.1103 Z2    F500

;Begin line
G00 X9.9215 Y99.6642 Z2    F2100
G01 X9.9215 Y99.6642 Z-0.5 F210
G01 X11.4870 Y100.1469 Z-0.5 F720
G01 X14.0728 Y101.3640 Z-0.5 F720
G01 X16.3608 Y103.0773 Z-0.5 F720
G01 X19.0980 Y105.7287 Z-0.5 F720
G01 X21.5994 Y108.6021 Z-0.5 F720
G01 X24.1169 Y111.8737 Z-0.5 F720
G01 X26.5637 Y115.5858 Z-0.5 F720
G00 X26.5637 Y115.5858 Z2    F500

;Begin line
G00 X26.5277 Y116.7905 Z2    F2100
G01 X26.5277 Y116.7905 Z-0.5 F210
G01 X23.9953 Y113.1367 Z-0.5 F720
G01 X21.3984 Y109.9283 Z-0.5 F720
G01 X18.7791 Y107.1604 Z-0.5 F720
G01 X16.1375 Y104.8775 Z-0.5 F720
G01 X13.7390 Y103.3217 Z-0.5 F720
G01 X11.5079 Y102.4111 Z-0.5 F720
G00 X11.5079 Y102.4111 Z2    F500

;Begin line
G00 X12.4760 Y104.0874 Z2    F2100
G01 X12.4760 Y104.0874 Z-0.5 F210
G01 X13.8336 Y104.6063 Z-0.5 F720
G01 X16.5571 Y106.2366 Z-0.5 F720
G01 X19.0040 Y108.2601 Z-0.5 F720
G01 X21.0053 Y110.3010 Z-0.5 F720
G00 X21.0053 Y110.3010 Z2    F500

;Begin line
G00 X18.9019 Y111.1073 Z2    F2100
G01 X18.9019 Y111.1073 Z-0.5 F210
G01 X16.5345 Y109.5080 Z-0.5 F720
G01 X15.2667 Y108.9209 Z-0.5 F720
G00 X15.2667 Y108.9209 Z2    F500

;Begin line
G00 X15.5957 Y109.4907 Z2    F2100
G01 X15.5957 Y109.4907 Z-0.5 F210
G01 X18.8548 Y111.4569 Z-0.5 F720
G01 X21.5299 Y113.7013 Z-0.5 F720
G01 X23.2645 Y115.5586 Z-0.5 F720
G00 X23.2645 Y115.5586 Z2    F500

;Begin line
G00 X26.4490 Y113.9409 Z2    F2100
G01 X26.4490 Y113.9409 Z-0.5 F210
G01 X21.4897 Y106.5639 Z-0.5 F720
G01 X18.9758 Y103.2910 Z-0.5 F720
G01 X16.2474 Y100.1930 Z-0.5 F720
G01 X13.6541 Y97.8506 Z-0.5 F720
G01 X11.0249 Y96.0715 Z-0.5 F720
G01 X6.9709 Y94.5544 Z-0.5 F720
G00 X6.9709 Y94.5544 Z2    F500

;Begin line
G00 X8.8371 Y97.7856 Z2    F2100
G01 X8.8371 Y97.7856 Z-0.5 F210
G01 X11.2291 Y98.5237 Z-0.5 F720
G01 X13.7255 Y99.9170 Z-0.5 F720
G01 X16.2344 Y101.8624 Z-0.5 F720
G01 X18.8822 Y104.6006 Z-0.5 F720
G01 X24.1691 Y111.3461 Z-0.5 F720
G01 X26.6023 Y115.0682 Z-0.5 F720
G01 X29.1769 Y119.8125 Z-0.5 F720
G01 X30.7453 Y123.2852 Z-0.5 F720
G01 X33.8298 Y128.4625 Z-0.5 F720
G01 X35.9144 Y130.8582 Z-0.5 F720
G01 X39.2806 Y133.2503 Z-0.5 F720
G01 X40.1715 Y133.5679 Z-0.5 F720
G00 X40.1715 Y133.5679 Z2    F500

;Begin line
G00 X40.9222 Y133.2645 Z2    F2100
G01 X40.9222 Y133.2645 Z-0.5 F210
G01 X39.2521 Y132.3476 Z-0.5 F720
G01 X37.1651 Y130.8973 Z-0.5 F720
G01 X34.8833 Y128.2521 Z-0.5 F720
G01 X33.4031 Y125.8068 Z-0.5 F720
G01 X29.0591 Y115.2362 Z-0.5 F720
G01 X26.6855 Y110.7437 Z-0.5 F720
G01 X20.4878 Y100.3915 Z-0.5 F720
G01 X17.6799 Y95.0566 Z-0.5 F720
G01 X16.2766 Y91.5194 Z-0.5 F720
G01 X15.5520 Y90.1063 Z-0.5 F720
G01 X14.6127 Y87.4066 Z-0.5 F720
G01 X13.7926 Y83.3608 Z-0.5 F720
G01 X12.1386 Y77.2293 Z-0.5 F720
G01 X11.0120 Y74.6041 Z-0.5 F720
G01 X9.5777 Y72.1302 Z-0.5 F720
G01 X8.7004 Y71.2121 Z-0.5 F720
G01 X7.5156 Y69.4896 Z-0.5 F720
G00 X7.5156 Y69.4896 Z2    F500

;Begin line
G00 X7.1522 Y70.1195 Z2    F2100
G01 X7.1522 Y70.1195 Z-0.5 F210
G01 X8.4234 Y72.0593 Z-0.5 F720
G01 X9.9396 Y74.8458 Z-0.5 F720
G01 X10.8342 Y77.2230 Z-0.5 F720
G01 X12.9919 Y85.1930 Z-0.5 F720
G01 X14.7923 Y90.2761 Z-0.5 F720
G01 X16.4636 Y93.3393 Z-0.5 F720
G01 X17.3495 Y95.3790 Z-0.5 F720
G01 X19.2703 Y98.6668 Z-0.5 F720
G00 X19.2703 Y98.6668 Z2    F500

;Begin line
G00 X18.9268 Y100.7062 Z2    F2100
G01 X18.9268 Y100.7062 Z-0.5 F210
G01 X16.3658 Y97.0785 Z-0.5 F720
G01 X14.8707 Y95.4333 Z-0.5 F720
G01 X13.9550 Y94.1356 Z-0.5 F720
G01 X12.5331 Y92.8664 Z-0.5 F720
G01 X11.3196 Y91.3974 Z-0.5 F720
G01 X9.8282 Y90.2101 Z-0.5 F720
G01 X8.7884 Y89.0104 Z-0.5 F720
G01 X7.0687 Y87.6010 Z-0.5 F720
G01 X6.2808 Y86.6035 Z-0.5 F720
G01 X4.6728 Y85.0675 Z-0.5 F720
G01 X3.0275 Y82.7375 Z-0.5 F720
G01 X1.6364 Y79.6714 Z-0.5 F720
G00 X1.6364 Y79.6714 Z2    F500

;Begin line
G00 X2.1296 Y78.8176 Z2    F2100
G01 X2.1296 Y78.8176 Z-0.5 F210
G01 X2.4232 Y79.9007 Z-0.5 F720
G01 X3.6553 Y82.4788 Z-0.5 F720
G01 X5.3676 Y85.1537 Z-0.5 F720
G01 X6.2870 Y86.0309 Z-0.5 F720
G00 X6.2870 Y86.0309 Z2    F500

;Begin line
G00 X5.8363 Y87.9533 Z2    F2100
G01 X5.8363 Y87.9533 Z-0.5 F210
G01 X3.7220 Y86.0402 Z-0.5 F720
G01 X2.3993 Y85.1618 Z-0.5 F720
G01 X1.1635 Y83.7115 Z-0.5 F720
G01 X0.3316 Y83.0569 Z-0.5 F720
G00 X0.3316 Y83.0569 Z2    F500

;Begin line
G00 X0.4972 Y82.7561 Z2    F2100
G01 X0.4972 Y82.7561 Z-0.5 F210
G01 X0.0951 Y82.3403 Z-0.5 F720
G00 X0.0951 Y82.3403 Z2    F500

;Begin line
G00 X1.0527 Y80.6822 Z2    F2100
G01 X1.0527 Y80.6822 Z-0.5 F210
G01 X2.0358 Y82.6025 Z-0.5 F720
G01 X4.0260 Y85.0714 Z-0.5 F720
G01 X6.7173 Y87.7637 Z-0.5 F720
G01 X8.9271 Y89.5763 Z-0.5 F720
