;Generated with vpype gwrite fabian
;plotter-files/random-weed-4rknova-c31e5055d1-4x5_25.svg.gcode
G90
G92 X0 Y0 Z0
G00 X0 Y0 Z0 F2100
G00 X0 Y0 Z5 F500

;Begin Line: layer=0 line=0
G00 X42.8118 Y1.0000 Z2    F2100
G01 X42.8118 Y1.0000 Z-0 F210
G01 X42.8118 Y14.3874 Z-0 F720
G01 X43.4458 Y21.0351 Z-0 F720
G01 X43.9755 Y24.3366 Z-0 F720
G01 X44.8465 Y25.7779 Z-0 F720
G01 X45.9105 Y27.0760 Z-0 F720
G01 X46.2298 Y27.8763 Z-0 F720
G00 X46.2298 Y27.8763 Z2    F500

;Begin Line: layer=0 line=1
G00 X46.0305 Y28.0304 Z2    F2100
G01 X46.0305 Y28.0304 Z-0 F210
G01 X45.4399 Y27.4052 Z-0 F720
G01 X45.4220 Y27.4944 Z-0 F720
G01 X46.1568 Y27.8421 Z-0 F720
G01 X46.7769 Y28.3753 Z-0 F720
G01 X46.8082 Y28.3504 Z-0 F720
G01 X46.1313 Y27.8925 Z-0 F720
G01 X44.6367 Y27.1223 Z-0 F720
G01 X45.4220 Y27.4944 Z-0 F720
G00 X45.4220 Y27.4944 Z2    F500

;Begin Line: layer=0 line=2
G00 X45.2429 Y27.7726 Z2    F2100
G01 X45.2429 Y27.7726 Z-0 F210
G01 X43.5177 Y25.9123 Z-0 F720
G01 X42.8686 Y24.3633 Z-0 F720
G01 X43.7269 Y27.6393 Z-0 F720
G01 X43.7205 Y32.6231 Z-0 F720
G01 X44.2496 Y34.2464 Z-0 F720
G01 X44.2977 Y35.0588 Z-0 F720
G00 X44.2977 Y35.0588 Z2    F500

;Begin Line: layer=0 line=3
G00 X44.1494 Y35.0641 Z2    F2100
G01 X44.1494 Y35.0641 Z-0 F210
G01 X44.2212 Y34.2261 Z-0 F720
G01 X43.7205 Y32.6231 Z-0 F720
G01 X43.8805 Y34.2939 Z-0 F720
G01 X43.5681 Y36.8038 Z-0 F720
G00 X43.5681 Y36.8038 Z2    F500

;Begin Line: layer=0 line=4
G00 X44.2044 Y36.7957 Z2    F2100
G01 X44.2044 Y36.7957 Z-0 F210
G01 X44.1157 Y35.9426 Z-0 F720
G01 X43.8805 Y34.2939 Z-0 F720
G01 X43.9384 Y34.2614 Z-0 F720
G01 X45.0291 Y35.4848 Z-0 F720
G01 X45.5112 Y36.1489 Z-0 F720
G00 X45.5112 Y36.1489 Z2    F500

;Begin Line: layer=0 line=5
G00 X45.1496 Y36.3605 Z2    F2100
G01 X45.1496 Y36.3605 Z-0 F210
G01 X45.0459 Y35.5086 Z-0 F720
G01 X44.2415 Y34.0690 Z-0 F720
G00 X44.2415 Y34.0690 Z2    F500

;Begin Line: layer=0 line=6
G00 X44.2496 Y34.2464 Z2    F2100
G01 X44.2496 Y34.2464 Z-0 F210
G01 X45.0181 Y35.7717 Z-0 F720
G01 X45.2087 Y36.5737 Z-0 F720
G00 X45.2087 Y36.5737 Z2    F500

;Begin Line: layer=0 line=7
G00 X44.5730 Y36.7035 Z2    F2100
G01 X44.5730 Y36.7035 Z-0 F210
G01 X43.5658 Y34.3553 Z-0 F720
G00 X43.5658 Y34.3553 Z2    F500

;Begin Line: layer=0 line=8
G00 X43.4482 Y34.3547 Z2    F2100
G01 X43.4482 Y34.3547 Z-0 F210
G01 X43.9610 Y35.9281 Z-0 F720
G01 X44.7723 Y37.3584 Z-0 F720
G01 X44.9740 Y38.1645 Z-0 F720
G01 X44.9427 Y38.1129 Z-0 F720
G01 X45.0372 Y37.2946 Z-0 F720
G01 X44.2415 Y34.0690 Z-0 F720
G01 X43.5316 Y32.5756 Z-0 F720
G01 X44.0178 Y34.1873 Z-0 F720
G01 X44.2120 Y35.0096 Z-0 F720
G01 X44.2032 Y35.0838 Z-0 F720
G01 X43.9384 Y34.2614 Z-0 F720
G01 X43.3038 Y32.6753 Z-0 F720
G01 X42.9051 Y31.0126 Z-0 F720
G01 X43.4482 Y34.3547 Z-0 F720
G01 X43.1456 Y39.4806 Z-0 F720
G01 X43.4476 Y41.1513 Z-0 F720
G01 X43.4192 Y41.9725 Z-0 F720
G01 X43.4574 Y41.9430 Z-0 F720
G01 X43.4870 Y42.7572 Z-0 F720
G01 X43.3856 Y43.6120 Z-0 F720
G00 X43.3856 Y43.6120 Z2    F500

;Begin Line: layer=0 line=9
G00 X43.1625 Y43.6711 Z2    F2100
G01 X43.1625 Y43.6711 Z-0 F210
G01 X43.2337 Y42.8232 Z-0 F720
G01 X43.1062 Y41.1339 Z-0 F720
G00 X43.1062 Y41.1339 Z2    F500

;Begin Line: layer=0 line=10
G00 X43.6811 Y41.1565 Z2    F2100
G01 X43.6811 Y41.1565 Z-0 F210
G01 X43.9871 Y42.8273 Z-0 F720
G01 X43.9251 Y43.6444 Z-0 F720
G00 X43.9251 Y43.6444 Z2    F500

;Begin Line: layer=0 line=11
G00 X43.6904 Y43.6543 Z2    F2100
G01 X43.6904 Y43.6543 Z-0 F210
G01 X44.2085 Y41.2301 Z-0 F720
G01 X44.0080 Y39.5501 Z-0 F720
G01 X44.4971 Y41.1322 Z-0 F720
G01 X44.6854 Y41.9650 Z-0 F720
G00 X44.6854 Y41.9650 Z2    F500

;Begin Line: layer=0 line=12
G00 X44.9653 Y41.8253 Z2    F2100
G01 X44.9653 Y41.8253 Z-0 F210
G01 X44.7225 Y41.0354 Z-0 F720
G01 X44.0080 Y39.5501 Z-0 F720
G01 X43.7194 Y37.8452 Z-0 F720
G01 X43.1381 Y27.7059 Z-0 F720
G01 X42.0718 Y21.0762 Z-0 F720
G01 X42.8686 Y24.3633 Z-0 F720
G01 X43.6881 Y25.8144 Z-0 F720
G01 X44.7445 Y27.1728 Z-0 F720
G01 X45.0865 Y27.9435 Z-0 F720
G01 X45.0302 Y27.9783 Z-0 F720
G01 X43.4760 Y25.9668 Z-0 F720
G01 X42.9527 Y24.3668 Z-0 F720
G01 X42.0718 Y21.0762 Z-0 F720
G01 X42.8118 Y14.3874 Z-0 F720
G01 X42.5470 Y27.8166 Z-0 F720
G01 X39.8464 Y47.7636 Z-0 F720
G01 X40.2614 Y51.1457 Z-0 F720
G01 X40.9122 Y52.7011 Z-0 F720
G01 X42.0851 Y53.9141 Z-0 F720
G01 X42.6096 Y54.5422 Z-0 F720
G01 X42.6722 Y54.5000 Z-0 F720
G01 X43.2598 Y55.0644 Z-0 F720
G01 X43.6568 Y55.8154 Z-0 F720
G00 X43.6568 Y55.8154 Z2    F500

;Begin Line: layer=0 line=13
G00 X43.7924 Y55.7633 Z2    F2100
G01 X43.7924 Y55.7633 Z-0 F210
G01 X40.9122 Y52.7011 Z-0 F720
G01 X41.9570 Y54.0213 Z-0 F720
G01 X42.2057 Y54.8442 Z-0 F720
G00 X42.2057 Y54.8442 Z2    F500

;Begin Line: layer=0 line=14
G00 X41.8232 Y54.8355 Z2    F2100
G01 X41.8232 Y54.8355 Z-0 F210
G01 X41.5160 Y54.0641 Z-0 F720
G01 X40.6752 Y52.6426 Z-0 F720
G01 X40.2411 Y51.0634 Z-0 F720
G01 X39.8464 Y47.7636 Z-0 F720
G01 X40.5760 Y54.3904 Z-0 F720
G01 X41.5566 Y64.4474 Z-0 F720
G01 X42.0961 Y66.0486 Z-0 F720
G01 X43.0158 Y67.4817 Z-0 F720
G01 X43.1752 Y68.2965 Z-0 F720
G01 X43.2053 Y68.2652 Z-0 F720
G01 X42.9724 Y67.4759 Z-0 F720
G01 X42.0961 Y66.0486 Z-0 F720
G01 X42.4409 Y67.7008 Z-0 F720
G01 X41.9055 Y71.0400 Z-0 F720
G01 X41.4743 Y71.7934 Z-0 F720
G00 X41.4743 Y71.7934 Z2    F500

;Begin Line: layer=0 line=15
G00 X41.5659 Y71.4914 Z2    F2100
G01 X41.5659 Y71.4914 Z-0 F210
G01 X41.3764 Y70.6743 Z-0 F720
G01 X40.9075 Y69.0853 Z-0 F720
G00 X40.9075 Y69.0853 Z2    F500

;Begin Line: layer=0 line=16
G00 X40.8299 Y69.8960 Z2    F2100
G01 X40.8299 Y69.8960 Z-0 F210
G01 X40.9075 Y69.0853 Z-0 F720
G01 X40.4028 Y65.7664 Z-0 F720
G01 X39.9015 Y64.1970 Z-0 F720
G01 X40.0533 Y65.8805 Z-0 F720
G01 X39.8835 Y66.7087 Z-0 F720
G00 X39.8835 Y66.7087 Z2    F500

;Begin Line: layer=0 line=17
G00 X38.9690 Y66.7620 Z2    F2100
G01 X38.9690 Y66.7620 Z-0 F210
G01 X38.7349 Y65.9535 Z-0 F720
G01 X37.7561 Y64.6021 Z-0 F720
G00 X37.7561 Y64.6021 Z2    F500

;Begin Line: layer=0 line=18
G00 X37.2311 Y64.7267 Z2    F2100
G01 X37.2311 Y64.7267 Z-0 F210
G01 X37.5852 Y66.3760 Z-0 F720
G01 X37.7063 Y67.2128 Z-0 F720
G00 X37.7063 Y67.2128 Z2    F500

;Begin Line: layer=0 line=19
G00 X36.4580 Y67.9824 Z2    F2100
G01 X36.4580 Y67.9824 Z-0 F210
G01 X36.2308 Y69.6491 Z-0 F720
G01 X36.0216 Y70.4460 Z-0 F720
G00 X36.0216 Y70.4460 Z2    F500

;Begin Line: layer=0 line=20
G00 X36.2042 Y68.8019 Z2    F2100
G01 X36.2042 Y68.8019 Z-0 F210
G01 X36.4580 Y67.9824 Z-0 F720
G01 X37.2311 Y64.7267 Z-0 F720
G01 X37.0792 Y63.0646 Z-0 F720
G01 X37.6831 Y64.6039 Z-0 F720
G01 X37.8176 Y65.4059 Z-0 F720
G00 X37.8176 Y65.4059 Z2    F500

;Begin Line: layer=0 line=21
G00 X37.9474 Y65.3960 Z2    F2100
G01 X37.9474 Y65.3960 Z-0 F210
G01 X37.7561 Y64.6021 Z-0 F720
G01 X37.0792 Y63.0646 Z-0 F720
G01 X37.0074 Y61.4066 Z-0 F720
G00 X37.0074 Y61.4066 Z2    F500

;Begin Line: layer=0 line=22
G00 X36.9071 Y62.2423 Z2    F2100
G01 X36.9071 Y62.2423 Z-0 F210
G01 X37.0074 Y61.4066 Z-0 F720
G01 X37.1424 Y59.7602 Z-0 F720
G01 X37.2143 Y59.7510 Z-0 F720
G01 X37.3180 Y61.4397 Z-0 F720
G01 X37.2884 Y62.2719 Z-0 F720
G00 X37.2884 Y62.2719 Z2    F500

;Begin Line: layer=0 line=23
G00 X37.0520 Y63.5885 Z2    F2100
G01 X37.0520 Y63.5885 Z-0 F210
G01 X36.2923 Y65.1231 Z-0 F720
G01 X35.7463 Y65.7878 Z-0 F720
G00 X35.7463 Y65.7878 Z2    F500

;Begin Line: layer=0 line=24
G00 X35.2520 Y65.2819 Z2    F2100
G01 X35.2520 Y65.2819 Z-0 F210
G01 X35.5580 Y64.5059 Z-0 F720
G01 X35.8802 Y62.8613 Z-0 F720
G00 X35.8802 Y62.8613 Z2    F500

;Begin Line: layer=0 line=25
G00 X35.5325 Y63.6337 Z2    F2100
G01 X35.5325 Y63.6337 Z-0 F210
G01 X35.8802 Y62.8613 Z-0 F720
G01 X37.1424 Y59.7602 Z-0 F720
G01 X37.7242 Y58.1584 Z-0 F720
G01 X36.8642 Y59.5678 Z-0 F720
G01 X36.2940 Y60.2117 Z-0 F720
G00 X36.2940 Y60.2117 Z2    F500

;Begin Line: layer=0 line=26
G00 X36.7906 Y60.4974 Z2    F2100
G01 X36.7906 Y60.4974 Z-0 F210
G01 X37.2143 Y59.7510 Z-0 F720
G01 X37.7242 Y58.1584 Z-0 F720
G01 X40.7186 Y54.1175 Z-0 F720
G01 X41.9437 Y50.9359 Z-0 F720
G01 X41.7693 Y52.5841 Z-0 F720
G01 X41.7293 Y54.2612 Z-0 F720
G01 X41.6447 Y55.1108 Z-0 F720
G01 X41.7212 Y55.0511 Z-0 F720
G01 X41.9298 Y54.2241 Z-0 F720
G01 X41.7820 Y52.5881 Z-0 F720
G01 X41.9437 Y50.9359 Z-0 F720
G01 X44.2601 Y41.1595 Z-0 F720
G01 X44.0613 Y34.3640 Z-0 F720
G01 X44.3661 Y37.7467 Z-0 F720
G01 X44.9700 Y39.3305 Z-0 F720
G01 X45.7697 Y40.8407 Z-0 F720
G01 X45.9870 Y41.6260 Z-0 F720
G00 X45.9870 Y41.6260 Z2    F500

;Begin Line: layer=0 line=27
G00 X45.8404 Y41.5298 Z2    F2100
G01 X45.8404 Y41.5298 Z-0 F210
G01 X45.7199 Y40.7010 Z-0 F720
G01 X45.3043 Y39.9749 Z-0 F720
G01 X45.2516 Y40.0265 Z-0 F720
G01 X45.1427 Y39.1746 Z-0 F720
G01 X44.6466 Y37.5479 Z-0 F720
G01 X44.8848 Y39.2407 Z-0 F720
G01 X44.3220 Y42.5804 Z-0 F720
G01 X44.0381 Y43.3970 Z-0 F720
G00 X44.0381 Y43.3970 Z2    F500

;Begin Line: layer=0 line=28
G00 X43.5658 Y43.1327 Z2    F2100
G01 X43.5658 Y43.1327 Z-0 F210
G01 X43.7408 Y42.3109 Z-0 F720
G01 X43.5020 Y38.9741 Z-0 F720
G01 X42.8292 Y37.3920 Z-0 F720
G01 X43.7002 Y38.7927 Z-0 F720
G01 X44.1198 Y39.5490 Z-0 F720
G00 X44.1198 Y39.5490 Z2    F500

;Begin Line: layer=0 line=29
G00 X44.2345 Y39.4174 Z2    F2100
G01 X44.2345 Y39.4174 Z-0 F210
G01 X43.9338 Y38.6194 Z-0 F720
G01 X42.8292 Y37.3920 Z-0 F720
G01 X42.0515 Y35.9050 Z-0 F720
G00 X42.0515 Y35.9050 Z2    F500

;Begin Line: layer=0 line=30
G00 X41.9455 Y36.7157 Z2    F2100
G01 X41.9455 Y36.7157 Z-0 F210
G01 X42.0515 Y35.9050 Z-0 F720
G01 X41.6870 Y34.2284 Z-0 F720
G00 X41.6870 Y34.2284 Z2    F500

;Begin Line: layer=0 line=31
G00 X41.9576 Y34.2933 Z2    F2100
G01 X41.9576 Y34.2933 Z-0 F210
G01 X42.3094 Y35.8922 Z-0 F720
G01 X42.1755 Y36.7296 Z-0 F720
G00 X42.1755 Y36.7296 Z2    F500

;Begin Line: layer=0 line=32
G00 X41.1614 Y36.4729 Z2    F2100
G01 X41.1614 Y36.4729 Z-0 F210
G01 X41.5827 Y35.7757 Z-0 F720
G01 X42.0411 Y34.1276 Z-0 F720
G00 X42.0411 Y34.1276 Z2    F500

;Begin Line: layer=0 line=33
G00 X41.8620 Y33.4449 Z2    F2100
G01 X41.8620 Y33.4449 Z-0 F210
G01 X41.9646 Y32.6086 Z-0 F720
G01 X41.6870 Y34.2284 Z-0 F720
G01 X40.3066 Y38.1599 Z-0 F720
G01 X40.3535 Y38.1755 Z-0 F720
G01 X40.1078 Y38.9978 Z-0 F720
G01 X39.6222 Y39.6909 Z-0 F720
G00 X39.6222 Y39.6909 Z2    F500

;Begin Line: layer=0 line=34
G00 X40.3535 Y38.1755 Z2    F2100
G01 X40.3535 Y38.1755 Z-0 F210
G01 X40.6010 Y37.3462 Z-0 F720
G00 X40.6010 Y37.3462 Z2    F500

;Begin Line: layer=0 line=35
G00 X39.6535 Y36.3118 Z2    F2100
G01 X39.6535 Y36.3118 Z-0 F210
G01 X39.9357 Y35.5428 Z-0 F720
G01 X40.2695 Y33.9305 Z-0 F720
G00 X40.2695 Y33.9305 Z2    F500

;Begin Line: layer=0 line=36
G00 X39.7485 Y34.5807 Z2    F2100
G01 X39.7485 Y34.5807 Z-0 F210
G01 X40.2695 Y33.9305 Z-0 F720
G01 X41.4158 Y30.8069 Z-0 F720
G01 X41.7710 Y29.2173 Z-0 F720
G01 X41.1956 Y30.7907 Z-0 F720
G01 X40.7661 Y31.4919 Z-0 F720
G00 X40.7661 Y31.4919 Z2    F500

;Begin Line: layer=0 line=37
G00 X41.2495 Y31.6293 Z2    F2100
G01 X41.2495 Y31.6293 Z-0 F210
G01 X41.6238 Y30.8869 Z-0 F720
G01 X41.7710 Y29.2173 Z-0 F720
G01 X42.2010 Y27.6034 Z-0 F720
G00 X42.2010 Y27.6034 Z2    F500

;Begin Line: layer=0 line=38
G00 X42.2231 Y27.7158 Z2    F2100
G01 X42.2231 Y27.7158 Z-0 F210
G01 X42.9051 Y31.0126 Z-0 F720
G01 X43.5316 Y32.5756 Z-0 F720
G01 X44.5394 Y33.9131 Z-0 F720
G01 X44.8001 Y34.7100 Z-0 F720
G00 X44.8001 Y34.7100 Z2    F500

;Begin Line: layer=0 line=39
G00 X44.8830 Y34.4741 Z2    F2100
G01 X44.8830 Y34.4741 Z-0 F210
G01 X44.3412 Y33.8071 Z-0 F720
G01 X43.2494 Y32.5890 Z-0 F720
G00 X43.2494 Y32.5890 Z2    F500

;Begin Line: layer=0 line=40
G00 X43.0176 Y32.6782 Z2    F2100
G01 X43.0176 Y32.6782 Z-0 F210
G01 X43.5212 Y33.3829 Z-0 F720
G00 X43.5212 Y33.3829 Z2    F500

;Begin Line: layer=0 line=41
G00 X43.6626 Y33.3151 Z2    F2100
G01 X43.6626 Y33.3151 Z-0 F210
G01 X44.0091 Y32.5379 Z-0 F720
G01 X44.0972 Y30.8800 Z-0 F720
G00 X44.0972 Y30.8800 Z2    F500

;Begin Line: layer=0 line=42
G00 X44.0143 Y30.7670 Z2    F2100
G01 X44.0143 Y30.7670 Z-0 F210
G01 X43.9987 Y32.4794 Z-0 F720
G01 X43.9396 Y33.3139 Z-0 F720
G00 X43.9396 Y33.3139 Z2    F500

;Begin Line: layer=0 line=43
G00 X43.7205 Y33.5510 Z2    F2100
G01 X43.7205 Y33.5510 Z-0 F210
G01 X43.6289 Y32.6938 Z-0 F720
G01 X43.2291 Y31.0329 Z-0 F720
G00 X43.2291 Y31.0329 Z2    F500

;Begin Line: layer=0 line=44
G00 X43.6910 Y31.0266 Z2    F2100
G01 X43.6910 Y31.0266 Z-0 F210
G01 X44.1569 Y32.6116 Z-0 F720
G01 X44.3365 Y33.4304 Z-0 F720
G00 X44.3365 Y33.4304 Z2    F500

;Begin Line: layer=0 line=45
G00 X44.5394 Y33.9131 Z2    F2100
G01 X44.5394 Y33.9131 Z-0 F210
G01 X45.7836 Y35.0971 Z-0 F720
G01 X46.1371 Y35.8887 Z-0 F720
G00 X46.1371 Y35.8887 Z2    F500

;Begin Line: layer=0 line=46
G00 X45.0459 Y35.5086 Z2    F2100
G01 X45.0459 Y35.5086 Z-0 F210
G01 X46.0884 Y36.8704 Z-0 F720
G01 X47.5088 Y37.7270 Z-0 F720
G01 X48.0211 Y38.4195 Z-0 F720
G01 X48.0165 Y38.4514 Z-0 F720
G01 X48.7362 Y38.8483 Z-0 F720
G01 X49.3117 Y39.4620 Z-0 F720
G00 X49.3117 Y39.4620 Z2    F500

;Begin Line: layer=0 line=47
G00 X49.4687 Y39.5907 Z2    F2100
G01 X49.4687 Y39.5907 Z-0 F210
G01 X47.3332 Y38.3378 Z-0 F720
G00 X47.3332 Y38.3378 Z2    F500

;Begin Line: layer=0 line=48
G00 X47.2365 Y38.4316 Z2    F2100
G01 X47.2365 Y38.4316 Z-0 F210
G01 X47.7893 Y39.0836 Z-0 F720
G00 X47.7893 Y39.0836 Z2    F500

;Begin Line: layer=0 line=49
G00 X47.8942 Y38.6745 Z2    F2100
G01 X47.8942 Y38.6745 Z-0 F210
G01 X47.3234 Y38.0393 Z-0 F720
G01 X46.0884 Y36.8704 Z-0 F720
G01 X47.2562 Y38.0318 Z-0 F720
G01 X48.9872 Y40.8697 Z-0 F720
G01 X49.2827 Y41.6260 Z-0 F720
G00 X49.2827 Y41.6260 Z2    F500

;Begin Line: layer=0 line=50
G00 X49.6420 Y41.7957 Z2    F2100
G01 X49.6420 Y41.7957 Z-0 F210
G01 X49.0811 Y41.1560 Z-0 F720
G01 X47.9220 Y39.9193 Z-0 F720
G01 X47.0562 Y38.4855 Z-0 F720
G00 X47.0562 Y38.4855 Z2    F500

;Begin Line: layer=0 line=51
G00 X47.2562 Y38.0318 Z2    F2100
G01 X47.2562 Y38.0318 Z-0 F210
G01 X48.0165 Y38.4514 Z-0 F720
G00 X48.0165 Y38.4514 Z2    F500

;Begin Line: layer=0 line=52
G00 X48.2494 Y38.6391 Z2    F2100
G01 X48.2494 Y38.6391 Z-0 F210
G01 X47.8942 Y37.8794 Z-0 F720
G01 X46.7056 Y36.6879 Z-0 F720
G01 X50.9100 Y39.4713 Z-0 F720
G01 X51.3962 Y40.1412 Z-0 F720
G00 X51.3962 Y40.1412 Z2    F500

;Begin Line: layer=0 line=53
G00 X50.9100 Y39.4713 Z2    F2100
G01 X50.9100 Y39.4713 Z-0 F210
G01 X52.3177 Y40.3435 Z-0 F720
G01 X52.8328 Y40.9914 Z-0 F720
G00 X52.8328 Y40.9914 Z2    F500

;Begin Line: layer=0 line=54
G00 X52.8641 Y41.1658 Z2    F2100
G01 X52.8641 Y41.1658 Z-0 F210
G01 X53.4321 Y41.7674 Z-0 F720
G00 X53.4321 Y41.7674 Z2    F500

;Begin Line: layer=0 line=55
G00 X53.2976 Y40.4947 Z2    F2100
G01 X53.2976 Y40.4947 Z-0 F210
G01 X52.6567 Y39.9187 Z-0 F720
G01 X51.2403 Y38.9822 Z-0 F720
G01 X52.8050 Y39.5994 Z-0 F720
G01 X55.7710 Y41.1629 Z-0 F720
G01 X56.3673 Y41.7569 Z-0 F720
G00 X56.3673 Y41.7569 Z2    F500

;Begin Line: layer=0 line=56
G00 X57.0894 Y41.3825 Z2    F2100
G01 X57.0894 Y41.3825 Z-0 F210
G01 X57.8608 Y41.7349 Z-0 F720
G00 X57.8608 Y41.7349 Z2    F500

;Begin Line: layer=0 line=57
G00 X58.2711 Y41.6074 Z2    F2100
G01 X58.2711 Y41.6074 Z-0 F210
G01 X57.4377 Y41.3831 Z-0 F720
G01 X55.7710 Y41.1629 Z-0 F720
G00 X55.7710 Y41.1629 Z2    F500

;Begin Line: layer=0 line=58
G00 X56.2706 Y40.6773 Z2    F2100
G01 X56.2706 Y40.6773 Z-0 F210
G01 X55.6233 Y40.1268 Z-0 F720
G01 X54.1982 Y39.2111 Z-0 F720
G00 X54.1982 Y39.2111 Z2    F500

;Begin Line: layer=0 line=59
G00 X53.7143 Y39.7796 Z2    F2100
G01 X53.7143 Y39.7796 Z-0 F210
G01 X55.3671 Y39.7101 Z-0 F720
G01 X56.1732 Y39.9129 Z-0 F720
G00 X56.1732 Y39.9129 Z2    F500

;Begin Line: layer=0 line=60
G00 X56.2172 Y39.5426 Z2    F2100
G01 X56.2172 Y39.5426 Z-0 F210
G01 X55.3822 Y39.5640 Z-0 F720
G01 X53.7143 Y39.7796 Z-0 F720
G01 X52.0656 Y39.4783 Z-0 F720
G00 X52.0656 Y39.4783 Z2    F500

;Begin Line: layer=0 line=61
G00 X52.8050 Y39.5994 Z2    F2100
G01 X52.8050 Y39.5994 Z-0 F210
G01 X54.5042 Y39.5814 Z-0 F720
G01 X55.3254 Y39.6660 Z-0 F720
G00 X55.3254 Y39.6660 Z2    F500

;Begin Line: layer=0 line=62
G00 X55.3822 Y39.5640 Z2    F2100
G01 X55.3822 Y39.5640 Z-0 F210
