;Generated with vpype gwrite fabian
;plotter-files/reinder-turtle-5ea9f2022b-6x9.svg.gcode
G90
G92 X0 Y0 Z0
G00 X0 Y0 Z0 F2100
G00 X0 Y0 Z5 F500

;Begin line
G00 X88.4782 Y174.0408 Z2    F2100
G01 X88.4782 Y174.0408 Z-0.5 F210
G01 X88.7972 Y175.3375 Z-0.5 F720
G01 X89.3083 Y176.5461 Z-0.5 F720
G01 X89.9931 Y177.6507 Z-0.5 F720
G01 X90.8358 Y178.6327 Z-0.5 F720
G01 X91.8178 Y179.4753 Z-0.5 F720
G01 X92.9215 Y180.1602 Z-0.5 F720
G01 X94.1309 Y180.6713 Z-0.5 F720
G01 X95.4276 Y180.9911 Z-0.5 F720
G01 X96.7949 Y181.1010 Z-0.5 F720
G01 X98.1612 Y180.9911 Z-0.5 F720
G01 X99.4580 Y180.6713 Z-0.5 F720
G01 X100.6674 Y180.1602 Z-0.5 F720
G01 X101.7719 Y179.4753 Z-0.5 F720
G01 X102.7531 Y178.6327 Z-0.5 F720
G01 X103.5957 Y177.6507 Z-0.5 F720
G01 X104.2814 Y176.5461 Z-0.5 F720
G01 X104.7918 Y175.3375 Z-0.5 F720
G01 X105.1115 Y174.0408 Z-0.5 F720
G01 X105.2215 Y172.6736 Z-0.5 F720
G01 X105.1115 Y171.3064 Z-0.5 F720
G01 X104.7918 Y170.0105 Z-0.5 F720
G01 X104.2814 Y168.8011 Z-0.5 F720
G01 X103.5957 Y167.6965 Z-0.5 F720
G01 X102.7531 Y166.7154 Z-0.5 F720
G01 X101.7719 Y165.8727 Z-0.5 F720
G01 X100.6674 Y165.1879 Z-0.5 F720
G01 X99.4580 Y164.6767 Z-0.5 F720
G01 X98.1612 Y164.3570 Z-0.5 F720
G01 X96.7949 Y164.2470 Z-0.5 F720
G01 X95.4276 Y164.3570 Z-0.5 F720
G01 X94.1309 Y164.6767 Z-0.5 F720
G01 X92.9215 Y165.1879 Z-0.5 F720
G01 X91.8178 Y165.8727 Z-0.5 F720
G01 X90.8358 Y166.7154 Z-0.5 F720
G01 X89.9931 Y167.6965 Z-0.5 F720
G01 X89.3083 Y168.8011 Z-0.5 F720
G01 X88.7972 Y170.0105 Z-0.5 F720
G01 X88.4782 Y171.3064 Z-0.5 F720
G01 X88.3674 Y172.6736 Z-0.5 F720
G01 X88.4782 Y174.0408 Z-0.5 F720
G00 X88.4782 Y174.0408 Z2    F500

;Begin line
G00 X105.2542 Y174.5066 Z2    F2100
G01 X105.2542 Y174.5066 Z-0.5 F210
G01 X106.1086 Y175.0732 Z-0.5 F720
G01 X106.8405 Y175.7513 Z-0.5 F720
G01 X107.4465 Y176.5226 Z-0.5 F720
G01 X107.9207 Y177.3703 Z-0.5 F720
G01 X108.2581 Y178.2768 Z-0.5 F720
G01 X108.4536 Y179.2235 Z-0.5 F720
G01 X108.5023 Y180.1938 Z-0.5 F720
G01 X108.3991 Y181.1690 Z-0.5 F720
G01 X108.1380 Y182.1325 Z-0.5 F720
G01 X107.7159 Y183.0658 Z-0.5 F720
G01 X107.1493 Y183.9203 Z-0.5 F720
G01 X106.4712 Y184.6530 Z-0.5 F720
G01 X105.6999 Y185.2581 Z-0.5 F720
G01 X104.8522 Y185.7323 Z-0.5 F720
G01 X103.9457 Y186.0697 Z-0.5 F720
G01 X102.9990 Y186.2653 Z-0.5 F720
G01 X102.0288 Y186.3139 Z-0.5 F720
G01 X101.0535 Y186.2107 Z-0.5 F720
G01 X100.0900 Y185.9497 Z-0.5 F720
G01 X99.1567 Y185.5275 Z-0.5 F720
G01 X98.3023 Y184.9610 Z-0.5 F720
G01 X97.5704 Y184.2828 Z-0.5 F720
G01 X96.9644 Y183.5115 Z-0.5 F720
G01 X96.4902 Y182.6638 Z-0.5 F720
G01 X96.1528 Y181.7574 Z-0.5 F720
G01 X95.9572 Y180.8106 Z-0.5 F720
G01 X95.9085 Y179.8413 Z-0.5 F720
G01 X96.0118 Y178.8651 Z-0.5 F720
G01 X96.2728 Y177.9025 Z-0.5 F720
G01 X96.6950 Y176.9691 Z-0.5 F720
G01 X97.2615 Y176.1147 Z-0.5 F720
G01 X97.9397 Y175.3820 Z-0.5 F720
G01 X98.7110 Y174.7760 Z-0.5 F720
G01 X99.5587 Y174.3019 Z-0.5 F720
G01 X100.4651 Y173.9645 Z-0.5 F720
G01 X101.4119 Y173.7689 Z-0.5 F720
G01 X102.3813 Y173.7202 Z-0.5 F720
G01 X103.3574 Y173.8234 Z-0.5 F720
G01 X104.3209 Y174.0836 Z-0.5 F720
G01 X105.2542 Y174.5066 Z-0.5 F720
G00 X105.2542 Y174.5066 Z2    F500

;Begin line
G00 X105.8770 Y170.5057 Z2    F2100
G01 X105.8770 Y170.5057 Z-0.5 F210
G01 X106.0020 Y172.0492 Z-0.5 F720
G01 X105.8770 Y173.5935 Z-0.5 F720
G01 X105.5169 Y175.0581 Z-0.5 F720
G01 X104.9395 Y176.4244 Z-0.5 F720
G01 X104.1648 Y177.6716 Z-0.5 F720
G01 X103.2139 Y178.7804 Z-0.5 F720
G01 X102.1043 Y179.7321 Z-0.5 F720
G01 X100.8571 Y180.5068 Z-0.5 F720
G01 X99.4915 Y181.0834 Z-0.5 F720
G01 X98.0261 Y181.4443 Z-0.5 F720
G01 X96.4826 Y181.5694 Z-0.5 F720
G01 X94.9383 Y181.4443 Z-0.5 F720
G01 X93.4737 Y181.0834 Z-0.5 F720
G01 X92.1074 Y180.5068 Z-0.5 F720
G01 X90.8602 Y179.7321 Z-0.5 F720
G01 X89.7514 Y178.7804 Z-0.5 F720
G01 X88.7997 Y177.6716 Z-0.5 F720
G01 X88.0258 Y176.4244 Z-0.5 F720
G01 X87.4484 Y175.0581 Z-0.5 F720
G01 X87.0875 Y173.5935 Z-0.5 F720
G01 X86.9633 Y172.0492 Z-0.5 F720
G01 X87.0875 Y170.5057 Z-0.5 F720
G01 X87.4484 Y169.0402 Z-0.5 F720
G01 X88.0258 Y167.6747 Z-0.5 F720
G01 X88.7997 Y166.4275 Z-0.5 F720
G01 X89.7514 Y165.3179 Z-0.5 F720
G01 X90.8602 Y164.3662 Z-0.5 F720
G01 X92.1074 Y163.5923 Z-0.5 F720
G01 X93.4737 Y163.0149 Z-0.5 F720
G01 X94.9383 Y162.6540 Z-0.5 F720
G01 X96.4826 Y162.5298 Z-0.5 F720
G01 X98.0261 Y162.6540 Z-0.5 F720
G01 X99.4915 Y163.0149 Z-0.5 F720
G01 X100.8571 Y163.5923 Z-0.5 F720
G01 X102.1043 Y164.3662 Z-0.5 F720
G01 X103.2139 Y165.3179 Z-0.5 F720
G01 X104.1648 Y166.4275 Z-0.5 F720
G01 X104.9395 Y167.6747 Z-0.5 F720
G01 X105.5169 Y169.0402 Z-0.5 F720
G01 X105.8770 Y170.5057 Z-0.5 F720
G00 X105.8770 Y170.5057 Z2    F500

;Begin line
G00 X106.8027 Y177.6549 Z2    F2100
G01 X106.8027 Y177.6549 Z-0.5 F210
G01 X106.3831 Y176.9045 Z-0.5 F720
G01 X105.8476 Y176.2213 Z-0.5 F720
G01 X105.1988 Y175.6212 Z-0.5 F720
G01 X104.4426 Y175.1202 Z-0.5 F720
G01 X103.6167 Y174.7458 Z-0.5 F720
G01 X102.7640 Y174.5159 Z-0.5 F720
G01 X101.9003 Y174.4244 Z-0.5 F720
G01 X101.0417 Y174.4672 Z-0.5 F720
G01 X100.2033 Y174.6401 Z-0.5 F720
G01 X99.4009 Y174.9389 Z-0.5 F720
G01 X98.6506 Y175.3585 Z-0.5 F720
G01 X97.9674 Y175.8948 Z-0.5 F720
G01 X97.3673 Y176.5436 Z-0.5 F720
G01 X96.8662 Y177.2990 Z-0.5 F720
G01 X96.4919 Y178.1257 Z-0.5 F720
G01 X96.2619 Y178.9784 Z-0.5 F720
G01 X96.1704 Y179.8421 Z-0.5 F720
G01 X96.2132 Y180.7007 Z-0.5 F720
G01 X96.3861 Y181.5392 Z-0.5 F720
G01 X96.6849 Y182.3407 Z-0.5 F720
G01 X97.1046 Y183.0910 Z-0.5 F720
G01 X97.6409 Y183.7742 Z-0.5 F720
G01 X98.2888 Y184.3743 Z-0.5 F720
G01 X99.0450 Y184.8762 Z-0.5 F720
G01 X99.8717 Y185.2497 Z-0.5 F720
G01 X100.7245 Y185.4805 Z-0.5 F720
G01 X101.5881 Y185.5720 Z-0.5 F720
G01 X102.4467 Y185.5292 Z-0.5 F720
G01 X103.2852 Y185.3555 Z-0.5 F720
G01 X104.0867 Y185.0575 Z-0.5 F720
G01 X104.8371 Y184.6379 Z-0.5 F720
G01 X105.5203 Y184.1015 Z-0.5 F720
G01 X106.1204 Y183.4528 Z-0.5 F720
G01 X106.6223 Y182.6974 Z-0.5 F720
G01 X106.9958 Y181.8707 Z-0.5 F720
G01 X107.2266 Y181.0171 Z-0.5 F720
G01 X107.3180 Y180.1535 Z-0.5 F720
G01 X107.2744 Y179.2949 Z-0.5 F720
G01 X107.1015 Y178.4572 Z-0.5 F720
G01 X106.8027 Y177.6549 Z-0.5 F720
G00 X106.8027 Y177.6549 Z2    F500

;Begin line
G00 X123.5787 Y180.2156 Z2    F2100
G01 X123.5787 Y180.2156 Z-0.5 F210
G01 X123.0181 Y180.5295 Z-0.5 F720
G01 X122.4188 Y180.7519 Z-0.5 F720
G01 X121.7927 Y180.8811 Z-0.5 F720
G01 X121.1515 Y180.9139 Z-0.5 F720
G01 X120.5068 Y180.8451 Z-0.5 F720
G01 X119.8698 Y180.6730 Z-0.5 F720
G01 X119.2521 Y180.3943 Z-0.5 F720
G01 X118.6881 Y180.0192 Z-0.5 F720
G01 X118.2038 Y179.5710 Z-0.5 F720
G01 X117.8035 Y179.0615 Z-0.5 F720
G01 X117.4904 Y178.5009 Z-0.5 F720
G01 X117.2672 Y177.9016 Z-0.5 F720
G01 X117.1379 Y177.2763 Z-0.5 F720
G01 X117.1060 Y176.6351 Z-0.5 F720
G01 X117.1740 Y175.9897 Z-0.5 F720
G01 X117.3460 Y175.3535 Z-0.5 F720
G01 X117.6255 Y174.7366 Z-0.5 F720
G01 X117.9999 Y174.1718 Z-0.5 F720
G01 X118.4480 Y173.6875 Z-0.5 F720
G01 X118.9583 Y173.2871 Z-0.5 F720
G01 X119.5182 Y172.9732 Z-0.5 F720
G01 X120.1174 Y172.7500 Z-0.5 F720
G01 X120.7435 Y172.6207 Z-0.5 F720
G01 X121.3848 Y172.5888 Z-0.5 F720
G01 X122.0293 Y172.6568 Z-0.5 F720
G01 X122.6664 Y172.8289 Z-0.5 F720
G01 X123.2841 Y173.1083 Z-0.5 F720
G01 X123.8490 Y173.4827 Z-0.5 F720
G01 X124.3332 Y173.9309 Z-0.5 F720
G01 X124.7336 Y174.4412 Z-0.5 F720
G01 X125.0466 Y175.0010 Z-0.5 F720
G01 X125.2699 Y175.6002 Z-0.5 F720
G01 X125.3992 Y176.2264 Z-0.5 F720
G01 X125.4310 Y176.8676 Z-0.5 F720
G01 X125.3631 Y177.5122 Z-0.5 F720
G01 X125.1902 Y178.1492 Z-0.5 F720
G01 X124.9115 Y178.7669 Z-0.5 F720
G01 X124.5363 Y179.3309 Z-0.5 F720
G01 X124.0882 Y179.8152 Z-0.5 F720
G01 X123.5787 Y180.2156 Z-0.5 F720
G00 X123.5787 Y180.2156 Z2    F500

;Begin line
G00 X124.1889 Y178.5227 Z2    F2100
G01 X124.1889 Y178.5227 Z-0.5 F210
G01 X124.4356 Y177.9763 Z-0.5 F720
G01 X124.5875 Y177.4123 Z-0.5 F720
G01 X124.6480 Y176.8416 Z-0.5 F720
G01 X124.6195 Y176.2742 Z-0.5 F720
G01 X124.5053 Y175.7203 Z-0.5 F720
G01 X124.3081 Y175.1898 Z-0.5 F720
G01 X124.0303 Y174.6938 Z-0.5 F720
G01 X123.6761 Y174.2422 Z-0.5 F720
G01 X123.2472 Y173.8453 Z-0.5 F720
G01 X122.7478 Y173.5137 Z-0.5 F720
G01 X122.2014 Y173.2661 Z-0.5 F720
G01 X121.6374 Y173.1142 Z-0.5 F720
G01 X121.0667 Y173.0538 Z-0.5 F720
G01 X120.4985 Y173.0815 Z-0.5 F720
G01 X119.9445 Y173.1965 Z-0.5 F720
G01 X119.4141 Y173.3937 Z-0.5 F720
G01 X118.9180 Y173.6715 Z-0.5 F720
G01 X118.4665 Y174.0257 Z-0.5 F720
G01 X118.0703 Y174.4546 Z-0.5 F720
G01 X117.7388 Y174.9548 Z-0.5 F720
G01 X117.4912 Y175.5004 Z-0.5 F720
G01 X117.3393 Y176.0644 Z-0.5 F720
G01 X117.2781 Y176.6351 Z-0.5 F720
G01 X117.3066 Y177.2025 Z-0.5 F720
G01 X117.4216 Y177.7573 Z-0.5 F720
G01 X117.6188 Y178.2877 Z-0.5 F720
G01 X117.8958 Y178.7837 Z-0.5 F720
G01 X118.2508 Y179.2353 Z-0.5 F720
G01 X118.6788 Y179.6323 Z-0.5 F720
G01 X119.1791 Y179.9638 Z-0.5 F720
G01 X119.7255 Y180.2114 Z-0.5 F720
G01 X120.2895 Y180.3633 Z-0.5 F720
G01 X120.8602 Y180.4237 Z-0.5 F720
G01 X121.4276 Y180.3952 Z-0.5 F720
G01 X121.9815 Y180.2810 Z-0.5 F720
G01 X122.5119 Y180.0830 Z-0.5 F720
G01 X123.0080 Y179.8060 Z-0.5 F720
G01 X123.4595 Y179.4510 Z-0.5 F720
G01 X123.8565 Y179.0221 Z-0.5 F720
G01 X124.1889 Y178.5227 Z-0.5 F720
G00 X124.1889 Y178.5227 Z2    F500

;Begin line
G00 X123.1330 Y161.6636 Z2    F2100
G01 X123.1330 Y161.6636 Z-0.5 F210
G01 X122.6916 Y161.6804 Z-0.5 F720
G01 X122.2660 Y161.7266 Z-0.5 F720
G01 X122.0755 Y161.7702 Z-0.5 F720
G01 X121.9068 Y161.8315 Z-0.5 F720
G01 X121.7683 Y161.9154 Z-0.5 F720
G01 X122.3156 Y163.6796 Z-0.5 F720
G01 X123.1271 Y163.9079 Z-0.5 F720
G01 X123.9295 Y164.0514 Z-0.5 F720
G01 X124.7227 Y164.1152 Z-0.5 F720
G01 X125.5066 Y164.1035 Z-0.5 F720
G01 X126.2812 Y164.0212 Z-0.5 F720
G01 X127.0459 Y163.8727 Z-0.5 F720
G01 X127.8021 Y163.6628 Z-0.5 F720
G01 X128.5490 Y163.3951 Z-0.5 F720
G01 X129.2860 Y163.0753 Z-0.5 F720
G01 X130.0145 Y162.7077 Z-0.5 F720
G01 X129.8567 Y162.5751 Z-0.5 F720
G01 X129.5101 Y162.3661 Z-0.5 F720
G01 X129.1366 Y162.2092 Z-0.5 F720
G01 X128.5583 Y162.0069 Z-0.5 F720
G01 X128.1814 Y161.8525 Z-0.5 F720
G01 X127.9741 Y161.7350 Z-0.5 F720
G01 X127.5008 Y161.4177 Z-0.5 F720
G01 X127.2666 Y161.2801 Z-0.5 F720
G01 X127.0534 Y161.1961 Z-0.5 F720
G01 X126.7647 Y161.1516 Z-0.5 F720
G01 X126.4483 Y161.1441 Z-0.5 F720
G01 X126.1100 Y161.1676 Z-0.5 F720
G01 X125.7575 Y161.2146 Z-0.5 F720
G01 X123.7155 Y161.6275 Z-0.5 F720
G01 X123.1330 Y161.6636 Z-0.5 F720
G00 X123.1330 Y161.6636 Z2    F500

;Begin line
G00 X123.8641 Y159.7148 Z2    F2100
G01 X123.8641 Y159.7148 Z-0.5 F210
G01 X123.9589 Y159.8474 Z-0.5 F720
G01 X125.6014 Y160.5759 Z-0.5 F720
G01 X126.7412 Y160.5692 Z-0.5 F720
G01 X127.2658 Y160.5465 Z-0.5 F720
G01 X127.7920 Y160.4936 Z-0.5 F720
G01 X128.2796 Y160.3954 Z-0.5 F720
G01 X128.6859 Y160.2418 Z-0.5 F720
G01 X128.9695 Y160.0177 Z-0.5 F720
G01 X129.0871 Y159.7122 Z-0.5 F720
G01 X128.9989 Y159.3119 Z-0.5 F720
G01 X128.9385 Y159.2154 Z-0.5 F720
G01 X128.7354 Y159.0139 Z-0.5 F720
G01 X127.9406 Y158.4012 Z-0.5 F720
G01 X127.7484 Y158.1830 Z-0.5 F720
G01 X127.5520 Y157.9187 Z-0.5 F720
G01 X127.3774 Y157.6383 Z-0.5 F720
G01 X127.2364 Y157.3421 Z-0.5 F720
G01 X127.1432 Y157.0315 Z-0.5 F720
G01 X127.1172 Y156.8712 Z-0.5 F720
G01 X126.3845 Y157.0424 Z-0.5 F720
G01 X124.9384 Y157.4931 Z-0.5 F720
G01 X124.2141 Y157.7004 Z-0.5 F720
G01 X123.8490 Y157.7844 Z-0.5 F720
G01 X123.4813 Y157.8473 Z-0.5 F720
G01 X123.4788 Y158.2191 Z-0.5 F720
G01 X123.5317 Y158.6690 Z-0.5 F720
G01 X123.5770 Y158.9031 Z-0.5 F720
G01 X123.7012 Y159.3497 Z-0.5 F720
G01 X123.8641 Y159.7148 Z-0.5 F720
G00 X123.8641 Y159.7148 Z2    F500

;Begin line
G00 X131.7543 Y161.8382 Z2    F2100
G01 X131.7543 Y161.8382 Z-0.5 F210
G01 X131.6545 Y161.8315 Z-0.5 F720
G01 X131.4489 Y161.7853 Z-0.5 F720
G01 X130.6398 Y161.5234 Z-0.5 F720
G01 X130.0506 Y161.2952 Z-0.5 F720
G01 X129.6469 Y161.0946 Z-0.5 F720
G01 X129.4345 Y160.1814 Z-0.5 F720
G01 X130.0875 Y160.3014 Z-0.5 F720
G01 X130.7766 Y160.3719 Z-0.5 F720
G01 X131.4791 Y160.3904 Z-0.5 F720
G01 X132.1723 Y160.3552 Z-0.5 F720
G01 X132.8345 Y160.2653 Z-0.5 F720
G01 X133.7108 Y160.0824 Z-0.5 F720
G01 X134.2286 Y159.9120 Z-0.5 F720
G01 X134.5358 Y159.7567 Z-0.5 F720
G01 X134.3478 Y159.9766 Z-0.5 F720
G01 X134.1355 Y160.1789 Z-0.5 F720
G01 X132.6020 Y161.4446 Z-0.5 F720
G01 X132.3402 Y161.6233 Z-0.5 F720
G01 X132.0758 Y161.7668 Z-0.5 F720
G01 X131.9617 Y161.8080 Z-0.5 F720
G01 X131.7543 Y161.8382 Z-0.5 F720
G00 X131.7543 Y161.8382 Z2    F500

;Begin line
G00 X134.1204 Y156.1402 Z2    F2100
G01 X134.1204 Y156.1402 Z-0.5 F210
G01 X134.1497 Y156.3819 Z-0.5 F720
G01 X134.1287 Y156.5959 Z-0.5 F720
G01 X134.0633 Y156.7822 Z-0.5 F720
G01 X133.9592 Y156.9442 Z-0.5 F720
G01 X133.8232 Y157.0827 Z-0.5 F720
G01 X133.6604 Y157.1994 Z-0.5 F720
G01 X133.4766 Y157.2959 Z-0.5 F720
G01 X133.0737 Y157.4335 Z-0.5 F720
G01 X132.8656 Y157.4788 Z-0.5 F720
G01 X132.5794 Y157.5133 Z-0.5 F720
G01 X132.2638 Y157.5166 Z-0.5 F720
G01 X131.9298 Y157.4889 Z-0.5 F720
G01 X131.5907 Y157.4276 Z-0.5 F720
G01 X131.2575 Y157.3320 Z-0.5 F720
G01 X130.9436 Y157.2019 Z-0.5 F720
G01 X130.6591 Y157.0357 Z-0.5 F720
G01 X130.4173 Y156.8326 Z-0.5 F720
G01 X130.2302 Y156.5909 Z-0.5 F720
G01 X130.1085 Y156.3105 Z-0.5 F720
G01 X130.0657 Y156.0512 Z-0.5 F720
G01 X130.0934 Y155.8615 Z-0.5 F720
G01 X130.1823 Y155.7314 Z-0.5 F720
G01 X130.3191 Y155.6509 Z-0.5 F720
G01 X130.4929 Y155.6089 Z-0.5 F720
G01 X130.6910 Y155.5955 Z-0.5 F720
G01 X131.5026 Y155.6181 Z-0.5 F720
G01 X132.1111 Y155.5569 Z-0.5 F720
G01 X132.2697 Y155.5569 Z-0.5 F720
G01 X132.6289 Y155.4956 Z-0.5 F720
G01 X132.9873 Y155.4788 Z-0.5 F720
G01 X133.3574 Y155.5132 Z-0.5 F720
G01 X133.5337 Y155.5560 Z-0.5 F720
G01 X133.6973 Y155.6198 Z-0.5 F720
G01 X133.8425 Y155.7079 Z-0.5 F720
G01 X133.9651 Y155.8221 Z-0.5 F720
G01 X134.0599 Y155.9656 Z-0.5 F720
G01 X134.1204 Y156.1402 Z-0.5 F720
G00 X134.1204 Y156.1402 Z2    F500

;Begin line
G00 X133.9063 Y156.4700 Z2    F2100
G01 X133.9063 Y156.4700 Z-0.5 F210
G01 X133.8770 Y156.1981 Z-0.5 F720
G01 X133.7217 Y155.9916 Z-0.5 F720
G01 X133.4674 Y155.8447 Z-0.5 F720
G01 X133.1409 Y155.7524 Z-0.5 F720
G01 X132.7699 Y155.7088 Z-0.5 F720
G01 X132.3796 Y155.7079 Z-0.5 F720
G01 X131.9978 Y155.7440 Z-0.5 F720
G01 X131.6503 Y155.8120 Z-0.5 F720
G01 X131.3649 Y155.9052 Z-0.5 F720
G01 X131.1685 Y156.0201 Z-0.5 F720
G01 X131.0435 Y156.1637 Z-0.5 F720
G01 X130.9998 Y156.3063 Z-0.5 F720
G01 X131.0242 Y156.4432 Z-0.5 F720
G01 X131.1030 Y156.5741 Z-0.5 F720
G01 X131.2239 Y156.6949 Z-0.5 F720
G01 X131.3733 Y156.8049 Z-0.5 F720
G01 X131.5378 Y156.8997 Z-0.5 F720
G01 X131.7040 Y156.9786 Z-0.5 F720
G01 X131.9910 Y157.0768 Z-0.5 F720
G01 X132.3276 Y157.1280 Z-0.5 F720
G01 X132.5307 Y157.1398 Z-0.5 F720
G01 X132.9671 Y157.1247 Z-0.5 F720
G01 X133.1837 Y157.0945 Z-0.5 F720
G01 X133.3876 Y157.0466 Z-0.5 F720
G01 X133.5723 Y156.9778 Z-0.5 F720
G01 X133.7276 Y156.8880 Z-0.5 F720
G01 X133.8467 Y156.7730 Z-0.5 F720
G01 X133.9063 Y156.4700 Z-0.5 F720
G00 X133.9063 Y156.4700 Z2    F500

;Begin line
G00 X134.2924 Y156.0201 Z2    F2100
G01 X134.2924 Y156.0201 Z-0.5 F210
G01 X134.2127 Y155.7281 Z-0.5 F720
G01 X134.6667 Y156.3567 Z-0.5 F720
G01 X134.8203 Y156.9736 Z-0.5 F720
G01 X134.7188 Y157.5636 Z-0.5 F720
G01 X134.4074 Y158.1100 Z-0.5 F720
G01 X133.9298 Y158.5968 Z-0.5 F720
G01 X133.3331 Y159.0072 Z-0.5 F720
G01 X132.6600 Y159.3270 Z-0.5 F720
G01 X131.9575 Y159.5393 Z-0.5 F720
G01 X131.2684 Y159.6275 Z-0.5 F720
G01 X130.6389 Y159.5763 Z-0.5 F720
G01 X130.3385 Y159.4957 Z-0.5 F720
G01 X130.0237 Y159.3815 Z-0.5 F720
G01 X129.7056 Y159.2347 Z-0.5 F720
G01 X129.3926 Y159.0567 Z-0.5 F720
G01 X129.0963 Y158.8511 Z-0.5 F720
G01 X128.8260 Y158.6195 Z-0.5 F720
G01 X128.5927 Y158.3643 Z-0.5 F720
G01 X128.4064 Y158.0865 Z-0.5 F720
G01 X128.2771 Y157.7886 Z-0.5 F720
G01 X128.2150 Y157.4730 Z-0.5 F720
G01 X128.2159 Y157.2523 Z-0.5 F720
G01 X128.2477 Y156.9929 Z-0.5 F720
G01 X128.3082 Y156.7092 Z-0.5 F720
G01 X128.3938 Y156.4155 Z-0.5 F720
G01 X128.5029 Y156.1276 Z-0.5 F720
G01 X128.6330 Y155.8590 Z-0.5 F720
G01 X128.7815 Y155.6265 Z-0.5 F720
G01 X128.9461 Y155.4427 Z-0.5 F720
