;Generated with vpype gwrite fabian
;square-noise/square-noise.svg.gcode
G90
G92 X0 Y0 Z0
G00 X0 Y0 Z0 F2100
G00 X0 Y0 Z5 F500

;Begin line
G00 X6.9585 Y69.1356 Z2    F2100
G01 X6.9585 Y69.1356 Z-0.5 F210
G01 X7.0644 Y67.9185 Z-0.5 F720
G00 X7.0644 Y67.9185 Z2    F500

;Begin line
G00 X7.6729 Y69.8500 Z2    F2100
G01 X7.6729 Y69.8500 Z-0.5 F210
G01 X7.8581 Y67.5217 Z-0.5 F720
G01 X7.8581 Y67.0983 Z-0.5 F720
G00 X7.8581 Y67.0983 Z2    F500

;Begin line
G00 X8.3608 Y70.5379 Z2    F2100
G01 X8.3608 Y70.5379 Z-0.5 F210
G01 X8.4402 Y69.6119 Z-0.5 F720
G01 X8.5196 Y68.9240 Z-0.5 F720
G01 X8.5725 Y68.2096 Z-0.5 F720
G01 X8.6254 Y66.8337 Z-0.5 F720
G01 X8.6254 Y66.3310 Z-0.5 F720
G00 X8.6254 Y66.3310 Z2    F500

;Begin line
G00 X9.0752 Y71.2523 Z2    F2100
G01 X9.0752 Y71.2523 Z-0.5 F210
G01 X9.0752 Y71.0142 Z-0.5 F720
G01 X9.1546 Y70.3262 Z-0.5 F720
G01 X9.3133 Y68.2096 Z-0.5 F720
G01 X9.3927 Y66.1194 Z-0.5 F720
G01 X9.3927 Y65.5637 Z-0.5 F720
G00 X9.3927 Y65.5637 Z2    F500

;Begin line
G00 X9.7896 Y71.9667 Z2    F2100
G01 X9.7896 Y71.9667 Z-0.5 F210
G01 X9.8690 Y71.0142 Z-0.5 F720
G01 X9.8954 Y70.3262 Z-0.5 F720
G01 X10.0542 Y68.2096 Z-0.5 F720
G01 X10.0806 Y67.5217 Z-0.5 F720
G01 X10.1335 Y66.8337 Z-0.5 F720
G01 X10.1600 Y66.1194 Z-0.5 F720
G01 X10.1600 Y64.7965 Z-0.5 F720
G00 X10.1600 Y64.7965 Z2    F500

;Begin line
G00 X10.5833 Y72.7340 Z2    F2100
G01 X10.5833 Y72.7340 Z-0.5 F210
G01 X10.5833 Y72.4165 Z-0.5 F720
G01 X10.6627 Y70.3262 Z-0.5 F720
G01 X10.7685 Y68.9240 Z-0.5 F720
G01 X10.7950 Y68.2096 Z-0.5 F720
G01 X10.8479 Y67.5217 Z-0.5 F720
G01 X10.9273 Y65.4315 Z-0.5 F720
G01 X10.9273 Y64.0292 Z-0.5 F720
G00 X10.9273 Y64.0292 Z2    F500

;Begin line
G00 X11.7210 Y63.3412 Z2    F2100
G01 X11.7210 Y63.3412 Z-0.5 F210
G01 X11.6946 Y63.2619 Z-0.5 F720
G01 X11.7210 Y63.3412 Z-0.5 F720
G01 X11.7210 Y64.7171 Z-0.5 F720
G01 X11.6946 Y65.4315 Z-0.5 F720
G01 X11.6417 Y66.8337 Z-0.5 F720
G01 X11.5887 Y67.5217 Z-0.5 F720
G01 X11.5623 Y68.2096 Z-0.5 F720
G01 X11.4300 Y70.3262 Z-0.5 F720
G01 X11.3771 Y71.7021 Z-0.5 F720
G01 X11.3771 Y73.1044 Z-0.5 F720
G01 X11.4035 Y73.5806 Z-0.5 F720
G00 X11.4035 Y73.5806 Z2    F500

;Begin line
G00 X12.3031 Y74.4802 Z2    F2100
G01 X12.3031 Y74.4802 Z-0.5 F210
G01 X12.1973 Y73.1044 Z-0.5 F720
G01 X12.1973 Y72.4165 Z-0.5 F720
G01 X12.1708 Y71.7021 Z-0.5 F720
G01 X12.1973 Y71.0142 Z-0.5 F720
G01 X12.1973 Y70.3262 Z-0.5 F720
G01 X12.3296 Y68.2096 Z-0.5 F720
G01 X12.3560 Y67.5217 Z-0.5 F720
G01 X12.4619 Y66.1194 Z-0.5 F720
G01 X12.4883 Y65.4315 Z-0.5 F720
G01 X12.5148 Y64.7171 Z-0.5 F720
G01 X12.5148 Y62.4417 Z-0.5 F720
G00 X12.5148 Y62.4417 Z2    F500

;Begin line
G00 X13.3350 Y75.5121 Z2    F2100
G01 X13.3350 Y75.5121 Z-0.5 F210
G01 X13.1762 Y74.5067 Z-0.5 F720
G01 X13.0969 Y73.8187 Z-0.5 F720
G01 X12.9910 Y72.4165 Z-0.5 F720
G01 X12.9646 Y71.7021 Z-0.5 F720
G01 X12.9646 Y71.0142 Z-0.5 F720
G01 X13.0440 Y68.9240 Z-0.5 F720
G01 X13.2027 Y66.8337 Z-0.5 F720
G01 X13.2292 Y66.1194 Z-0.5 F720
G01 X13.2821 Y65.4315 Z-0.5 F720
G01 X13.3615 Y63.3412 Z-0.5 F720
G01 X13.3615 Y61.5950 Z-0.5 F720
G00 X13.3615 Y61.5950 Z2    F500

;Begin line
G00 X14.5256 Y76.6762 Z2    F2100
G01 X14.5256 Y76.6762 Z-0.5 F210
G01 X14.3140 Y75.9090 Z-0.5 F720
G01 X14.1552 Y75.2210 Z-0.5 F720
G01 X13.9435 Y73.8187 Z-0.5 F720
G01 X13.8642 Y73.1044 Z-0.5 F720
G01 X13.8113 Y72.4165 Z-0.5 F720
G01 X13.7583 Y71.0142 Z-0.5 F720
G01 X13.8377 Y68.9240 Z-0.5 F720
G01 X14.1552 Y64.7171 Z-0.5 F720
G01 X14.2610 Y61.9390 Z-0.5 F720
G01 X14.2610 Y61.2246 Z-0.5 F720
G01 X14.2346 Y60.7219 Z-0.5 F720
G00 X14.2346 Y60.7219 Z2    F500

;Begin line
G00 X15.1871 Y59.8223 Z2    F2100
G01 X15.1871 Y59.8223 Z-0.5 F210
G01 X15.1871 Y59.7694 Z-0.5 F720
G01 X15.1871 Y61.2246 Z-0.5 F720
G01 X15.1077 Y63.3412 Z-0.5 F720
G01 X14.9490 Y65.4315 Z-0.5 F720
G01 X14.8696 Y66.1194 Z-0.5 F720
G01 X14.7637 Y67.5217 Z-0.5 F720
G01 X14.6844 Y68.2096 Z-0.5 F720
G01 X14.6315 Y68.9240 Z-0.5 F720
G01 X14.5785 Y70.3262 Z-0.5 F720
G01 X14.5785 Y71.7021 Z-0.5 F720
G01 X14.6844 Y73.1044 Z-0.5 F720
G01 X14.8960 Y74.5067 Z-0.5 F720
G01 X15.2135 Y75.9090 Z-0.5 F720
G01 X15.6369 Y77.3112 Z-0.5 F720
G01 X15.8750 Y77.9992 Z-0.5 F720
G01 X15.9279 Y78.1050 Z-0.5 F720
G00 X15.9279 Y78.1050 Z2    F500

;Begin line
G00 X17.6477 Y79.8248 Z2    F2100
G01 X17.6477 Y79.8248 Z-0.5 F210
G01 X16.8804 Y77.9992 Z-0.5 F720
G01 X16.3512 Y76.5969 Z-0.5 F720
G01 X16.1131 Y75.9090 Z-0.5 F720
G01 X15.7427 Y74.5067 Z-0.5 F720
G01 X15.6104 Y73.8187 Z-0.5 F720
G01 X15.5046 Y73.1044 Z-0.5 F720
G01 X15.4252 Y72.4165 Z-0.5 F720
G01 X15.3723 Y71.0142 Z-0.5 F720
G01 X15.3723 Y70.3262 Z-0.5 F720
G01 X15.3987 Y69.6119 Z-0.5 F720
G01 X15.5046 Y68.2096 Z-0.5 F720
G01 X15.8221 Y65.4315 Z-0.5 F720
G01 X15.8750 Y64.7171 Z-0.5 F720
G01 X15.9544 Y64.0292 Z-0.5 F720
G01 X16.0073 Y63.3412 Z-0.5 F720
G01 X16.1131 Y61.9390 Z-0.5 F720
G01 X16.1925 Y59.8223 Z-0.5 F720
G01 X16.1925 Y59.1344 Z-0.5 F720
G01 X16.2190 Y58.7640 Z-0.5 F720
G00 X16.2190 Y58.7640 Z2    F500

;Begin line
G00 X17.3037 Y57.7321 Z2    F2100
G01 X17.3037 Y57.7321 Z-0.5 F210
G01 X17.3037 Y57.6527 Z-0.5 F720
G01 X17.2508 Y59.1344 Z-0.5 F720
G01 X17.1979 Y59.8223 Z-0.5 F720
G01 X17.1715 Y60.5367 Z-0.5 F720
G01 X17.0127 Y62.6269 Z-0.5 F720
G01 X16.9333 Y63.3412 Z-0.5 F720
G01 X16.8804 Y64.0292 Z-0.5 F720
G01 X16.5894 Y66.1194 Z-0.5 F720
G01 X16.2719 Y68.9240 Z-0.5 F720
G01 X16.2190 Y69.6119 Z-0.5 F720
G01 X16.1925 Y70.3262 Z-0.5 F720
G01 X16.1925 Y71.0142 Z-0.5 F720
G01 X16.2190 Y71.7021 Z-0.5 F720
G01 X16.2719 Y72.4165 Z-0.5 F720
G01 X16.3512 Y73.1044 Z-0.5 F720
G01 X16.4571 Y73.8187 Z-0.5 F720
G01 X16.6158 Y74.5067 Z-0.5 F720
G01 X16.8010 Y75.2210 Z-0.5 F720
G01 X17.0127 Y75.9090 Z-0.5 F720
G01 X17.2508 Y76.5969 Z-0.5 F720
G01 X17.5419 Y77.3112 Z-0.5 F720
G01 X18.1769 Y78.7135 Z-0.5 F720
G01 X19.2087 Y80.8037 Z-0.5 F720
G01 X19.6850 Y81.8621 Z-0.5 F720
G00 X19.6850 Y81.8621 Z2    F500

;Begin line
G00 X21.4577 Y83.6348 Z2    F2100
G01 X21.4577 Y83.6348 Z-0.5 F210
G01 X21.4312 Y83.6083 Z-0.5 F720
G01 X21.2460 Y82.8940 Z-0.5 F720
G01 X20.9815 Y82.2060 Z-0.5 F720
G01 X20.6640 Y81.4917 Z-0.5 F720
G01 X19.9231 Y80.0894 Z-0.5 F720
G01 X19.5262 Y79.4015 Z-0.5 F720
G01 X19.1558 Y78.7135 Z-0.5 F720
G01 X18.4679 Y77.3112 Z-0.5 F720
G01 X17.8858 Y75.9090 Z-0.5 F720
G01 X17.6477 Y75.2210 Z-0.5 F720
G01 X17.2773 Y73.8187 Z-0.5 F720
G01 X17.1715 Y73.1044 Z-0.5 F720
G01 X17.0921 Y72.4165 Z-0.5 F720
G01 X17.0392 Y71.7021 Z-0.5 F720
G01 X17.0127 Y71.0142 Z-0.5 F720
G01 X17.0127 Y70.3262 Z-0.5 F720
G01 X17.1185 Y68.9240 Z-0.5 F720
G01 X17.2773 Y67.5217 Z-0.5 F720
G01 X17.9123 Y63.3412 Z-0.5 F720
G01 X18.1504 Y61.2246 Z-0.5 F720
G01 X18.4150 Y57.7321 Z-0.5 F720
G01 X18.4679 Y56.4885 Z-0.5 F720
G00 X18.4679 Y56.4885 Z2    F500

;Begin line
G00 X22.7012 Y84.8783 Z2    F2100
G01 X22.7012 Y84.8783 Z-0.5 F210
G01 X22.6483 Y84.2962 Z-0.5 F720
G01 X22.5160 Y83.6083 Z-0.5 F720
G01 X22.3044 Y82.8940 Z-0.5 F720
G01 X22.0398 Y82.2060 Z-0.5 F720
G01 X21.7223 Y81.4917 Z-0.5 F720
G01 X21.3519 Y80.8037 Z-0.5 F720
G01 X20.5317 Y79.4015 Z-0.5 F720
G01 X20.1083 Y78.7135 Z-0.5 F720
G01 X19.3675 Y77.3112 Z-0.5 F720
G01 X18.7590 Y75.9090 Z-0.5 F720
G01 X18.4944 Y75.2210 Z-0.5 F720
G01 X18.2827 Y74.5067 Z-0.5 F720
G01 X18.1240 Y73.8187 Z-0.5 F720
G01 X17.9917 Y73.1044 Z-0.5 F720
G01 X17.9123 Y72.4165 Z-0.5 F720
G01 X17.8594 Y71.7021 Z-0.5 F720
G01 X17.8329 Y71.0142 Z-0.5 F720
G01 X17.8858 Y69.6119 Z-0.5 F720
G01 X18.0446 Y68.2096 Z-0.5 F720
G01 X18.1504 Y67.5217 Z-0.5 F720
G01 X18.2827 Y66.8337 Z-0.5 F720
G01 X18.3885 Y66.1194 Z-0.5 F720
G01 X18.7854 Y64.0292 Z-0.5 F720
G01 X19.1029 Y61.9390 Z-0.5 F720
G01 X19.4204 Y59.1344 Z-0.5 F720
G01 X19.5792 Y57.0442 Z-0.5 F720
G01 X19.6321 Y55.3508 Z-0.5 F720
G00 X19.6321 Y55.3508 Z2    F500

;Begin line
G00 X20.7698 Y54.2396 Z2    F2100
G01 X20.7698 Y54.2396 Z-0.5 F210
G01 X20.7698 Y54.1867 Z-0.5 F720
G01 X20.7962 Y54.9540 Z-0.5 F720
G01 X20.7962 Y55.6419 Z-0.5 F720
G01 X20.7433 Y57.0442 Z-0.5 F720
G01 X20.6375 Y58.4465 Z-0.5 F720
G01 X20.5581 Y59.1344 Z-0.5 F720
G01 X20.4523 Y59.8223 Z-0.5 F720
G01 X20.3729 Y60.5367 Z-0.5 F720
G01 X20.0290 Y62.6269 Z-0.5 F720
G01 X19.6321 Y64.7171 Z-0.5 F720
G01 X19.3146 Y66.1194 Z-0.5 F720
G01 X19.0500 Y67.5217 Z-0.5 F720
G01 X18.8383 Y68.9240 Z-0.5 F720
G01 X18.6796 Y70.3262 Z-0.5 F720
G01 X18.6796 Y71.7021 Z-0.5 F720
G01 X18.7325 Y72.4165 Z-0.5 F720
G01 X18.8119 Y73.1044 Z-0.5 F720
G01 X18.9442 Y73.8187 Z-0.5 F720
G01 X19.3410 Y75.2210 Z-0.5 F720
G01 X19.6056 Y75.9090 Z-0.5 F720
G01 X20.2671 Y77.3112 Z-0.5 F720
G01 X20.6375 Y77.9992 Z-0.5 F720
G01 X21.0344 Y78.7135 Z-0.5 F720
G01 X22.3044 Y80.8037 Z-0.5 F720
G01 X22.6748 Y81.4917 Z-0.5 F720
G01 X23.0187 Y82.2060 Z-0.5 F720
G01 X23.3098 Y82.8940 Z-0.5 F720
G01 X23.5215 Y83.6083 Z-0.5 F720
G01 X23.6802 Y84.2962 Z-0.5 F720
G01 X23.7596 Y84.9842 Z-0.5 F720
G01 X23.7331 Y85.6985 Z-0.5 F720
G01 X23.7067 Y85.8837 Z-0.5 F720
G00 X23.7067 Y85.8837 Z2    F500

;Begin line
G00 X24.5798 Y86.7569 Z2    F2100
G01 X24.5798 Y86.7569 Z-0.5 F210
G01 X24.6592 Y86.3865 Z-0.5 F720
G01 X24.7385 Y85.6985 Z-0.5 F720
G01 X24.7121 Y84.9842 Z-0.5 F720
G01 X24.6327 Y84.2962 Z-0.5 F720
G01 X24.4475 Y83.6083 Z-0.5 F720
G01 X24.2094 Y82.8940 Z-0.5 F720
G01 X23.9183 Y82.2060 Z-0.5 F720
G01 X23.5744 Y81.4917 Z-0.5 F720
G01 X22.8071 Y80.0894 Z-0.5 F720
G01 X22.3573 Y79.4015 Z-0.5 F720
G01 X21.9340 Y78.7135 Z-0.5 F720
G01 X21.1137 Y77.3112 Z-0.5 F720
G01 X20.4523 Y75.9090 Z-0.5 F720
G01 X20.1612 Y75.2210 Z-0.5 F720
G01 X19.7644 Y73.8187 Z-0.5 F720
G01 X19.6321 Y73.1044 Z-0.5 F720
G01 X19.5527 Y72.4165 Z-0.5 F720
G01 X19.4998 Y71.7021 Z-0.5 F720
G01 X19.4998 Y71.0142 Z-0.5 F720
G01 X19.5262 Y70.3262 Z-0.5 F720
G01 X19.6056 Y69.6119 Z-0.5 F720
G01 X19.8173 Y68.2096 Z-0.5 F720
G01 X19.9496 Y67.5217 Z-0.5 F720
G01 X20.2671 Y66.1194 Z-0.5 F720
G01 X20.4523 Y65.4315 Z-0.5 F720
G01 X21.0873 Y62.6269 Z-0.5 F720
G01 X21.4842 Y60.5367 Z-0.5 F720
G01 X21.8017 Y58.4465 Z-0.5 F720
G01 X21.8810 Y57.7321 Z-0.5 F720
G01 X21.9340 Y57.0442 Z-0.5 F720
G01 X21.9869 Y55.6419 Z-0.5 F720
G01 X21.9869 Y54.9540 Z-0.5 F720
G01 X21.9340 Y53.5517 Z-0.5 F720
G01 X21.8810 Y53.0754 Z-0.5 F720
G00 X21.8810 Y53.0754 Z2    F500

;Begin line
G00 X25.3471 Y87.5242 Z2    F2100
G01 X25.3471 Y87.5242 Z-0.5 F210
G01 X25.4794 Y87.1008 Z-0.5 F720
G01 X25.6117 Y86.3865 Z-0.5 F720
G01 X25.6381 Y85.6985 Z-0.5 F720
G01 X25.6117 Y84.9842 Z-0.5 F720
G01 X25.5058 Y84.2962 Z-0.5 F720
G01 X25.3206 Y83.6083 Z-0.5 F720
G01 X25.0825 Y82.8940 Z-0.5 F720
G01 X24.7915 Y82.2060 Z-0.5 F720
G01 X24.4210 Y81.4917 Z-0.5 F720
G01 X23.6537 Y80.0894 Z-0.5 F720
G01 X23.2040 Y79.4015 Z-0.5 F720
G01 X22.7806 Y78.7135 Z-0.5 F720
G01 X21.9604 Y77.3112 Z-0.5 F720
G01 X21.5900 Y76.5969 Z-0.5 F720
G01 X21.2725 Y75.9090 Z-0.5 F720
G01 X20.9815 Y75.2210 Z-0.5 F720
G01 X20.7433 Y74.5067 Z-0.5 F720
G01 X20.5846 Y73.8187 Z-0.5 F720
G01 X20.4523 Y73.1044 Z-0.5 F720
G01 X20.3729 Y72.4165 Z-0.5 F720
G01 X20.3200 Y71.7021 Z-0.5 F720
G01 X20.3465 Y71.0142 Z-0.5 F720
G01 X20.3994 Y70.3262 Z-0.5 F720
G01 X20.4787 Y69.6119 Z-0.5 F720
G01 X20.5846 Y68.9240 Z-0.5 F720
G01 X20.7169 Y68.2096 Z-0.5 F720
G01 X20.8756 Y67.5217 Z-0.5 F720
G01 X21.0608 Y66.8337 Z-0.5 F720
G01 X21.2196 Y66.1194 Z-0.5 F720
G01 X21.4312 Y65.4315 Z-0.5 F720
G01 X21.9869 Y63.3412 Z-0.5 F720
G01 X22.6219 Y60.5367 Z-0.5 F720
G01 X22.8865 Y59.1344 Z-0.5 F720
G01 X22.9923 Y58.4465 Z-0.5 F720
G01 X23.1510 Y57.0442 Z-0.5 F720
G01 X23.2040 Y55.6419 Z-0.5 F720
G01 X23.2040 Y54.9540 Z-0.5 F720
G01 X23.1775 Y54.2396 Z-0.5 F720
G01 X23.0717 Y52.8373 Z-0.5 F720
G01 X22.9923 Y52.1494 Z-0.5 F720
G01 X22.9923 Y51.9906 Z-0.5 F720
G00 X22.9923 Y51.9906 Z2    F500

;Begin line
G00 X26.0350 Y88.2121 Z2    F2100
G01 X26.0350 Y88.2121 Z-0.5 F210
G01 X26.1937 Y87.7887 Z-0.5 F720
G01 X26.3790 Y87.1008 Z-0.5 F720
G01 X26.4848 Y86.3865 Z-0.5 F720
G01 X26.5112 Y85.6985 Z-0.5 F720
G01 X26.4583 Y84.9842 Z-0.5 F720
G01 X26.3260 Y84.2962 Z-0.5 F720
G01 X26.1408 Y83.6083 Z-0.5 F720
G01 X25.9027 Y82.8940 Z-0.5 F720
G01 X25.2412 Y81.4917 Z-0.5 F720
G01 X24.8708 Y80.8037 Z-0.5 F720
G01 X23.6008 Y78.7135 Z-0.5 F720
G01 X22.7806 Y77.3112 Z-0.5 F720
G01 X22.0662 Y75.9090 Z-0.5 F720
G01 X21.7752 Y75.2210 Z-0.5 F720
G01 X21.3783 Y73.8187 Z-0.5 F720
G01 X21.2725 Y73.1044 Z-0.5 F720
G01 X21.1931 Y72.4165 Z-0.5 F720
G01 X21.1667 Y71.7021 Z-0.5 F720
G01 X21.1931 Y71.0142 Z-0.5 F720
G01 X21.2460 Y70.3262 Z-0.5 F720
G01 X21.3519 Y69.6119 Z-0.5 F720
G01 X21.4842 Y68.9240 Z-0.5 F720
G01 X21.8017 Y67.5217 Z-0.5 F720
G01 X22.0133 Y66.8337 Z-0.5 F720
G01 X22.1985 Y66.1194 Z-0.5 F720
G01 X23.0452 Y63.3412 Z-0.5 F720
G01 X23.7860 Y60.5367 Z-0.5 F720
G01 X24.1035 Y59.1344 Z-0.5 F720
G01 X24.3152 Y57.7321 Z-0.5 F720
G01 X24.4210 Y56.3298 Z-0.5 F720
G01 X24.4475 Y55.6419 Z-0.5 F720
G01 X24.3946 Y54.2396 Z-0.5 F720
G01 X24.2887 Y52.8373 Z-0.5 F720
G01 X24.1300 Y51.4350 Z-0.5 F720
G01 X24.0506 Y50.9058 Z-0.5 F720
G00 X24.0506 Y50.9058 Z2    F500

;Begin line
G00 X26.6700 Y88.8471 Z2    F2100
G01 X26.6700 Y88.8471 Z-0.5 F210
G01 X26.8287 Y88.4767 Z-0.5 F720
G01 X27.0404 Y87.7887 Z-0.5 F720
G01 X27.2256 Y87.1008 Z-0.5 F720
G01 X27.3050 Y86.3865 Z-0.5 F720
G01 X27.3050 Y85.6985 Z-0.5 F720
G01 X27.2521 Y84.9842 Z-0.5 F720
G01 X27.1198 Y84.2962 Z-0.5 F720
G01 X26.9346 Y83.6083 Z-0.5 F720
G01 X26.6700 Y82.8940 Z-0.5 F720
G01 X26.3790 Y82.2060 Z-0.5 F720
G01 X26.0350 Y81.4917 Z-0.5 F720
G01 X25.2412 Y80.0894 Z-0.5 F720
G01 X24.3946 Y78.7135 Z-0.5 F720
G01 X23.5744 Y77.3112 Z-0.5 F720
G01 X22.8600 Y75.9090 Z-0.5 F720
G01 X22.5690 Y75.2210 Z-0.5 F720
G01 X22.1721 Y73.8187 Z-0.5 F720
G01 X22.0662 Y73.1044 Z-0.5 F720
G01 X22.0133 Y72.4165 Z-0.5 F720
G01 X21.9869 Y71.7021 Z-0.5 F720
G01 X22.0927 Y70.3262 Z-0.5 F720
G01 X22.3573 Y68.9240 Z-0.5 F720
G01 X22.5425 Y68.2096 Z-0.5 F720
G01 X22.9658 Y66.8337 Z-0.5 F720
G01 X23.4156 Y65.4315 Z-0.5 F720
G01 X24.1300 Y63.3412 Z-0.5 F720
G01 X24.9767 Y60.5367 Z-0.5 F720
G01 X25.3206 Y59.1344 Z-0.5 F720
G01 X25.4529 Y58.4465 Z-0.5 F720
G01 X25.5587 Y57.7321 Z-0.5 F720
G01 X25.6646 Y56.3298 Z-0.5 F720
G01 X25.6910 Y55.6419 Z-0.5 F720
G01 X25.6381 Y54.2396 Z-0.5 F720
G01 X25.5852 Y53.5517 Z-0.5 F720
G01 X25.4265 Y52.1494 Z-0.5 F720
G01 X25.3206 Y51.4350 Z-0.5 F720
G01 X25.2412 Y50.7471 Z-0.5 F720
G01 X25.1090 Y49.8740 Z-0.5 F720
G00 X25.1090 Y49.8740 Z2    F500

;Begin line
G00 X27.2521 Y89.4292 Z2    F2100
G01 X27.2521 Y89.4292 Z-0.5 F210
G01 X27.3844 Y89.1910 Z-0.5 F720
G01 X27.6754 Y88.4767 Z-0.5 F720
G01 X27.8871 Y87.7887 Z-0.5 F720
G01 X28.0194 Y87.1008 Z-0.5 F720
G01 X28.0987 Y86.3865 Z-0.5 F720
G01 X28.0987 Y85.6985 Z-0.5 F720
G01 X28.0194 Y84.9842 Z-0.5 F720
G01 X27.8871 Y84.2962 Z-0.5 F720
G01 X27.7019 Y83.6083 Z-0.5 F720
G01 X27.4373 Y82.8940 Z-0.5 F720
G01 X27.1462 Y82.2060 Z-0.5 F720
G01 X26.8023 Y81.4917 Z-0.5 F720
G01 X26.4054 Y80.8037 Z-0.5 F720
G01 X26.0350 Y80.0894 Z-0.5 F720
G01 X25.1883 Y78.7135 Z-0.5 F720
G01 X24.3681 Y77.3112 Z-0.5 F720
G01 X23.9977 Y76.5969 Z-0.5 F720
G01 X23.6802 Y75.9090 Z-0.5 F720
G01 X23.3892 Y75.2210 Z-0.5 F720
G01 X23.1510 Y74.5067 Z-0.5 F720
G01 X22.9923 Y73.8187 Z-0.5 F720
G01 X22.8600 Y73.1044 Z-0.5 F720
G01 X22.8335 Y72.4165 Z-0.5 F720
G01 X22.8335 Y71.7021 Z-0.5 F720
G01 X22.8865 Y71.0142 Z-0.5 F720
G01 X22.9658 Y70.3262 Z-0.5 F720
G01 X23.0981 Y69.6119 Z-0.5 F720
G01 X23.4685 Y68.2096 Z-0.5 F720
G01 X24.1829 Y66.1194 Z-0.5 F720
G01 X24.9767 Y64.0292 Z-0.5 F720
G01 X25.2148 Y63.3412 Z-0.5 F720
G01 X25.7440 Y61.9390 Z-0.5 F720
G01 X25.9821 Y61.2246 Z-0.5 F720
G01 X26.1937 Y60.5367 Z-0.5 F720
G01 X26.5642 Y59.1344 Z-0.5 F720
G01 X26.6965 Y58.4465 Z-0.5 F720
G01 X26.8023 Y57.7321 Z-0.5 F720
G01 X26.8817 Y57.0442 Z-0.5 F720
G01 X26.9081 Y56.3298 Z-0.5 F720
G01 X26.9081 Y54.9540 Z-0.5 F720
G01 X26.8023 Y53.5517 Z-0.5 F720
G01 X26.5377 Y51.4350 Z-0.5 F720
G01 X26.4054 Y50.7471 Z-0.5 F720
G01 X26.1144 Y48.8421 Z-0.5 F720
G00 X26.1144 Y48.8421 Z2    F500

;Begin line
G00 X27.1198 Y47.9425 Z2    F2100
G01 X27.1198 Y47.9425 Z-0.5 F210
G01 X27.1198 Y47.8631 Z-0.5 F720
G01 X27.1198 Y47.9425 Z-0.5 F720
G01 X27.2256 Y48.6569 Z-0.5 F720
G01 X27.3579 Y49.3448 Z-0.5 F720
