;Generated with vpype gwrite fabian
G90 ; Use absolute position
G92 X0 Y0 Z0 ; Set the current position as (0,0,0)
G0   X000.0000   Y000.0000   Z003.0000   F500

;Begin Line: layer=0 line=0
G0   X027.1500   Y041.1907   Z003.0000   F2100
G0   X027.1500   Y041.1907   Z000.0000   F210
G0   X025.2157   Y043.1250   Z000.0000   F720
G0   X027.1500   Y045.0593   Z000.0000   F720
G0   X029.0843   Y043.1250   Z000.0000   F720
G0   X027.1500   Y041.1907   Z000.0000   F720
G0   X027.1500   Y041.1907   Z003.0000   F500

;Begin Line: layer=0 line=1
G0   X013.4000   Y044.9407   Z003.0000   F2100
G0   X013.4000   Y044.9407   Z000.0000   F210
G0   X014.0843   Y045.6250   Z000.0000   F720
G0   X013.4000   Y046.3093   Z000.0000   F720
G0   X012.7157   Y045.6250   Z000.0000   F720
G0   X013.4000   Y044.9407   Z000.0000   F720
G0   X013.4000   Y044.9407   Z003.0000   F500

;Begin Line: layer=0 line=2
G0   X012.1500   Y045.0593   Z003.0000   F2100
G0   X012.1500   Y045.0593   Z000.0000   F210
G0   X011.4657   Y044.3750   Z000.0000   F720
G0   X012.1500   Y043.6907   Z000.0000   F720
G0   X012.8343   Y044.3750   Z000.0000   F720
G0   X012.1500   Y045.0593   Z000.0000   F720
G0   X012.1500   Y045.0593   Z003.0000   F500

;Begin Line: layer=0 line=3
G0   X009.6500   Y043.6907   Z003.0000   F2100
G0   X009.6500   Y043.6907   Z000.0000   F210
G0   X011.5843   Y045.6250   Z000.0000   F720
G0   X009.6500   Y047.5593   Z000.0000   F720
G0   X007.7157   Y045.6250   Z000.0000   F720
G0   X009.6500   Y043.6907   Z000.0000   F720
G0   X009.6500   Y043.6907   Z003.0000   F500

;Begin Line: layer=0 line=4
G0   X007.7157   Y043.1250   Z003.0000   F2100
G0   X007.7157   Y043.1250   Z000.0000   F210
G0   X008.4000   Y042.4407   Z000.0000   F720
G0   X009.0843   Y043.1250   Z000.0000   F720
G0   X008.4000   Y043.8093   Z000.0000   F720
G0   X007.7157   Y043.1250   Z000.0000   F720
G0   X007.7157   Y043.1250   Z003.0000   F500

;Begin Line: layer=0 line=5
G0   X014.0843   Y048.1250   Z003.0000   F2100
G0   X014.0843   Y048.1250   Z000.0000   F210
G0   X012.1500   Y046.1907   Z000.0000   F720
G0   X010.2157   Y048.1250   Z000.0000   F720
G0   X012.1500   Y050.0594   Z000.0000   F720
G0   X014.0843   Y048.1250   Z000.0000   F720
G0   X014.0843   Y048.1250   Z003.0000   F500

;Begin Line: layer=0 line=6
G0   X017.1500   Y054.9179   Z003.0000   F2100
G0   X017.1500   Y054.9179   Z000.0000   F210
G0   X021.4429   Y050.6250   Z000.0000   F720
G0   X017.1500   Y046.3321   Z000.0000   F720
G0   X012.8571   Y050.6250   Z000.0000   F720
G0   X017.1500   Y054.9179   Z000.0000   F720
G0   X017.1500   Y054.9179   Z003.0000   F500

;Begin Line: layer=0 line=7
G0   X017.1500   Y055.0593   Z003.0000   F2100
G0   X017.1500   Y055.0593   Z000.0000   F210
G0   X021.5843   Y050.6250   Z000.0000   F720
G0   X017.1500   Y046.1907   Z000.0000   F720
G0   X012.7157   Y050.6250   Z000.0000   F720
G0   X017.1500   Y055.0593   Z000.0000   F720
G0   X017.1500   Y055.0593   Z003.0000   F500

;Begin Line: layer=0 line=8
G0   X017.8571   Y055.6250   Z003.0000   F2100
G0   X017.8571   Y055.6250   Z000.0000   F210
G0   X022.1500   Y059.9179   Z000.0000   F720
G0   X026.4429   Y055.6250   Z000.0000   F720
G0   X022.1500   Y051.3321   Z000.0000   F720
G0   X017.8571   Y055.6250   Z000.0000   F720
G0   X017.8571   Y055.6250   Z003.0000   F500

;Begin Line: layer=0 line=9
G0   X022.1500   Y051.1907   Z003.0000   F2100
G0   X022.1500   Y051.1907   Z000.0000   F210
G0   X017.7157   Y055.6250   Z000.0000   F720
G0   X022.1500   Y060.0593   Z000.0000   F720
G0   X026.5843   Y055.6250   Z000.0000   F720
G0   X022.1500   Y051.1907   Z000.0000   F720
G0   X022.1500   Y051.1907   Z003.0000   F500

;Begin Line: layer=0 line=10
G0   X024.0843   Y048.1250   Z003.0000   F2100
G0   X024.0843   Y048.1250   Z000.0000   F210
G0   X022.1500   Y046.1907   Z000.0000   F720
G0   X020.2157   Y048.1250   Z000.0000   F720
G0   X022.1500   Y050.0594   Z000.0000   F720
G0   X024.0843   Y048.1250   Z000.0000   F720
G0   X024.0843   Y048.1250   Z003.0000   F500

;Begin Line: layer=0 line=11
G0   X026.5843   Y045.6250   Z003.0000   F2100
G0   X026.5843   Y045.6250   Z000.0000   F210
G0   X024.6500   Y043.6907   Z000.0000   F720
G0   X022.7157   Y045.6250   Z000.0000   F720
G0   X024.6500   Y047.5593   Z000.0000   F720
G0   X026.5843   Y045.6250   Z000.0000   F720
G0   X026.5843   Y045.6250   Z003.0000   F500

;Begin Line: layer=0 line=12
G0   X027.1500   Y047.5593   Z003.0000   F2100
G0   X027.1500   Y047.5593   Z000.0000   F210
G0   X027.8343   Y046.8750   Z000.0000   F720
G0   X027.1500   Y046.1907   Z000.0000   F720
G0   X026.4657   Y046.8750   Z000.0000   F720
G0   X027.1500   Y047.5593   Z000.0000   F720
G0   X027.1500   Y047.5593   Z003.0000   F500

;Begin Line: layer=0 line=13
G0   X027.1500   Y051.1907   Z003.0000   F2100
G0   X027.1500   Y051.1907   Z000.0000   F210
G0   X025.2157   Y053.1250   Z000.0000   F720
G0   X027.1500   Y055.0593   Z000.0000   F720
G0   X029.0843   Y053.1250   Z000.0000   F720
G0   X027.1500   Y051.1907   Z000.0000   F720
G0   X027.1500   Y051.1907   Z003.0000   F500

;Begin Line: layer=0 line=14
G0   X030.9000   Y051.3094   Z003.0000   F2100
G0   X030.9000   Y051.3094   Z000.0000   F210
G0   X030.2157   Y050.6250   Z000.0000   F720
G0   X030.9000   Y049.9407   Z000.0000   F720
G0   X031.5843   Y050.6250   Z000.0000   F720
G0   X030.9000   Y051.3094   Z000.0000   F720
G0   X030.9000   Y051.3094   Z003.0000   F500

;Begin Line: layer=0 line=15
G0   X032.1500   Y051.1907   Z003.0000   F2100
G0   X032.1500   Y051.1907   Z000.0000   F210
G0   X036.5843   Y055.6250   Z000.0000   F720
G0   X032.1500   Y060.0593   Z000.0000   F720
G0   X027.7157   Y055.6250   Z000.0000   F720
G0   X032.1500   Y051.1907   Z000.0000   F720
G0   X032.1500   Y051.1907   Z003.0000   F500

;Begin Line: layer=0 line=16
G0   X029.6500   Y052.5593   Z003.0000   F2100
G0   X029.6500   Y052.5593   Z000.0000   F210
G0   X030.3343   Y051.8750   Z000.0000   F720
G0   X029.6500   Y051.1907   Z000.0000   F720
G0   X028.9657   Y051.8750   Z000.0000   F720
G0   X029.6500   Y052.5593   Z000.0000   F720
G0   X029.6500   Y052.5593   Z003.0000   F500

;Begin Line: layer=0 line=17
G0   X027.1500   Y056.1907   Z003.0000   F2100
G0   X027.1500   Y056.1907   Z000.0000   F210
G0   X022.7157   Y060.6250   Z000.0000   F720
G0   X027.1500   Y065.0594   Z000.0000   F720
G0   X031.5843   Y060.6250   Z000.0000   F720
G0   X027.1500   Y056.1907   Z000.0000   F720
G0   X027.1500   Y056.1907   Z003.0000   F500

;Begin Line: layer=0 line=18
G0   X022.8571   Y060.6250   Z003.0000   F2100
G0   X022.8571   Y060.6250   Z000.0000   F210
G0   X027.1500   Y064.9179   Z000.0000   F720
G0   X031.4429   Y060.6250   Z000.0000   F720
G0   X027.1500   Y056.3322   Z000.0000   F720
G0   X022.8571   Y060.6250   Z000.0000   F720
G0   X022.8571   Y060.6250   Z003.0000   F500

;Begin Line: layer=0 line=19
G0   X018.4000   Y073.8093   Z003.0000   F2100
G0   X018.4000   Y073.8093   Z000.0000   F210
G0   X019.0843   Y073.1251   Z000.0000   F720
G0   X018.4000   Y072.4407   Z000.0000   F720
G0   X017.7157   Y073.1251   Z000.0000   F720
G0   X018.4000   Y073.8093   Z000.0000   F720
G0   X018.4000   Y073.8093   Z003.0000   F500

;Begin Line: layer=0 line=20
G0   X019.6500   Y075.0593   Z003.0000   F2100
G0   X019.6500   Y075.0593   Z000.0000   F210
G0   X020.3343   Y074.3751   Z000.0000   F720
G0   X019.6500   Y073.6907   Z000.0000   F720
G0   X018.9657   Y074.3751   Z000.0000   F720
G0   X019.6500   Y075.0593   Z000.0000   F720
G0   X019.6500   Y075.0593   Z003.0000   F500

;Begin Line: layer=0 line=21
G0   X021.5843   Y075.6250   Z003.0000   F2100
G0   X021.5843   Y075.6250   Z000.0000   F210
G0   X020.9000   Y074.9407   Z000.0000   F720
G0   X020.2157   Y075.6250   Z000.0000   F720
G0   X020.9000   Y076.3094   Z000.0000   F720
G0   X021.5843   Y075.6250   Z000.0000   F720
G0   X021.5843   Y075.6250   Z003.0000   F500

;Begin Line: layer=0 line=22
G0   X022.1500   Y076.1907   Z003.0000   F2100
G0   X022.1500   Y076.1907   Z000.0000   F210
G0   X020.2157   Y078.1250   Z000.0000   F720
G0   X022.1500   Y080.0594   Z000.0000   F720
G0   X024.0843   Y078.1250   Z000.0000   F720
G0   X022.1500   Y076.1907   Z000.0000   F720
G0   X022.1500   Y076.1907   Z003.0000   F500

;Begin Line: layer=0 line=23
G0   X025.3343   Y076.8750   Z003.0000   F2100
G0   X025.3343   Y076.8750   Z000.0000   F210
G0   X024.6500   Y076.1907   Z000.0000   F720
G0   X023.9657   Y076.8750   Z000.0000   F720
G0   X024.6500   Y077.5594   Z000.0000   F720
G0   X025.3343   Y076.8750   Z000.0000   F720
G0   X025.3343   Y076.8750   Z003.0000   F500

;Begin Line: layer=0 line=24
G0   X027.1500   Y080.0594   Z003.0000   F2100
G0   X027.1500   Y080.0594   Z000.0000   F210
G0   X029.0843   Y078.1250   Z000.0000   F720
G0   X027.1500   Y076.1907   Z000.0000   F720
G0   X025.2157   Y078.1250   Z000.0000   F720
G0   X027.1500   Y080.0594   Z000.0000   F720
G0   X027.1500   Y080.0594   Z003.0000   F500

;Begin Line: layer=0 line=25
G0   X024.6500   Y082.5594   Z003.0000   F2100
G0   X024.6500   Y082.5594   Z000.0000   F210
G0   X026.5843   Y080.6250   Z000.0000   F720
G0   X024.6500   Y078.6907   Z000.0000   F720
G0   X022.7157   Y080.6250   Z000.0000   F720
G0   X024.6500   Y082.5594   Z000.0000   F720
G0   X024.6500   Y082.5594   Z003.0000   F500

;Begin Line: layer=0 line=26
G0   X020.3343   Y081.8750   Z003.0000   F2100
G0   X020.3343   Y081.8750   Z000.0000   F210
G0   X019.6500   Y081.1907   Z000.0000   F720
G0   X018.9657   Y081.8750   Z000.0000   F720
G0   X019.6500   Y082.5594   Z000.0000   F720
G0   X020.3343   Y081.8750   Z000.0000   F720
G0   X020.3343   Y081.8750   Z003.0000   F500

;Begin Line: layer=0 line=27
G0   X017.7157   Y080.6250   Z003.0000   F2100
G0   X017.7157   Y080.6250   Z000.0000   F210
G0   X018.4000   Y081.3094   Z000.0000   F720
G0   X019.0843   Y080.6250   Z000.0000   F720
G0   X018.4000   Y079.9407   Z000.0000   F720
G0   X017.7157   Y080.6250   Z000.0000   F720
G0   X017.7157   Y080.6250   Z003.0000   F500

;Begin Line: layer=0 line=28
G0   X018.4000   Y082.4407   Z003.0000   F2100
G0   X018.4000   Y082.4407   Z000.0000   F210
G0   X017.7157   Y083.1250   Z000.0000   F720
G0   X018.4000   Y083.8094   Z000.0000   F720
G0   X019.0843   Y083.1250   Z000.0000   F720
G0   X018.4000   Y082.4407   Z000.0000   F720
G0   X018.4000   Y082.4407   Z003.0000   F500

;Begin Line: layer=0 line=29
G0   X017.7157   Y085.6250   Z003.0000   F2100
G0   X017.7157   Y085.6250   Z000.0000   F210
G0   X018.4000   Y086.3094   Z000.0000   F720
G0   X019.0843   Y085.6250   Z000.0000   F720
G0   X018.4000   Y084.9407   Z000.0000   F720
G0   X017.7157   Y085.6250   Z000.0000   F720
G0   X017.7157   Y085.6250   Z003.0000   F500

;Begin Line: layer=0 line=30
G0   X019.6500   Y085.0594   Z003.0000   F2100
G0   X019.6500   Y085.0594   Z000.0000   F210
G0   X020.3343   Y084.3750   Z000.0000   F720
G0   X019.6500   Y083.6907   Z000.0000   F720
G0   X018.9657   Y084.3750   Z000.0000   F720
G0   X019.6500   Y085.0594   Z000.0000   F720
G0   X019.6500   Y085.0594   Z003.0000   F500

;Begin Line: layer=0 line=31
G0   X022.1500   Y085.0594   Z003.0000   F2100
G0   X022.1500   Y085.0594   Z000.0000   F210
G0   X020.2157   Y083.1250   Z000.0000   F720
G0   X022.1500   Y081.1907   Z000.0000   F720
G0   X024.0843   Y083.1250   Z000.0000   F720
G0   X022.1500   Y085.0594   Z000.0000   F720
G0   X022.1500   Y085.0594   Z003.0000   F500

;Begin Line: layer=0 line=32
G0   X022.7157   Y085.6250   Z003.0000   F2100
G0   X022.7157   Y085.6250   Z000.0000   F210
G0   X024.6500   Y083.6907   Z000.0000   F720
G0   X026.5843   Y085.6250   Z000.0000   F720
G0   X024.6500   Y087.5594   Z000.0000   F720
G0   X022.7157   Y085.6250   Z000.0000   F720
G0   X022.7157   Y085.6250   Z003.0000   F500

;Begin Line: layer=0 line=33
G0   X020.9000   Y086.3094   Z003.0000   F2100
G0   X020.9000   Y086.3094   Z000.0000   F210
G0   X021.5843   Y085.6250   Z000.0000   F720
G0   X020.9000   Y084.9407   Z000.0000   F720
G0   X020.2157   Y085.6250   Z000.0000   F720
G0   X020.9000   Y086.3094   Z000.0000   F720
G0   X020.9000   Y086.3094   Z003.0000   F500

;Begin Line: layer=0 line=34
G0   X019.6500   Y087.5594   Z003.0000   F2100
G0   X019.6500   Y087.5594   Z000.0000   F210
G0   X020.3343   Y086.8751   Z000.0000   F720
G0   X019.6500   Y086.1907   Z000.0000   F720
G0   X018.9657   Y086.8751   Z000.0000   F720
G0   X019.6500   Y087.5594   Z000.0000   F720
G0   X019.6500   Y087.5594   Z003.0000   F500

;Begin Line: layer=0 line=35
G0   X022.1500   Y090.0594   Z003.0000   F2100
G0   X022.1500   Y090.0594   Z000.0000   F210
G0   X024.0843   Y088.1251   Z000.0000   F720
G0   X022.1500   Y086.1907   Z000.0000   F720
G0   X020.2157   Y088.1251   Z000.0000   F720
G0   X022.1500   Y090.0594   Z000.0000   F720
G0   X022.1500   Y090.0594   Z003.0000   F500

;Begin Line: layer=0 line=36
G0   X019.6500   Y092.5594   Z003.0000   F2100
G0   X019.6500   Y092.5594   Z000.0000   F210
G0   X021.5843   Y090.6251   Z000.0000   F720
G0   X019.6500   Y088.6907   Z000.0000   F720
G0   X017.7157   Y090.6251   Z000.0000   F720
G0   X019.6500   Y092.5594   Z000.0000   F720
G0   X019.6500   Y092.5594   Z003.0000   F500

;Begin Line: layer=0 line=37
G0   X028.4000   Y108.8094   Z003.0000   F2100
G0   X028.4000   Y108.8094   Z000.0000   F210
G0   X029.0843   Y108.1251   Z000.0000   F720
G0   X028.4000   Y107.4407   Z000.0000   F720
G0   X027.7157   Y108.1251   Z000.0000   F720
G0   X028.4000   Y108.8094   Z000.0000   F720
G0   X028.4000   Y108.8094   Z003.0000   F500

;Begin Line: layer=0 line=38
G0   X030.3343   Y106.8751   Z003.0000   F2100
G0   X030.3343   Y106.8751   Z000.0000   F210
G0   X029.6500   Y106.1907   Z000.0000   F720
G0   X028.9657   Y106.8751   Z000.0000   F720
G0   X029.6500   Y107.5594   Z000.0000   F720
G0   X030.3343   Y106.8751   Z000.0000   F720
G0   X030.3343   Y106.8751   Z003.0000   F500

;Begin Line: layer=0 line=39
G0   X030.2157   Y105.6251   Z003.0000   F2100
G0   X030.2157   Y105.6251   Z000.0000   F210
G0   X030.9000   Y106.3094   Z000.0000   F720
G0   X031.5843   Y105.6251   Z000.0000   F720
G0   X030.9000   Y104.9407   Z000.0000   F720
G0   X030.2157   Y105.6251   Z000.0000   F720
G0   X030.2157   Y105.6251   Z003.0000   F500

;Begin Line: layer=0 line=40
G0   X034.0843   Y103.1251   Z003.0000   F2100
G0   X034.0843   Y103.1251   Z000.0000   F210
G0   X032.1500   Y101.1907   Z000.0000   F720
G0   X030.2157   Y103.1251   Z000.0000   F720
G0   X032.1500   Y105.0594   Z000.0000   F720
G0   X034.0843   Y103.1251   Z000.0000   F720
G0   X034.0843   Y103.1251   Z003.0000   F500

;Begin Line: layer=0 line=41
G0   X034.6500   Y103.6907   Z003.0000   F2100
G0   X034.6500   Y103.6907   Z000.0000   F210
G0   X033.9657   Y104.3751   Z000.0000   F720
G0   X034.6500   Y105.0594   Z000.0000   F720
G0   X035.3343   Y104.3751   Z000.0000   F720
G0   X034.6500   Y103.6907   Z000.0000   F720
G0   X034.6500   Y103.6907   Z003.0000   F500

;Begin Line: layer=0 line=42
G0   X035.9000   Y104.9407   Z003.0000   F2100
G0   X035.9000   Y104.9407   Z000.0000   F210
G0   X035.2157   Y105.6251   Z000.0000   F720
G0   X035.9000   Y106.3094   Z000.0000   F720
G0   X036.5843   Y105.6251   Z000.0000   F720
G0   X035.9000   Y104.9407   Z000.0000   F720
G0   X035.9000   Y104.9407   Z003.0000   F500

;Begin Line: layer=0 line=43
G0   X037.1500   Y105.0594   Z003.0000   F2100
G0   X037.1500   Y105.0594   Z000.0000   F210
G0   X041.5843   Y100.6251   Z000.0000   F720
G0   X037.1500   Y096.1907   Z000.0000   F720
G0   X032.7157   Y100.6251   Z000.0000   F720
G0   X037.1500   Y105.0594   Z000.0000   F720
G0   X037.1500   Y105.0594   Z003.0000   F500

;Begin Line: layer=0 line=44
G0   X041.4429   Y100.6251   Z003.0000   F2100
G0   X041.4429   Y100.6251   Z000.0000   F210
G0   X037.1500   Y096.3322   Z000.0000   F720
G0   X032.8571   Y100.6251   Z000.0000   F720
G0   X037.1500   Y104.9180   Z000.0000   F720
G0   X041.4429   Y100.6251   Z000.0000   F720
