;Generated with vpype gwrite fabian
G90 ; Use absolute position
G92 X0 Y0 Z0 ; Set the current position as (0,0,0)
G0   X000.0000   Y000.0000   Z003.0000   F500

;Begin Line: layer=0 line=0
G0   X087.7750   Y130.0594   Z003.0000   F2100
G0   X087.7750   Y130.0594   Z000.0000   F210
G0   X088.4594   Y129.3751   Z000.0000   F720
G0   X087.7750   Y128.6908   Z000.0000   F720
G0   X087.0907   Y129.3751   Z000.0000   F720
G0   X087.7750   Y130.0594   Z000.0000   F720
G0   X087.7750   Y130.0594   Z003.0000   F500

;Begin Line: layer=0 line=1
G0   X095.8407   Y128.1251   Z003.0000   F2100
G0   X095.8407   Y128.1251   Z000.0000   F210
G0   X096.5251   Y128.8094   Z000.0000   F720
G0   X097.2094   Y128.1251   Z000.0000   F720
G0   X096.5251   Y127.4408   Z000.0000   F720
G0   X095.8407   Y128.1251   Z000.0000   F720
G0   X095.8407   Y128.1251   Z003.0000   F500

;Begin Line: layer=0 line=2
G0   X094.5907   Y126.8751   Z003.0000   F2100
G0   X094.5907   Y126.8751   Z000.0000   F210
G0   X095.2751   Y127.5594   Z000.0000   F720
G0   X095.9594   Y126.8751   Z000.0000   F720
G0   X095.2751   Y126.1908   Z000.0000   F720
G0   X094.5907   Y126.8751   Z000.0000   F720
G0   X094.5907   Y126.8751   Z003.0000   F500

;Begin Line: layer=0 line=3
G0   X094.0251   Y126.3094   Z003.0000   F2100
G0   X094.0251   Y126.3094   Z000.0000   F210
G0   X094.7094   Y125.6251   Z000.0000   F720
G0   X094.0251   Y124.9408   Z000.0000   F720
G0   X093.3407   Y125.6251   Z000.0000   F720
G0   X094.0251   Y126.3094   Z000.0000   F720
G0   X094.0251   Y126.3094   Z003.0000   F500

;Begin Line: layer=0 line=4
G0   X090.9594   Y126.8751   Z003.0000   F2100
G0   X090.9594   Y126.8751   Z000.0000   F210
G0   X089.0250   Y124.9408   Z000.0000   F720
G0   X087.0907   Y126.8751   Z000.0000   F720
G0   X089.0250   Y128.8094   Z000.0000   F720
G0   X090.9594   Y126.8751   Z000.0000   F720
G0   X090.9594   Y126.8751   Z003.0000   F500

;Begin Line: layer=0 line=5
G0   X089.5907   Y124.3751   Z003.0000   F2100
G0   X089.5907   Y124.3751   Z000.0000   F210
G0   X091.5251   Y126.3094   Z000.0000   F720
G0   X093.4594   Y124.3751   Z000.0000   F720
G0   X091.5251   Y122.4407   Z000.0000   F720
G0   X089.5907   Y124.3751   Z000.0000   F720
G0   X089.5907   Y124.3751   Z003.0000   F500

;Begin Line: layer=0 line=6
G0   X090.9594   Y121.8751   Z003.0000   F2100
G0   X090.9594   Y121.8751   Z000.0000   F210
G0   X086.5250   Y117.4407   Z000.0000   F720
G0   X082.0907   Y121.8751   Z000.0000   F720
G0   X086.5250   Y126.3094   Z000.0000   F720
G0   X090.9594   Y121.8751   Z000.0000   F720
G0   X090.9594   Y121.8751   Z003.0000   F500

;Begin Line: layer=0 line=7
G0   X090.8179   Y121.8751   Z003.0000   F2100
G0   X090.8179   Y121.8751   Z000.0000   F210
G0   X086.5250   Y117.5822   Z000.0000   F720
G0   X082.2321   Y121.8751   Z000.0000   F720
G0   X086.5250   Y126.1680   Z000.0000   F720
G0   X090.8179   Y121.8751   Z000.0000   F720
G0   X090.8179   Y121.8751   Z003.0000   F500

;Begin Line: layer=0 line=8
G0   X085.8179   Y116.8751   Z003.0000   F2100
G0   X085.8179   Y116.8751   Z000.0000   F210
G0   X081.5250   Y112.5822   Z000.0000   F720
G0   X077.2322   Y116.8751   Z000.0000   F720
G0   X081.5250   Y121.1680   Z000.0000   F720
G0   X085.8179   Y116.8751   Z000.0000   F720
G0   X085.8179   Y116.8751   Z003.0000   F500

;Begin Line: layer=0 line=9
G0   X081.5250   Y112.4408   Z003.0000   F2100
G0   X081.5250   Y112.4408   Z000.0000   F210
G0   X077.0907   Y116.8751   Z000.0000   F720
G0   X081.5250   Y121.3094   Z000.0000   F720
G0   X085.9594   Y116.8751   Z000.0000   F720
G0   X081.5250   Y112.4408   Z000.0000   F720
G0   X081.5250   Y112.4408   Z003.0000   F500

;Begin Line: layer=0 line=10
G0   X080.5351   Y111.8750   Z003.0000   F2100
G0   X080.5351   Y111.8750   Z000.0000   F210
G0   X071.5250   Y102.8650   Z000.0000   F720
G0   X062.5150   Y111.8750   Z000.0000   F720
G0   X071.5250   Y120.8851   Z000.0000   F720
G0   X080.5351   Y111.8750   Z000.0000   F720
G0   X080.5351   Y111.8750   Z003.0000   F500

;Begin Line: layer=0 line=11
G0   X071.5250   Y121.0265   Z003.0000   F2100
G0   X071.5250   Y121.0265   Z000.0000   F210
G0   X080.6765   Y111.8750   Z000.0000   F720
G0   X071.5250   Y102.7236   Z000.0000   F720
G0   X062.3736   Y111.8750   Z000.0000   F720
G0   X071.5250   Y121.0265   Z000.0000   F720
G0   X071.5250   Y121.0265   Z003.0000   F500

;Begin Line: layer=0 line=12
G0   X056.5250   Y132.4408   Z003.0000   F2100
G0   X056.5250   Y132.4408   Z000.0000   F210
G0   X058.4593   Y134.3751   Z000.0000   F720
G0   X056.5250   Y136.3094   Z000.0000   F720
G0   X054.5907   Y134.3751   Z000.0000   F720
G0   X056.5250   Y132.4408   Z000.0000   F720
G0   X056.5250   Y132.4408   Z003.0000   F500

;Begin Line: layer=0 line=13
G0   X056.5250   Y137.5822   Z003.0000   F2100
G0   X056.5250   Y137.5822   Z000.0000   F210
G0   X060.8179   Y141.8751   Z000.0000   F720
G0   X056.5250   Y146.1680   Z000.0000   F720
G0   X052.2321   Y141.8751   Z000.0000   F720
G0   X056.5250   Y137.5822   Z000.0000   F720
G0   X056.5250   Y137.5822   Z003.0000   F500

;Begin Line: layer=0 line=14
G0   X056.5250   Y146.3094   Z003.0000   F2100
G0   X056.5250   Y146.3094   Z000.0000   F210
G0   X052.0907   Y141.8751   Z000.0000   F720
G0   X056.5250   Y137.4408   Z000.0000   F720
G0   X060.9593   Y141.8751   Z000.0000   F720
G0   X056.5250   Y146.3094   Z000.0000   F720
G0   X056.5250   Y146.3094   Z003.0000   F500

;Begin Line: layer=0 line=15
G0   X051.5250   Y132.5822   Z003.0000   F2100
G0   X051.5250   Y132.5822   Z000.0000   F210
G0   X055.8179   Y136.8751   Z000.0000   F720
G0   X051.5250   Y141.1680   Z000.0000   F720
G0   X047.2321   Y136.8751   Z000.0000   F720
G0   X051.5250   Y132.5822   Z000.0000   F720
G0   X051.5250   Y132.5822   Z003.0000   F500

;Begin Line: layer=0 line=16
G0   X050.8179   Y131.8751   Z003.0000   F2100
G0   X050.8179   Y131.8751   Z000.0000   F210
G0   X046.5250   Y136.1680   Z000.0000   F720
G0   X042.2321   Y131.8751   Z000.0000   F720
G0   X046.5250   Y127.5822   Z000.0000   F720
G0   X050.8179   Y131.8751   Z000.0000   F720
G0   X050.8179   Y131.8751   Z003.0000   F500

;Begin Line: layer=0 line=17
G0   X047.0907   Y136.8751   Z003.0000   F2100
G0   X047.0907   Y136.8751   Z000.0000   F210
G0   X051.5250   Y141.3094   Z000.0000   F720
G0   X055.9594   Y136.8751   Z000.0000   F720
G0   X051.5250   Y132.4408   Z000.0000   F720
G0   X047.0907   Y136.8751   Z000.0000   F720
G0   X047.0907   Y136.8751   Z003.0000   F500

;Begin Line: layer=0 line=18
G0   X041.5250   Y131.3094   Z003.0000   F2100
G0   X041.5250   Y131.3094   Z000.0000   F210
G0   X045.9593   Y126.8751   Z000.0000   F720
G0   X041.5250   Y122.4407   Z000.0000   F720
G0   X037.0907   Y126.8751   Z000.0000   F720
G0   X041.5250   Y131.3094   Z000.0000   F720
G0   X041.5250   Y131.3094   Z003.0000   F500

;Begin Line: layer=0 line=19
G0   X041.5250   Y131.1680   Z003.0000   F2100
G0   X041.5250   Y131.1680   Z000.0000   F210
G0   X045.8179   Y126.8751   Z000.0000   F720
G0   X041.5250   Y122.5822   Z000.0000   F720
G0   X037.2321   Y126.8751   Z000.0000   F720
G0   X041.5250   Y131.1680   Z000.0000   F720
G0   X041.5250   Y131.1680   Z003.0000   F500

;Begin Line: layer=0 line=20
G0   X034.0250   Y124.9408   Z003.0000   F2100
G0   X034.0250   Y124.9408   Z000.0000   F210
G0   X035.9593   Y126.8751   Z000.0000   F720
G0   X034.0250   Y128.8094   Z000.0000   F720
G0   X032.0907   Y126.8751   Z000.0000   F720
G0   X034.0250   Y124.9408   Z000.0000   F720
G0   X034.0250   Y124.9408   Z003.0000   F500

;Begin Line: layer=0 line=21
G0   X030.2750   Y126.1908   Z003.0000   F2100
G0   X030.2750   Y126.1908   Z000.0000   F210
G0   X030.9593   Y126.8751   Z000.0000   F720
G0   X030.2750   Y127.5594   Z000.0000   F720
G0   X029.5907   Y126.8751   Z000.0000   F720
G0   X030.2750   Y126.1908   Z000.0000   F720
G0   X030.2750   Y126.1908   Z003.0000   F500

;Begin Line: layer=0 line=22
G0   X031.5250   Y127.4408   Z003.0000   F2100
G0   X031.5250   Y127.4408   Z000.0000   F210
G0   X033.4593   Y129.3751   Z000.0000   F720
G0   X031.5250   Y131.3094   Z000.0000   F720
G0   X029.5907   Y129.3751   Z000.0000   F720
G0   X031.5250   Y127.4408   Z000.0000   F720
G0   X031.5250   Y127.4408   Z003.0000   F500

;Begin Line: layer=0 line=23
G0   X029.7093   Y130.6251   Z003.0000   F2100
G0   X029.7093   Y130.6251   Z000.0000   F210
G0   X029.0250   Y131.3094   Z000.0000   F720
G0   X028.3407   Y130.6251   Z000.0000   F720
G0   X029.0250   Y129.9408   Z000.0000   F720
G0   X029.7093   Y130.6251   Z000.0000   F720
G0   X029.7093   Y130.6251   Z003.0000   F500

;Begin Line: layer=0 line=24
G0   X027.7750   Y131.1908   Z003.0000   F2100
G0   X027.7750   Y131.1908   Z000.0000   F210
G0   X028.4593   Y131.8751   Z000.0000   F720
G0   X027.7750   Y132.5594   Z000.0000   F720
G0   X027.0907   Y131.8751   Z000.0000   F720
G0   X027.7750   Y131.1908   Z000.0000   F720
G0   X027.7750   Y131.1908   Z003.0000   F500

;Begin Line: layer=0 line=25
G0   X025.8407   Y125.6251   Z003.0000   F2100
G0   X025.8407   Y125.6251   Z000.0000   F210
G0   X026.5250   Y124.9408   Z000.0000   F720
G0   X027.2093   Y125.6251   Z000.0000   F720
G0   X026.5250   Y126.3094   Z000.0000   F720
G0   X025.8407   Y125.6251   Z000.0000   F720
G0   X025.8407   Y125.6251   Z003.0000   F500

;Begin Line: layer=0 line=26
G0   X027.7750   Y125.0594   Z003.0000   F2100
G0   X027.7750   Y125.0594   Z000.0000   F210
G0   X027.0907   Y124.3751   Z000.0000   F720
G0   X027.7750   Y123.6908   Z000.0000   F720
G0   X028.4593   Y124.3751   Z000.0000   F720
G0   X027.7750   Y125.0594   Z000.0000   F720
G0   X027.7750   Y125.0594   Z003.0000   F500

;Begin Line: layer=0 line=27
G0   X028.3407   Y125.6251   Z003.0000   F2100
G0   X028.3407   Y125.6251   Z000.0000   F210
G0   X029.0250   Y124.9408   Z000.0000   F720
G0   X029.7093   Y125.6251   Z000.0000   F720
G0   X029.0250   Y126.3094   Z000.0000   F720
G0   X028.3407   Y125.6251   Z000.0000   F720
G0   X028.3407   Y125.6251   Z003.0000   F500

;Begin Line: layer=0 line=28
G0   X029.0250   Y123.8094   Z003.0000   F2100
G0   X029.0250   Y123.8094   Z000.0000   F210
G0   X030.9593   Y121.8751   Z000.0000   F720
G0   X029.0250   Y119.9407   Z000.0000   F720
G0   X027.0907   Y121.8751   Z000.0000   F720
G0   X029.0250   Y123.8094   Z000.0000   F720
G0   X029.0250   Y123.8094   Z003.0000   F500

;Begin Line: layer=0 line=29
G0   X031.5250   Y121.3094   Z003.0000   F2100
G0   X031.5250   Y121.3094   Z000.0000   F210
G0   X033.4593   Y119.3751   Z000.0000   F720
G0   X031.5250   Y117.4407   Z000.0000   F720
G0   X029.5907   Y119.3751   Z000.0000   F720
G0   X031.5250   Y121.3094   Z000.0000   F720
G0   X031.5250   Y121.3094   Z003.0000   F500

;Begin Line: layer=0 line=30
G0   X029.0250   Y117.4407   Z003.0000   F2100
G0   X029.0250   Y117.4407   Z000.0000   F210
G0   X029.7093   Y118.1251   Z000.0000   F720
G0   X029.0250   Y118.8094   Z000.0000   F720
G0   X028.3407   Y118.1251   Z000.0000   F720
G0   X029.0250   Y117.4407   Z000.0000   F720
G0   X029.0250   Y117.4407   Z003.0000   F500

;Begin Line: layer=0 line=31
G0   X027.7750   Y117.5594   Z003.0000   F2100
G0   X027.7750   Y117.5594   Z000.0000   F210
G0   X027.0907   Y116.8751   Z000.0000   F720
G0   X027.7750   Y116.1907   Z000.0000   F720
G0   X028.4593   Y116.8751   Z000.0000   F720
G0   X027.7750   Y117.5594   Z000.0000   F720
G0   X027.7750   Y117.5594   Z003.0000   F500

;Begin Line: layer=0 line=32
G0   X030.2750   Y113.6908   Z003.0000   F2100
G0   X030.2750   Y113.6908   Z000.0000   F210
G0   X029.5907   Y114.3751   Z000.0000   F720
G0   X030.2750   Y115.0594   Z000.0000   F720
G0   X030.9593   Y114.3751   Z000.0000   F720
G0   X030.2750   Y113.6908   Z000.0000   F720
G0   X030.2750   Y113.6908   Z003.0000   F500

;Begin Line: layer=0 line=33
G0   X031.5250   Y113.8094   Z003.0000   F2100
G0   X031.5250   Y113.8094   Z000.0000   F210
G0   X030.8407   Y113.1251   Z000.0000   F720
G0   X031.5250   Y112.4408   Z000.0000   F720
G0   X032.2093   Y113.1251   Z000.0000   F720
G0   X031.5250   Y113.8094   Z000.0000   F720
G0   X031.5250   Y113.8094   Z003.0000   F500

;Begin Line: layer=0 line=34
G0   X032.0907   Y114.3751   Z003.0000   F2100
G0   X032.0907   Y114.3751   Z000.0000   F210
G0   X032.7750   Y113.6908   Z000.0000   F720
G0   X033.4593   Y114.3751   Z000.0000   F720
G0   X032.7750   Y115.0594   Z000.0000   F720
G0   X032.0907   Y114.3751   Z000.0000   F720
G0   X032.0907   Y114.3751   Z003.0000   F500

;Begin Line: layer=0 line=35
G0   X032.7750   Y112.5594   Z003.0000   F2100
G0   X032.7750   Y112.5594   Z000.0000   F210
G0   X033.4593   Y111.8750   Z000.0000   F720
G0   X032.7750   Y111.1908   Z000.0000   F720
G0   X032.0907   Y111.8750   Z000.0000   F720
G0   X032.7750   Y112.5594   Z000.0000   F720
G0   X032.7750   Y112.5594   Z003.0000   F500

;Begin Line: layer=0 line=36
G0   X034.5907   Y111.8750   Z003.0000   F2100
G0   X034.5907   Y111.8750   Z000.0000   F210
G0   X035.2750   Y112.5594   Z000.0000   F720
G0   X035.9593   Y111.8750   Z000.0000   F720
G0   X035.2750   Y111.1908   Z000.0000   F720
G0   X034.5907   Y111.8750   Z000.0000   F720
G0   X034.5907   Y111.8750   Z003.0000   F500

;Begin Line: layer=0 line=37
G0   X034.7093   Y113.1251   Z003.0000   F2100
G0   X034.7093   Y113.1251   Z000.0000   F210
G0   X034.0250   Y112.4408   Z000.0000   F720
G0   X033.3407   Y113.1251   Z000.0000   F720
G0   X034.0250   Y113.8094   Z000.0000   F720
G0   X034.7093   Y113.1251   Z000.0000   F720
G0   X034.7093   Y113.1251   Z003.0000   F500

;Begin Line: layer=0 line=38
G0   X034.7093   Y115.6251   Z003.0000   F2100
G0   X034.7093   Y115.6251   Z000.0000   F210
G0   X034.0250   Y114.9408   Z000.0000   F720
G0   X033.3407   Y115.6251   Z000.0000   F720
G0   X034.0250   Y116.3094   Z000.0000   F720
G0   X034.7093   Y115.6251   Z000.0000   F720
G0   X034.7093   Y115.6251   Z003.0000   F500

;Begin Line: layer=0 line=39
G0   X036.5250   Y117.5822   Z003.0000   F2100
G0   X036.5250   Y117.5822   Z000.0000   F210
G0   X032.2321   Y121.8751   Z000.0000   F720
G0   X036.5250   Y126.1680   Z000.0000   F720
G0   X040.8179   Y121.8751   Z000.0000   F720
G0   X036.5250   Y117.5822   Z000.0000   F720
G0   X036.5250   Y117.5822   Z003.0000   F500

;Begin Line: layer=0 line=40
G0   X040.9593   Y121.8751   Z003.0000   F2100
G0   X040.9593   Y121.8751   Z000.0000   F210
G0   X036.5250   Y117.4407   Z000.0000   F720
G0   X032.0907   Y121.8751   Z000.0000   F720
G0   X036.5250   Y126.3094   Z000.0000   F720
G0   X040.9593   Y121.8751   Z000.0000   F720
G0   X040.9593   Y121.8751   Z003.0000   F500

;Begin Line: layer=0 line=41
G0   X041.5250   Y121.1680   Z003.0000   F2100
G0   X041.5250   Y121.1680   Z000.0000   F210
G0   X045.8179   Y116.8751   Z000.0000   F720
G0   X041.5250   Y112.5822   Z000.0000   F720
G0   X037.2321   Y116.8751   Z000.0000   F720
G0   X041.5250   Y121.1680   Z000.0000   F720
G0   X041.5250   Y121.1680   Z003.0000   F500

;Begin Line: layer=0 line=42
G0   X043.4593   Y121.8751   Z003.0000   F2100
G0   X043.4593   Y121.8751   Z000.0000   F210
G0   X042.7750   Y122.5594   Z000.0000   F720
G0   X042.0907   Y121.8751   Z000.0000   F720
G0   X042.7750   Y121.1907   Z000.0000   F720
G0   X043.4593   Y121.8751   Z000.0000   F720
G0   X043.4593   Y121.8751   Z003.0000   F500

;Begin Line: layer=0 line=43
G0   X045.2750   Y122.5594   Z003.0000   F2100
G0   X045.2750   Y122.5594   Z000.0000   F210
G0   X044.5907   Y121.8751   Z000.0000   F720
G0   X045.2750   Y121.1907   Z000.0000   F720
G0   X045.9593   Y121.8751   Z000.0000   F720
G0   X045.2750   Y122.5594   Z000.0000   F720
G0   X045.2750   Y122.5594   Z003.0000   F500

;Begin Line: layer=0 line=44
G0   X044.0250   Y123.8094   Z003.0000   F2100
G0   X044.0250   Y123.8094   Z000.0000   F210
G0   X043.3407   Y123.1251   Z000.0000   F720
G0   X044.0250   Y122.4407   Z000.0000   F720
G0   X044.7093   Y123.1251   Z000.0000   F720
G0   X044.0250   Y123.8094   Z000.0000   F720
