;Generated with vpype gwrite fabian
G90 ; Use absolute position
G92 X0 Y0 Z0 ; Set the current position as (0,0,0)
G0   X000.0000   Y000.0000   Z003.0000   F500

;Begin Line: layer=0 line=0
G0   X100.1501   Y093.8094   Z003.0000   F2100
G0   X100.1501   Y093.8094   Z000.0000   F210
G0   X101.5844   Y092.3751   Z000.0000   F720
G0   X100.1501   Y090.9407   Z000.0000   F720
G0   X098.7158   Y092.3751   Z000.0000   F720
G0   X100.1501   Y093.8094   Z000.0000   F720
G0   X100.1501   Y093.8094   Z003.0000   F500

;Begin Line: layer=0 line=1
G0   X098.1500   Y091.8094   Z003.0000   F2100
G0   X098.1500   Y091.8094   Z000.0000   F210
G0   X101.5844   Y088.3750   Z000.0000   F720
G0   X098.1500   Y084.9407   Z000.0000   F720
G0   X094.7157   Y088.3750   Z000.0000   F720
G0   X098.1500   Y091.8094   Z000.0000   F720
G0   X098.1500   Y091.8094   Z003.0000   F500

;Begin Line: layer=0 line=2
G0   X102.1500   Y087.8094   Z003.0000   F2100
G0   X102.1500   Y087.8094   Z000.0000   F210
G0   X105.5844   Y084.3750   Z000.0000   F720
G0   X102.1500   Y080.9407   Z000.0000   F720
G0   X098.7158   Y084.3750   Z000.0000   F720
G0   X102.1500   Y087.8094   Z000.0000   F720
G0   X102.1500   Y087.8094   Z003.0000   F500

;Begin Line: layer=0 line=3
G0   X102.1500   Y081.0539   Z003.0000   F2100
G0   X102.1500   Y081.0539   Z000.0000   F210
G0   X098.8289   Y084.3750   Z000.0000   F720
G0   X102.1500   Y087.6962   Z000.0000   F720
G0   X105.4712   Y084.3750   Z000.0000   F720
G0   X102.1500   Y081.0539   Z000.0000   F720
G0   X102.1500   Y081.0539   Z003.0000   F500

;Begin Line: layer=0 line=4
G0   X098.1500   Y083.8094   Z003.0000   F2100
G0   X098.1500   Y083.8094   Z000.0000   F210
G0   X096.7157   Y082.3750   Z000.0000   F720
G0   X098.1500   Y080.9407   Z000.0000   F720
G0   X099.5844   Y082.3750   Z000.0000   F720
G0   X098.1500   Y083.8094   Z000.0000   F720
G0   X098.1500   Y083.8094   Z003.0000   F500

;Begin Line: layer=0 line=5
G0   X097.4712   Y084.3750   Z003.0000   F2100
G0   X097.4712   Y084.3750   Z000.0000   F210
G0   X094.1500   Y087.6962   Z000.0000   F720
G0   X090.8289   Y084.3750   Z000.0000   F720
G0   X094.1500   Y081.0539   Z000.0000   F720
G0   X097.4712   Y084.3750   Z000.0000   F720
G0   X097.4712   Y084.3750   Z003.0000   F500

;Begin Line: layer=0 line=6
G0   X096.1501   Y081.8094   Z003.0000   F2100
G0   X096.1501   Y081.8094   Z000.0000   F210
G0   X094.7157   Y080.3750   Z000.0000   F720
G0   X096.1501   Y078.9407   Z000.0000   F720
G0   X097.5844   Y080.3750   Z000.0000   F720
G0   X096.1501   Y081.8094   Z000.0000   F720
G0   X096.1501   Y081.8094   Z003.0000   F500

;Begin Line: layer=0 line=7
G0   X097.1501   Y078.8094   Z003.0000   F2100
G0   X097.1501   Y078.8094   Z000.0000   F210
G0   X096.7157   Y078.3750   Z000.0000   F720
G0   X097.1501   Y077.9407   Z000.0000   F720
G0   X097.5844   Y078.3750   Z000.0000   F720
G0   X097.1501   Y078.8094   Z000.0000   F720
G0   X097.1501   Y078.8094   Z003.0000   F500

;Begin Line: layer=0 line=8
G0   X095.5844   Y078.3750   Z003.0000   F2100
G0   X095.5844   Y078.3750   Z000.0000   F210
G0   X094.1500   Y079.8094   Z000.0000   F720
G0   X092.7157   Y078.3750   Z000.0000   F720
G0   X094.1500   Y076.9407   Z000.0000   F720
G0   X095.5844   Y078.3750   Z000.0000   F720
G0   X095.5844   Y078.3750   Z003.0000   F500

;Begin Line: layer=0 line=9
G0   X096.1501   Y076.9407   Z003.0000   F2100
G0   X096.1501   Y076.9407   Z000.0000   F210
G0   X096.5844   Y077.3750   Z000.0000   F720
G0   X096.1501   Y077.8093   Z000.0000   F720
G0   X095.7157   Y077.3750   Z000.0000   F720
G0   X096.1501   Y076.9407   Z000.0000   F720
G0   X096.1501   Y076.9407   Z003.0000   F500

;Begin Line: layer=0 line=10
G0   X095.7157   Y075.3750   Z003.0000   F2100
G0   X095.7157   Y075.3750   Z000.0000   F210
G0   X096.1501   Y075.8094   Z000.0000   F720
G0   X096.5844   Y075.3750   Z000.0000   F720
G0   X096.1501   Y074.9407   Z000.0000   F720
G0   X095.7157   Y075.3750   Z000.0000   F720
G0   X095.7157   Y075.3750   Z003.0000   F500

;Begin Line: layer=0 line=11
G0   X095.1500   Y075.9407   Z003.0000   F2100
G0   X095.1500   Y075.9407   Z000.0000   F210
G0   X094.7157   Y076.3750   Z000.0000   F720
G0   X095.1500   Y076.8094   Z000.0000   F720
G0   X095.5844   Y076.3750   Z000.0000   F720
G0   X095.1500   Y075.9407   Z000.0000   F720
G0   X095.1500   Y075.9407   Z003.0000   F500

;Begin Line: layer=0 line=12
G0   X094.1500   Y074.9407   Z003.0000   F2100
G0   X094.1500   Y074.9407   Z000.0000   F210
G0   X094.5844   Y075.3750   Z000.0000   F720
G0   X094.1500   Y075.8094   Z000.0000   F720
G0   X093.7157   Y075.3750   Z000.0000   F720
G0   X094.1500   Y074.9407   Z000.0000   F720
G0   X094.1500   Y074.9407   Z003.0000   F500

;Begin Line: layer=0 line=13
G0   X091.5844   Y074.3751   Z003.0000   F2100
G0   X091.5844   Y074.3751   Z000.0000   F210
G0   X090.1500   Y075.8094   Z000.0000   F720
G0   X088.7157   Y074.3751   Z000.0000   F720
G0   X090.1500   Y072.9407   Z000.0000   F720
G0   X091.5844   Y074.3751   Z000.0000   F720
G0   X091.5844   Y074.3751   Z003.0000   F500

;Begin Line: layer=0 line=14
G0   X091.1500   Y072.8094   Z003.0000   F2100
G0   X091.1500   Y072.8094   Z000.0000   F210
G0   X090.7157   Y072.3750   Z000.0000   F720
G0   X091.1500   Y071.9407   Z000.0000   F720
G0   X091.5844   Y072.3750   Z000.0000   F720
G0   X091.1500   Y072.8094   Z000.0000   F720
G0   X091.1500   Y072.8094   Z003.0000   F500

;Begin Line: layer=0 line=15
G0   X089.1501   Y072.8094   Z003.0000   F2100
G0   X089.1501   Y072.8094   Z000.0000   F210
G0   X088.7157   Y072.3750   Z000.0000   F720
G0   X089.1501   Y071.9407   Z000.0000   F720
G0   X089.5844   Y072.3750   Z000.0000   F720
G0   X089.1501   Y072.8094   Z000.0000   F720
G0   X089.1501   Y072.8094   Z003.0000   F500

;Begin Line: layer=0 line=16
G0   X086.1500   Y072.9407   Z003.0000   F2100
G0   X086.1500   Y072.9407   Z000.0000   F210
G0   X089.5844   Y076.3750   Z000.0000   F720
G0   X086.1500   Y079.8094   Z000.0000   F720
G0   X082.7157   Y076.3750   Z000.0000   F720
G0   X086.1500   Y072.9407   Z000.0000   F720
G0   X086.1500   Y072.9407   Z003.0000   F500

;Begin Line: layer=0 line=17
G0   X082.5844   Y071.3750   Z003.0000   F2100
G0   X082.5844   Y071.3750   Z000.0000   F210
G0   X082.1500   Y070.9407   Z000.0000   F720
G0   X081.7157   Y071.3750   Z000.0000   F720
G0   X082.1500   Y071.8094   Z000.0000   F720
G0   X082.5844   Y071.3750   Z000.0000   F720
G0   X082.5844   Y071.3750   Z003.0000   F500

;Begin Line: layer=0 line=18
G0   X082.1500   Y072.9407   Z003.0000   F2100
G0   X082.1500   Y072.9407   Z000.0000   F210
G0   X081.7157   Y073.3750   Z000.0000   F720
G0   X082.1500   Y073.8093   Z000.0000   F720
G0   X082.5844   Y073.3750   Z000.0000   F720
G0   X082.1500   Y072.9407   Z000.0000   F720
G0   X082.1500   Y072.9407   Z003.0000   F500

;Begin Line: layer=0 line=19
G0   X084.1500   Y073.8093   Z003.0000   F2100
G0   X084.1500   Y073.8093   Z000.0000   F210
G0   X085.5844   Y072.3750   Z000.0000   F720
G0   X084.1500   Y070.9407   Z000.0000   F720
G0   X082.7157   Y072.3750   Z000.0000   F720
G0   X084.1500   Y073.8093   Z000.0000   F720
G0   X084.1500   Y073.8093   Z003.0000   F500

;Begin Line: layer=0 line=20
G0   X082.8289   Y076.3750   Z003.0000   F2100
G0   X082.8289   Y076.3750   Z000.0000   F210
G0   X086.1500   Y073.0539   Z000.0000   F720
G0   X089.4712   Y076.3750   Z000.0000   F720
G0   X086.1500   Y079.6962   Z000.0000   F720
G0   X082.8289   Y076.3750   Z000.0000   F720
G0   X082.8289   Y076.3750   Z003.0000   F500

;Begin Line: layer=0 line=21
G0   X090.1500   Y077.0539   Z003.0000   F2100
G0   X090.1500   Y077.0539   Z000.0000   F210
G0   X093.4712   Y080.3750   Z000.0000   F720
G0   X090.1500   Y083.6962   Z000.0000   F720
G0   X086.8289   Y080.3750   Z000.0000   F720
G0   X090.1500   Y077.0539   Z000.0000   F720
G0   X090.1500   Y077.0539   Z003.0000   F500

;Begin Line: layer=0 line=22
G0   X094.1500   Y080.9407   Z003.0000   F2100
G0   X094.1500   Y080.9407   Z000.0000   F210
G0   X090.7157   Y084.3750   Z000.0000   F720
G0   X094.1500   Y087.8094   Z000.0000   F720
G0   X097.5844   Y084.3750   Z000.0000   F720
G0   X094.1500   Y080.9407   Z000.0000   F720
G0   X094.1500   Y080.9407   Z003.0000   F500

;Begin Line: layer=0 line=23
G0   X089.5844   Y084.3750   Z003.0000   F2100
G0   X089.5844   Y084.3750   Z000.0000   F210
G0   X086.1500   Y080.9407   Z000.0000   F720
G0   X082.7157   Y084.3750   Z000.0000   F720
G0   X086.1500   Y087.8094   Z000.0000   F720
G0   X089.5844   Y084.3750   Z000.0000   F720
G0   X089.5844   Y084.3750   Z003.0000   F500

;Begin Line: layer=0 line=24
G0   X086.7157   Y080.3750   Z003.0000   F2100
G0   X086.7157   Y080.3750   Z000.0000   F210
G0   X090.1500   Y083.8094   Z000.0000   F720
G0   X093.5844   Y080.3750   Z000.0000   F720
G0   X090.1500   Y076.9407   Z000.0000   F720
G0   X086.7157   Y080.3750   Z000.0000   F720
G0   X086.7157   Y080.3750   Z003.0000   F500

;Begin Line: layer=0 line=25
G0   X086.1500   Y081.0539   Z003.0000   F2100
G0   X086.1500   Y081.0539   Z000.0000   F210
G0   X082.8289   Y084.3750   Z000.0000   F720
G0   X086.1500   Y087.6962   Z000.0000   F720
G0   X089.4712   Y084.3750   Z000.0000   F720
G0   X086.1500   Y081.0539   Z000.0000   F720
G0   X086.1500   Y081.0539   Z003.0000   F500

;Begin Line: layer=0 line=26
G0   X082.1500   Y083.6962   Z003.0000   F2100
G0   X082.1500   Y083.6962   Z000.0000   F210
G0   X085.4712   Y080.3750   Z000.0000   F720
G0   X082.1500   Y077.0539   Z000.0000   F720
G0   X078.8289   Y080.3750   Z000.0000   F720
G0   X082.1500   Y083.6962   Z000.0000   F720
G0   X082.1500   Y083.6962   Z003.0000   F500

;Begin Line: layer=0 line=27
G0   X082.1500   Y083.8094   Z003.0000   F2100
G0   X082.1500   Y083.8094   Z000.0000   F210
G0   X085.5844   Y080.3750   Z000.0000   F720
G0   X082.1500   Y076.9407   Z000.0000   F720
G0   X078.7157   Y080.3750   Z000.0000   F720
G0   X082.1500   Y083.8094   Z000.0000   F720
G0   X082.1500   Y083.8094   Z003.0000   F500

;Begin Line: layer=0 line=28
G0   X082.1500   Y085.0539   Z003.0000   F2100
G0   X082.1500   Y085.0539   Z000.0000   F210
G0   X085.4712   Y088.3750   Z000.0000   F720
G0   X082.1500   Y091.6962   Z000.0000   F720
G0   X078.8289   Y088.3750   Z000.0000   F720
G0   X082.1500   Y085.0539   Z000.0000   F720
G0   X082.1500   Y085.0539   Z003.0000   F500

;Begin Line: layer=0 line=29
G0   X078.7157   Y088.3750   Z003.0000   F2100
G0   X078.7157   Y088.3750   Z000.0000   F210
G0   X082.1500   Y084.9407   Z000.0000   F720
G0   X085.5844   Y088.3750   Z000.0000   F720
G0   X082.1500   Y091.8094   Z000.0000   F720
G0   X078.7157   Y088.3750   Z000.0000   F720
G0   X078.7157   Y088.3750   Z003.0000   F500

;Begin Line: layer=0 line=30
G0   X078.1500   Y087.6962   Z003.0000   F2100
G0   X078.1500   Y087.6962   Z000.0000   F210
G0   X074.8289   Y084.3750   Z000.0000   F720
G0   X078.1500   Y081.0539   Z000.0000   F720
G0   X081.4712   Y084.3750   Z000.0000   F720
G0   X078.1500   Y087.6962   Z000.0000   F720
G0   X078.1500   Y087.6962   Z003.0000   F500

;Begin Line: layer=0 line=31
G0   X074.7157   Y084.3750   Z003.0000   F2100
G0   X074.7157   Y084.3750   Z000.0000   F210
G0   X078.1500   Y080.9407   Z000.0000   F720
G0   X081.5844   Y084.3750   Z000.0000   F720
G0   X078.1500   Y087.8094   Z000.0000   F720
G0   X074.7157   Y084.3750   Z000.0000   F720
G0   X074.7157   Y084.3750   Z003.0000   F500

;Begin Line: layer=0 line=32
G0   X073.3581   Y084.3750   Z003.0000   F2100
G0   X073.3581   Y084.3750   Z000.0000   F210
G0   X066.1500   Y077.1670   Z000.0000   F720
G0   X058.9420   Y084.3750   Z000.0000   F720
G0   X066.1500   Y091.5831   Z000.0000   F720
G0   X073.3581   Y084.3750   Z000.0000   F720
G0   X073.3581   Y084.3750   Z003.0000   F500

;Begin Line: layer=0 line=33
G0   X074.1500   Y085.0539   Z003.0000   F2100
G0   X074.1500   Y085.0539   Z000.0000   F210
G0   X066.8289   Y092.3751   Z000.0000   F720
G0   X074.1500   Y099.6962   Z000.0000   F720
G0   X081.4712   Y092.3751   Z000.0000   F720
G0   X074.1500   Y085.0539   Z000.0000   F720
G0   X074.1500   Y085.0539   Z003.0000   F500

;Begin Line: layer=0 line=34
G0   X073.5843   Y100.3751   Z003.0000   F2100
G0   X073.5843   Y100.3751   Z000.0000   F210
G0   X066.1500   Y092.9407   Z000.0000   F720
G0   X058.7157   Y100.3751   Z000.0000   F720
G0   X066.1500   Y107.8094   Z000.0000   F720
G0   X073.5843   Y100.3751   Z000.0000   F720
G0   X073.5843   Y100.3751   Z003.0000   F500

;Begin Line: layer=0 line=35
G0   X074.1500   Y101.1670   Z003.0000   F2100
G0   X074.1500   Y101.1670   Z000.0000   F210
G0   X066.9420   Y108.3751   Z000.0000   F720
G0   X074.1500   Y115.5831   Z000.0000   F720
G0   X081.3581   Y108.3751   Z000.0000   F720
G0   X074.1500   Y101.1670   Z000.0000   F720
G0   X074.1500   Y101.1670   Z003.0000   F500

;Begin Line: layer=0 line=36
G0   X076.1500   Y098.9407   Z003.0000   F2100
G0   X076.1500   Y098.9407   Z000.0000   F210
G0   X077.5844   Y100.3751   Z000.0000   F720
G0   X076.1500   Y101.8094   Z000.0000   F720
G0   X074.7157   Y100.3751   Z000.0000   F720
G0   X076.1500   Y098.9407   Z000.0000   F720
G0   X076.1500   Y098.9407   Z003.0000   F500

;Begin Line: layer=0 line=37
G0   X079.1500   Y098.8094   Z003.0000   F2100
G0   X079.1500   Y098.8094   Z000.0000   F210
G0   X078.7157   Y098.3750   Z000.0000   F720
G0   X079.1500   Y097.9407   Z000.0000   F720
G0   X079.5844   Y098.3750   Z000.0000   F720
G0   X079.1500   Y098.8094   Z000.0000   F720
G0   X079.1500   Y098.8094   Z003.0000   F500

;Begin Line: layer=0 line=38
G0   X080.1500   Y098.9407   Z003.0000   F2100
G0   X080.1500   Y098.9407   Z000.0000   F210
G0   X081.5844   Y100.3751   Z000.0000   F720
G0   X080.1500   Y101.8094   Z000.0000   F720
G0   X078.7157   Y100.3751   Z000.0000   F720
G0   X080.1500   Y098.9407   Z000.0000   F720
G0   X080.1500   Y098.9407   Z003.0000   F500

;Begin Line: layer=0 line=39
G0   X078.8289   Y096.3751   Z003.0000   F2100
G0   X078.8289   Y096.3751   Z000.0000   F210
G0   X082.1500   Y093.0539   Z000.0000   F720
G0   X085.4712   Y096.3751   Z000.0000   F720
G0   X082.1500   Y099.6962   Z000.0000   F720
G0   X078.8289   Y096.3751   Z000.0000   F720
G0   X078.8289   Y096.3751   Z003.0000   F500

;Begin Line: layer=0 line=40
G0   X081.5844   Y092.3751   Z003.0000   F2100
G0   X081.5844   Y092.3751   Z000.0000   F210
G0   X074.1500   Y099.8094   Z000.0000   F720
G0   X066.7157   Y092.3751   Z000.0000   F720
G0   X074.1500   Y084.9407   Z000.0000   F720
G0   X081.5844   Y092.3751   Z000.0000   F720
G0   X081.5844   Y092.3751   Z003.0000   F500

;Begin Line: layer=0 line=41
G0   X084.1500   Y093.8094   Z003.0000   F2100
G0   X084.1500   Y093.8094   Z000.0000   F210
G0   X082.7157   Y092.3751   Z000.0000   F720
G0   X084.1500   Y090.9407   Z000.0000   F720
G0   X085.5844   Y092.3751   Z000.0000   F720
G0   X084.1500   Y093.8094   Z000.0000   F720
G0   X084.1500   Y093.8094   Z003.0000   F500

;Begin Line: layer=0 line=42
G0   X085.1501   Y093.9407   Z003.0000   F2100
G0   X085.1501   Y093.9407   Z000.0000   F210
G0   X085.5844   Y094.3750   Z000.0000   F720
G0   X085.1501   Y094.8094   Z000.0000   F720
G0   X084.7157   Y094.3750   Z000.0000   F720
G0   X085.1501   Y093.9407   Z000.0000   F720
G0   X085.1501   Y093.9407   Z003.0000   F500

;Begin Line: layer=0 line=43
G0   X086.7157   Y092.3751   Z003.0000   F2100
G0   X086.7157   Y092.3751   Z000.0000   F210
G0   X088.1501   Y093.8094   Z000.0000   F720
G0   X089.5844   Y092.3751   Z000.0000   F720
G0   X088.1501   Y090.9407   Z000.0000   F720
G0   X086.7157   Y092.3751   Z000.0000   F720
G0   X086.7157   Y092.3751   Z003.0000   F500

;Begin Line: layer=0 line=44
G0   X090.1500   Y091.6962   Z003.0000   F2100
G0   X090.1500   Y091.6962   Z000.0000   F210
G0   X093.4712   Y088.3750   Z000.0000   F720
G0   X090.1500   Y085.0539   Z000.0000   F720
G0   X086.8289   Y088.3750   Z000.0000   F720
G0   X090.1500   Y091.6962   Z000.0000   F720
