;Generated with vpype gwrite fabian
G90 ; Use absolute position
G92 X0 Y0 Z0 ; Set the current position as (0,0,0)
G0   X000.0000   Y000.0000   Z003.0000   F500

;Begin Line: layer=0 line=0
G0   X048.2125   Y041.6597   Z003.0000   F2100
G0   X048.2125   Y041.6597   Z000.0000   F210
G0   X048.8097   Y041.0625   Z000.0000   F720
G0   X048.2125   Y040.4653   Z000.0000   F720
G0   X047.6153   Y041.0625   Z000.0000   F720
G0   X048.2125   Y041.6597   Z000.0000   F720
G0   X048.2125   Y041.6597   Z003.0000   F500

;Begin Line: layer=0 line=1
G0   X048.2125   Y041.6597   Z003.0000   F2100
G0   X048.2125   Y041.6597   Z000.0000   F210
G0   X048.8097   Y041.0625   Z000.0000   F720
G0   X048.2125   Y040.4653   Z000.0000   F720
G0   X047.6153   Y041.0625   Z000.0000   F720
G0   X048.2125   Y041.6597   Z000.0000   F720
G0   X048.2125   Y041.6597   Z003.0000   F500

;Begin Line: layer=0 line=2
G0   X046.8375   Y043.0347   Z003.0000   F2100
G0   X046.8375   Y043.0347   Z000.0000   F210
G0   X046.2404   Y042.4375   Z000.0000   F720
G0   X046.8375   Y041.8403   Z000.0000   F720
G0   X047.4347   Y042.4375   Z000.0000   F720
G0   X046.8375   Y043.0347   Z000.0000   F720
G0   X046.8375   Y043.0347   Z003.0000   F500

;Begin Line: layer=0 line=3
G0   X046.2404   Y042.4375   Z003.0000   F2100
G0   X046.2404   Y042.4375   Z000.0000   F210
G0   X046.8375   Y041.8403   Z000.0000   F720
G0   X047.4347   Y042.4375   Z000.0000   F720
G0   X046.8375   Y043.0347   Z000.0000   F720
G0   X046.2404   Y042.4375   Z000.0000   F720
G0   X046.2404   Y042.4375   Z003.0000   F500

;Begin Line: layer=0 line=4
G0   X044.8653   Y041.0625   Z003.0000   F2100
G0   X044.8653   Y041.0625   Z000.0000   F210
G0   X045.4625   Y040.4653   Z000.0000   F720
G0   X046.0597   Y041.0625   Z000.0000   F720
G0   X045.4625   Y041.6597   Z000.0000   F720
G0   X044.8653   Y041.0625   Z000.0000   F720
G0   X044.8653   Y041.0625   Z003.0000   F500

;Begin Line: layer=0 line=5
G0   X043.4904   Y042.4375   Z003.0000   F2100
G0   X043.4904   Y042.4375   Z000.0000   F210
G0   X044.0875   Y041.8403   Z000.0000   F720
G0   X044.6847   Y042.4375   Z000.0000   F720
G0   X044.0875   Y043.0347   Z000.0000   F720
G0   X043.4904   Y042.4375   Z000.0000   F720
G0   X043.4904   Y042.4375   Z003.0000   F500

;Begin Line: layer=0 line=6
G0   X043.4904   Y042.4375   Z003.0000   F2100
G0   X043.4904   Y042.4375   Z000.0000   F210
G0   X044.0875   Y041.8403   Z000.0000   F720
G0   X044.6847   Y042.4375   Z000.0000   F720
G0   X044.0875   Y043.0347   Z000.0000   F720
G0   X043.4904   Y042.4375   Z000.0000   F720
G0   X043.4904   Y042.4375   Z003.0000   F500

;Begin Line: layer=0 line=7
G0   X037.8097   Y041.0625   Z003.0000   F2100
G0   X037.8097   Y041.0625   Z000.0000   F210
G0   X037.2125   Y040.4653   Z000.0000   F720
G0   X036.6153   Y041.0625   Z000.0000   F720
G0   X037.2125   Y041.6597   Z000.0000   F720
G0   X037.8097   Y041.0625   Z000.0000   F720
G0   X037.8097   Y041.0625   Z003.0000   F500

;Begin Line: layer=0 line=8
G0   X039.1847   Y042.4375   Z003.0000   F2100
G0   X039.1847   Y042.4375   Z000.0000   F210
G0   X038.5875   Y041.8403   Z000.0000   F720
G0   X037.9904   Y042.4375   Z000.0000   F720
G0   X038.5875   Y043.0347   Z000.0000   F720
G0   X039.1847   Y042.4375   Z000.0000   F720
G0   X039.1847   Y042.4375   Z003.0000   F500

;Begin Line: layer=0 line=9
G0   X039.9625   Y044.4097   Z003.0000   F2100
G0   X039.9625   Y044.4097   Z000.0000   F210
G0   X040.5597   Y043.8125   Z000.0000   F720
G0   X039.9625   Y043.2153   Z000.0000   F720
G0   X039.3653   Y043.8125   Z000.0000   F720
G0   X039.9625   Y044.4097   Z000.0000   F720
G0   X039.9625   Y044.4097   Z003.0000   F500

;Begin Line: layer=0 line=10
G0   X042.1153   Y043.8125   Z003.0000   F2100
G0   X042.1153   Y043.8125   Z000.0000   F210
G0   X042.7125   Y044.4097   Z000.0000   F720
G0   X043.3097   Y043.8125   Z000.0000   F720
G0   X042.7125   Y043.2153   Z000.0000   F720
G0   X042.1153   Y043.8125   Z000.0000   F720
G0   X042.1153   Y043.8125   Z003.0000   F500

;Begin Line: layer=0 line=11
G0   X044.0875   Y044.5903   Z003.0000   F2100
G0   X044.0875   Y044.5903   Z000.0000   F210
G0   X044.6847   Y045.1875   Z000.0000   F720
G0   X044.0875   Y045.7847   Z000.0000   F720
G0   X043.4904   Y045.1875   Z000.0000   F720
G0   X044.0875   Y044.5903   Z000.0000   F720
G0   X044.0875   Y044.5903   Z003.0000   F500

;Begin Line: layer=0 line=12
G0   X044.0875   Y044.5903   Z003.0000   F2100
G0   X044.0875   Y044.5903   Z000.0000   F210
G0   X044.6847   Y045.1875   Z000.0000   F720
G0   X044.0875   Y045.7847   Z000.0000   F720
G0   X043.4904   Y045.1875   Z000.0000   F720
G0   X044.0875   Y044.5903   Z000.0000   F720
G0   X044.0875   Y044.5903   Z003.0000   F500

;Begin Line: layer=0 line=13
G0   X045.4625   Y044.4097   Z003.0000   F2100
G0   X045.4625   Y044.4097   Z000.0000   F210
G0   X044.8653   Y043.8125   Z000.0000   F720
G0   X045.4625   Y043.2153   Z000.0000   F720
G0   X046.0597   Y043.8125   Z000.0000   F720
G0   X045.4625   Y044.4097   Z000.0000   F720
G0   X045.4625   Y044.4097   Z003.0000   F500

;Begin Line: layer=0 line=14
G0   X046.2404   Y045.1875   Z003.0000   F2100
G0   X046.2404   Y045.1875   Z000.0000   F210
G0   X046.8375   Y044.5903   Z000.0000   F720
G0   X047.4347   Y045.1875   Z000.0000   F720
G0   X046.8375   Y045.7847   Z000.0000   F720
G0   X046.2404   Y045.1875   Z000.0000   F720
G0   X046.2404   Y045.1875   Z003.0000   F500

;Begin Line: layer=0 line=15
G0   X047.4347   Y045.1875   Z003.0000   F2100
G0   X047.4347   Y045.1875   Z000.0000   F210
G0   X046.8375   Y045.7847   Z000.0000   F720
G0   X046.2404   Y045.1875   Z000.0000   F720
G0   X046.8375   Y044.5903   Z000.0000   F720
G0   X047.4347   Y045.1875   Z000.0000   F720
G0   X047.4347   Y045.1875   Z003.0000   F500

;Begin Line: layer=0 line=16
G0   X048.2125   Y044.4097   Z003.0000   F2100
G0   X048.2125   Y044.4097   Z000.0000   F210
G0   X047.6153   Y043.8125   Z000.0000   F720
G0   X048.2125   Y043.2153   Z000.0000   F720
G0   X048.8097   Y043.8125   Z000.0000   F720
G0   X048.2125   Y044.4097   Z000.0000   F720
G0   X048.2125   Y044.4097   Z003.0000   F500

;Begin Line: layer=0 line=17
G0   X049.5875   Y045.7847   Z003.0000   F2100
G0   X049.5875   Y045.7847   Z000.0000   F210
G0   X050.1847   Y045.1875   Z000.0000   F720
G0   X049.5875   Y044.5903   Z000.0000   F720
G0   X048.9904   Y045.1875   Z000.0000   F720
G0   X049.5875   Y045.7847   Z000.0000   F720
G0   X049.5875   Y045.7847   Z003.0000   F500

;Begin Line: layer=0 line=18
G0   X066.8654   Y046.5625   Z003.0000   F2100
G0   X066.8654   Y046.5625   Z000.0000   F210
G0   X071.5875   Y051.2847   Z000.0000   F720
G0   X076.3097   Y046.5625   Z000.0000   F720
G0   X071.5875   Y041.8403   Z000.0000   F720
G0   X066.8654   Y046.5625   Z000.0000   F720
G0   X066.8654   Y046.5625   Z003.0000   F500

;Begin Line: layer=0 line=19
G0   X070.8097   Y052.0625   Z003.0000   F2100
G0   X070.8097   Y052.0625   Z000.0000   F210
G0   X066.0875   Y047.3403   Z000.0000   F720
G0   X061.3653   Y052.0625   Z000.0000   F720
G0   X066.0875   Y056.7847   Z000.0000   F720
G0   X070.8097   Y052.0625   Z000.0000   F720
G0   X070.8097   Y052.0625   Z003.0000   F500

;Begin Line: layer=0 line=20
G0   X070.8097   Y052.0625   Z003.0000   F2100
G0   X070.8097   Y052.0625   Z000.0000   F210
G0   X066.0875   Y047.3403   Z000.0000   F720
G0   X061.3653   Y052.0625   Z000.0000   F720
G0   X066.0875   Y056.7847   Z000.0000   F720
G0   X070.8097   Y052.0625   Z000.0000   F720
G0   X070.8097   Y052.0625   Z003.0000   F500

;Begin Line: layer=0 line=21
G0   X076.1542   Y046.5625   Z003.0000   F2100
G0   X076.1542   Y046.5625   Z000.0000   F210
G0   X071.5875   Y041.9959   Z000.0000   F720
G0   X067.0209   Y046.5625   Z000.0000   F720
G0   X071.5875   Y051.1291   Z000.0000   F720
G0   X076.1542   Y046.5625   Z000.0000   F720
G0   X076.1542   Y046.5625   Z003.0000   F500

;Begin Line: layer=0 line=22
G0   X081.8097   Y052.0625   Z003.0000   F2100
G0   X081.8097   Y052.0625   Z000.0000   F210
G0   X079.8375   Y054.0347   Z000.0000   F720
G0   X077.8654   Y052.0625   Z000.0000   F720
G0   X079.8375   Y050.0903   Z000.0000   F720
G0   X081.8097   Y052.0625   Z000.0000   F720
G0   X081.8097   Y052.0625   Z003.0000   F500

;Begin Line: layer=0 line=23
G0   X083.9625   Y051.4653   Z003.0000   F2100
G0   X083.9625   Y051.4653   Z000.0000   F210
G0   X084.5597   Y052.0625   Z000.0000   F720
G0   X083.9625   Y052.6597   Z000.0000   F720
G0   X083.3654   Y052.0625   Z000.0000   F720
G0   X083.9625   Y051.4653   Z000.0000   F720
G0   X083.9625   Y051.4653   Z003.0000   F500

;Begin Line: layer=0 line=24
G0   X085.9347   Y056.1875   Z003.0000   F2100
G0   X085.9347   Y056.1875   Z000.0000   F210
G0   X085.3375   Y055.5903   Z000.0000   F720
G0   X084.7404   Y056.1875   Z000.0000   F720
G0   X085.3375   Y056.7847   Z000.0000   F720
G0   X085.9347   Y056.1875   Z000.0000   F720
G0   X085.9347   Y056.1875   Z003.0000   F500

;Begin Line: layer=0 line=25
G0   X085.3375   Y056.7847   Z003.0000   F2100
G0   X085.3375   Y056.7847   Z000.0000   F210
G0   X085.9347   Y056.1875   Z000.0000   F720
G0   X085.3375   Y055.5903   Z000.0000   F720
G0   X084.7404   Y056.1875   Z000.0000   F720
G0   X085.3375   Y056.7847   Z000.0000   F720
G0   X085.3375   Y056.7847   Z003.0000   F500

;Begin Line: layer=0 line=26
G0   X080.6154   Y054.8125   Z003.0000   F2100
G0   X080.6154   Y054.8125   Z000.0000   F210
G0   X082.5875   Y056.7847   Z000.0000   F720
G0   X084.5597   Y054.8125   Z000.0000   F720
G0   X082.5875   Y052.8403   Z000.0000   F720
G0   X080.6154   Y054.8125   Z000.0000   F720
G0   X080.6154   Y054.8125   Z003.0000   F500

;Begin Line: layer=0 line=27
G0   X077.0875   Y051.2847   Z003.0000   F2100
G0   X077.0875   Y051.2847   Z000.0000   F210
G0   X079.0597   Y049.3125   Z000.0000   F720
G0   X077.0875   Y047.3403   Z000.0000   F720
G0   X075.1154   Y049.3125   Z000.0000   F720
G0   X077.0875   Y051.2847   Z000.0000   F720
G0   X077.0875   Y051.2847   Z003.0000   F500

;Begin Line: layer=0 line=28
G0   X076.3097   Y052.0625   Z003.0000   F2100
G0   X076.3097   Y052.0625   Z000.0000   F210
G0   X074.3375   Y050.0903   Z000.0000   F720
G0   X072.3654   Y052.0625   Z000.0000   F720
G0   X074.3375   Y054.0347   Z000.0000   F720
G0   X076.3097   Y052.0625   Z000.0000   F720
G0   X076.3097   Y052.0625   Z003.0000   F500

;Begin Line: layer=0 line=29
G0   X074.3375   Y054.0347   Z003.0000   F2100
G0   X074.3375   Y054.0347   Z000.0000   F210
G0   X076.3097   Y052.0625   Z000.0000   F720
G0   X074.3375   Y050.0903   Z000.0000   F720
G0   X072.3654   Y052.0625   Z000.0000   F720
G0   X074.3375   Y054.0347   Z000.0000   F720
G0   X074.3375   Y054.0347   Z003.0000   F500

;Begin Line: layer=0 line=30
G0   X072.9625   Y055.4097   Z003.0000   F2100
G0   X072.9625   Y055.4097   Z000.0000   F210
G0   X073.5597   Y054.8125   Z000.0000   F720
G0   X072.9625   Y054.2154   Z000.0000   F720
G0   X072.3654   Y054.8125   Z000.0000   F720
G0   X072.9625   Y055.4097   Z000.0000   F720
G0   X072.9625   Y055.4097   Z003.0000   F500

;Begin Line: layer=0 line=31
G0   X071.5875   Y055.5903   Z003.0000   F2100
G0   X071.5875   Y055.5903   Z000.0000   F210
G0   X070.9904   Y056.1875   Z000.0000   F720
G0   X071.5875   Y056.7847   Z000.0000   F720
G0   X072.1847   Y056.1875   Z000.0000   F720
G0   X071.5875   Y055.5903   Z000.0000   F720
G0   X071.5875   Y055.5903   Z003.0000   F500

;Begin Line: layer=0 line=32
G0   X070.8097   Y057.5625   Z003.0000   F2100
G0   X070.8097   Y057.5625   Z000.0000   F210
G0   X070.2125   Y056.9654   Z000.0000   F720
G0   X069.6154   Y057.5625   Z000.0000   F720
G0   X070.2125   Y058.1597   Z000.0000   F720
G0   X070.8097   Y057.5625   Z000.0000   F720
G0   X070.8097   Y057.5625   Z003.0000   F500

;Begin Line: layer=0 line=33
G0   X070.2125   Y056.9654   Z003.0000   F2100
G0   X070.2125   Y056.9654   Z000.0000   F210
G0   X069.6154   Y057.5625   Z000.0000   F720
G0   X070.2125   Y058.1597   Z000.0000   F720
G0   X070.8097   Y057.5625   Z000.0000   F720
G0   X070.2125   Y056.9654   Z000.0000   F720
G0   X070.2125   Y056.9654   Z003.0000   F500

;Begin Line: layer=0 line=34
G0   X065.3097   Y057.5625   Z003.0000   F2100
G0   X065.3097   Y057.5625   Z000.0000   F210
G0   X060.5875   Y052.8403   Z000.0000   F720
G0   X055.8653   Y057.5625   Z000.0000   F720
G0   X060.5875   Y062.2847   Z000.0000   F720
G0   X065.3097   Y057.5625   Z000.0000   F720
G0   X065.3097   Y057.5625   Z003.0000   F500

;Begin Line: layer=0 line=35
G0   X065.1542   Y057.5625   Z003.0000   F2100
G0   X065.1542   Y057.5625   Z000.0000   F210
G0   X060.5875   Y052.9959   Z000.0000   F720
G0   X056.0209   Y057.5625   Z000.0000   F720
G0   X060.5875   Y062.1291   Z000.0000   F720
G0   X065.1542   Y057.5625   Z000.0000   F720
G0   X065.1542   Y057.5625   Z003.0000   F500

;Begin Line: layer=0 line=36
G0   X061.5209   Y052.0625   Z003.0000   F2100
G0   X061.5209   Y052.0625   Z000.0000   F210
G0   X066.0875   Y056.6291   Z000.0000   F720
G0   X070.6542   Y052.0625   Z000.0000   F720
G0   X066.0875   Y047.4959   Z000.0000   F720
G0   X061.5209   Y052.0625   Z000.0000   F720
G0   X061.5209   Y052.0625   Z003.0000   F500

;Begin Line: layer=0 line=37
G0   X055.8653   Y057.5625   Z003.0000   F2100
G0   X055.8653   Y057.5625   Z000.0000   F210
G0   X060.5875   Y062.2847   Z000.0000   F720
G0   X065.3097   Y057.5625   Z000.0000   F720
G0   X060.5875   Y052.8403   Z000.0000   F720
G0   X055.8653   Y057.5625   Z000.0000   F720
G0   X055.8653   Y057.5625   Z003.0000   F500

;Begin Line: layer=0 line=38
G0   X055.0875   Y058.3403   Z003.0000   F2100
G0   X055.0875   Y058.3403   Z000.0000   F210
G0   X044.8653   Y068.5625   Z000.0000   F720
G0   X055.0875   Y078.7847   Z000.0000   F720
G0   X065.3097   Y068.5625   Z000.0000   F720
G0   X055.0875   Y058.3403   Z000.0000   F720
G0   X055.0875   Y058.3403   Z003.0000   F500

;Begin Line: layer=0 line=39
G0   X054.3097   Y057.5625   Z003.0000   F2100
G0   X054.3097   Y057.5625   Z000.0000   F210
G0   X049.5875   Y052.8403   Z000.0000   F720
G0   X044.8653   Y057.5625   Z000.0000   F720
G0   X049.5875   Y062.2847   Z000.0000   F720
G0   X054.3097   Y057.5625   Z000.0000   F720
G0   X054.3097   Y057.5625   Z003.0000   F500

;Begin Line: layer=0 line=40
G0   X049.5875   Y052.9959   Z003.0000   F2100
G0   X049.5875   Y052.9959   Z000.0000   F210
G0   X045.0209   Y057.5625   Z000.0000   F720
G0   X049.5875   Y062.1291   Z000.0000   F720
G0   X054.1542   Y057.5625   Z000.0000   F720
G0   X049.5875   Y052.9959   Z000.0000   F720
G0   X049.5875   Y052.9959   Z003.0000   F500

;Begin Line: layer=0 line=41
G0   X048.8097   Y052.0625   Z003.0000   F2100
G0   X048.8097   Y052.0625   Z000.0000   F210
G0   X046.8375   Y050.0903   Z000.0000   F720
G0   X044.8653   Y052.0625   Z000.0000   F720
G0   X046.8375   Y054.0347   Z000.0000   F720
G0   X048.8097   Y052.0625   Z000.0000   F720
G0   X048.8097   Y052.0625   Z003.0000   F500

;Begin Line: layer=0 line=42
G0   X046.0597   Y049.3125   Z003.0000   F2100
G0   X046.0597   Y049.3125   Z000.0000   F210
G0   X044.0875   Y047.3403   Z000.0000   F720
G0   X042.1153   Y049.3125   Z000.0000   F720
G0   X044.0875   Y051.2847   Z000.0000   F720
G0   X046.0597   Y049.3125   Z000.0000   F720
G0   X046.0597   Y049.3125   Z003.0000   F500

;Begin Line: layer=0 line=43
G0   X046.0597   Y046.5625   Z003.0000   F2100
G0   X046.0597   Y046.5625   Z000.0000   F210
G0   X045.4625   Y045.9653   Z000.0000   F720
G0   X044.8653   Y046.5625   Z000.0000   F720
G0   X045.4625   Y047.1597   Z000.0000   F720
G0   X046.0597   Y046.5625   Z000.0000   F720
G0   X046.0597   Y046.5625   Z003.0000   F500

;Begin Line: layer=0 line=44
G0   X042.7125   Y047.1597   Z003.0000   F2100
G0   X042.7125   Y047.1597   Z000.0000   F210
G0   X043.3097   Y046.5625   Z000.0000   F720
G0   X042.7125   Y045.9653   Z000.0000   F720
G0   X042.1153   Y046.5625   Z000.0000   F720
G0   X042.7125   Y047.1597   Z000.0000   F720
