;Generated with vpype gwrite fabian
G90 ; Use absolute position
G92 X0 Y0 Z0 ; Set the current position as (0,0,0)
G0   X000.0000   Y000.0000   Z003.0000   F500

;Begin Line: layer=0 line=0
G0   X056.5000   Y174.5501   Z003.0000   F2100
G0   X056.5000   Y174.5501   Z000.0000   F210
G0   X066.5000   Y174.5501   Z000.0000   F720
G0   X066.5000   Y174.5501   Z003.0000   F500

;Begin Line: layer=0 line=1
G0   X066.5000   Y174.3001   Z003.0000   F2100
G0   X066.5000   Y174.3001   Z000.0000   F210
G0   X056.5000   Y174.3001   Z000.0000   F720
G0   X056.5000   Y174.3001   Z003.0000   F500

;Begin Line: layer=0 line=2
G0   X056.5000   Y174.0501   Z003.0000   F2100
G0   X056.5000   Y174.0501   Z000.0000   F210
G0   X066.5000   Y174.0501   Z000.0000   F720
G0   X066.5000   Y174.0501   Z003.0000   F500

;Begin Line: layer=0 line=3
G0   X066.5000   Y154.6001   Z003.0000   F2100
G0   X066.5000   Y154.6001   Z000.0000   F210
G0   X056.5000   Y154.6001   Z000.0000   F720
G0   X056.5000   Y154.6001   Z003.0000   F500

;Begin Line: layer=0 line=4
G0   X056.5000   Y154.3001   Z003.0000   F2100
G0   X056.5000   Y154.3001   Z000.0000   F210
G0   X066.5000   Y154.3001   Z000.0000   F720
G0   X066.5000   Y154.3001   Z003.0000   F500

;Begin Line: layer=0 line=5
G0   X066.5000   Y154.0001   Z003.0000   F2100
G0   X066.5000   Y154.0001   Z000.0000   F210
G0   X056.5000   Y154.0001   Z000.0000   F720
G0   X056.5000   Y154.0001   Z003.0000   F500

;Begin Line: layer=0 line=6
G0   X046.8000   Y149.3001   Z003.0000   F2100
G0   X046.8000   Y149.3001   Z000.0000   F210
G0   X046.8000   Y159.3001   Z000.0000   F720
G0   X046.8000   Y159.3001   Z003.0000   F500

;Begin Line: layer=0 line=7
G0   X046.5000   Y159.3001   Z003.0000   F2100
G0   X046.5000   Y159.3001   Z000.0000   F210
G0   X046.5000   Y149.3001   Z000.0000   F720
G0   X046.5000   Y149.3001   Z003.0000   F500

;Begin Line: layer=0 line=8
G0   X046.2000   Y149.3001   Z003.0000   F2100
G0   X046.2000   Y149.3001   Z000.0000   F210
G0   X046.2000   Y159.3001   Z000.0000   F720
G0   X046.2000   Y159.3001   Z003.0000   F500

;Begin Line: layer=0 line=9
G0   X046.2500   Y169.3001   Z003.0000   F2100
G0   X046.2500   Y169.3001   Z000.0000   F210
G0   X046.2500   Y179.3001   Z000.0000   F720
G0   X046.2500   Y179.3001   Z003.0000   F500

;Begin Line: layer=0 line=10
G0   X046.5000   Y179.3001   Z003.0000   F2100
G0   X046.5000   Y179.3001   Z000.0000   F210
G0   X046.5000   Y169.3001   Z000.0000   F720
G0   X046.5000   Y169.3001   Z003.0000   F500

;Begin Line: layer=0 line=11
G0   X046.7500   Y169.3001   Z003.0000   F2100
G0   X046.7500   Y169.3001   Z000.0000   F210
G0   X046.7500   Y179.3001   Z000.0000   F720
G0   X046.7500   Y179.3001   Z003.0000   F500

;Begin Line: layer=0 line=12
G0   X046.7000   Y189.3001   Z003.0000   F2100
G0   X046.7000   Y189.3001   Z000.0000   F210
G0   X046.7000   Y199.3001   Z000.0000   F720
G0   X046.7000   Y199.3001   Z003.0000   F500

;Begin Line: layer=0 line=13
G0   X046.5000   Y199.3001   Z003.0000   F2100
G0   X046.5000   Y199.3001   Z000.0000   F210
G0   X046.5000   Y189.3001   Z000.0000   F720
G0   X046.5000   Y189.3001   Z003.0000   F500

;Begin Line: layer=0 line=14
G0   X046.3000   Y189.3001   Z003.0000   F2100
G0   X046.3000   Y189.3001   Z000.0000   F210
G0   X046.3000   Y199.3001   Z000.0000   F720
G0   X046.3000   Y199.3001   Z003.0000   F500

;Begin Line: layer=0 line=15
G0   X056.5000   Y194.5001   Z003.0000   F2100
G0   X056.5000   Y194.5001   Z000.0000   F210
G0   X066.5000   Y194.5001   Z000.0000   F720
G0   X066.5000   Y194.5001   Z003.0000   F500

;Begin Line: layer=0 line=16
G0   X066.5000   Y194.3001   Z003.0000   F2100
G0   X066.5000   Y194.3001   Z000.0000   F210
G0   X056.5000   Y194.3001   Z000.0000   F720
G0   X056.5000   Y194.3001   Z003.0000   F500

;Begin Line: layer=0 line=17
G0   X056.5000   Y194.1001   Z003.0000   F2100
G0   X056.5000   Y194.1001   Z000.0000   F210
G0   X066.5000   Y194.1001   Z000.0000   F720
G0   X066.5000   Y194.1001   Z003.0000   F500

;Begin Line: layer=0 line=18
G0   X086.3000   Y194.3001   Z003.0000   F2100
G0   X086.3000   Y194.3001   Z000.0000   F210
G0   X086.2741   Y194.7985   Z000.0000   F720
G0   X086.2161   Y195.1937   Z000.0000   F720
G0   X086.1255   Y195.5826   Z000.0000   F720
G0   X085.9674   Y196.0560   Z000.0000   F720
G0   X085.8060   Y196.4212   Z000.0000   F720
G0   X085.5624   Y196.8569   Z000.0000   F720
G0   X085.2750   Y197.2649   Z000.0000   F720
G0   X084.9467   Y197.6408   Z000.0000   F720
G0   X084.5812   Y197.9807   Z000.0000   F720
G0   X084.1823   Y198.2807   Z000.0000   F720
G0   X083.8422   Y198.4899   Z000.0000   F720
G0   X083.3944   Y198.7105   Z000.0000   F720
G0   X083.0213   Y198.8527   Z000.0000   F720
G0   X082.5403   Y198.9860   Z000.0000   F720
G0   X082.0481   Y199.0687   Z000.0000   F720
G0   X081.5500   Y199.0999   Z000.0000   F720
G0   X081.1508   Y199.0874   Z000.0000   F720
G0   X080.6556   Y199.0252   Z000.0000   F720
G0   X080.1695   Y198.9120   Z000.0000   F720
G0   X079.6978   Y198.7489   Z000.0000   F720
G0   X079.2456   Y198.5377   Z000.0000   F720
G0   X078.9011   Y198.3357   Z000.0000   F720
G0   X078.4961   Y198.0440   Z000.0000   F720
G0   X078.1236   Y197.7118   Z000.0000   F720
G0   X077.8517   Y197.4194   Z000.0000   F720
G0   X077.5475   Y197.0236   Z000.0000   F720
G0   X077.2861   Y196.5985   Z000.0000   F720
G0   X077.0702   Y196.1485   Z000.0000   F720
G0   X076.9319   Y195.7739   Z000.0000   F720
G0   X076.8036   Y195.2916   Z000.0000   F720
G0   X076.7260   Y194.7985   Z000.0000   F720
G0   X076.7001   Y194.3001   Z000.0000   F720
G0   X076.7260   Y193.8017   Z000.0000   F720
G0   X076.8036   Y193.3086   Z000.0000   F720
G0   X076.9319   Y192.8263   Z000.0000   F720
G0   X077.0702   Y192.4517   Z000.0000   F720
G0   X077.2861   Y192.0017   Z000.0000   F720
G0   X077.4917   Y191.6594   Z000.0000   F720
G0   X077.7251   Y191.3353   Z000.0000   F720
G0   X078.0534   Y190.9594   Z000.0000   F720
G0   X078.4189   Y190.6195   Z000.0000   F720
G0   X078.8178   Y190.3195   Z000.0000   F720
G0   X079.1579   Y190.1103   Z000.0000   F720
G0   X079.6057   Y189.8897   Z000.0000   F720
G0   X080.0739   Y189.7169   Z000.0000   F720
G0   X080.5575   Y189.5936   Z000.0000   F720
G0   X081.0513   Y189.5211   Z000.0000   F720
G0   X081.4501   Y189.5004   Z000.0000   F720
G0   X081.9488   Y189.5211   Z000.0000   F720
G0   X082.4426   Y189.5936   Z000.0000   F720
G0   X082.8306   Y189.6882   Z000.0000   F720
G0   X083.3023   Y189.8513   Z000.0000   F720
G0   X083.7545   Y190.0625   Z000.0000   F720
G0   X084.1823   Y190.3195   Z000.0000   F720
G0   X084.5039   Y190.5562   Z000.0000   F720
G0   X084.8764   Y190.8884   Z000.0000   F720
G0   X085.1484   Y191.1808   Z000.0000   F720
G0   X085.4526   Y191.5766   Z000.0000   F720
G0   X085.7140   Y192.0017   Z000.0000   F720
G0   X085.9299   Y192.4517   Z000.0000   F720
G0   X086.0682   Y192.8263   Z000.0000   F720
G0   X086.1965   Y193.3086   Z000.0000   F720
G0   X086.2741   Y193.8017   Z000.0000   F720
G0   X086.3000   Y194.3001   Z000.0000   F720
G0   X086.3000   Y194.3001   Z003.0000   F500

;Begin Line: layer=0 line=19
G0   X086.5000   Y194.3001   Z003.0000   F2100
G0   X086.5000   Y194.3001   Z000.0000   F210
G0   X086.4752   Y194.7979   Z000.0000   F720
G0   X086.4009   Y195.2908   Z000.0000   F720
G0   X086.2779   Y195.7739   Z000.0000   F720
G0   X086.1074   Y196.2423   Z000.0000   F720
G0   X085.8912   Y196.6914   Z000.0000   F720
G0   X085.6313   Y197.1167   Z000.0000   F720
G0   X085.3303   Y197.5141   Z000.0000   F720
G0   X084.9912   Y197.8794   Z000.0000   F720
G0   X084.6175   Y198.2093   Z000.0000   F720
G0   X084.2960   Y198.4453   Z000.0000   F720
G0   X083.8694   Y198.7031   Z000.0000   F720
G0   X083.4192   Y198.9171   Z000.0000   F720
G0   X082.9500   Y199.0853   Z000.0000   F720
G0   X082.4663   Y199.2059   Z000.0000   F720
G0   X081.9731   Y199.2777   Z000.0000   F720
G0   X081.4751   Y199.3000   Z000.0000   F720
G0   X081.0767   Y199.2822   Z000.0000   F720
G0   X080.5827   Y199.2152   Z000.0000   F720
G0   X080.0979   Y199.0995   Z000.0000   F720
G0   X079.6270   Y198.9360   Z000.0000   F720
G0   X079.1747   Y198.7265   Z000.0000   F720
G0   X078.7455   Y198.4730   Z000.0000   F720
G0   X078.3437   Y198.1780   Z000.0000   F720
G0   X077.9733   Y197.8444   Z000.0000   F720
G0   X077.7021   Y197.5521   Z000.0000   F720
G0   X077.3971   Y197.1578   Z000.0000   F720
G0   X077.1330   Y196.7350   Z000.0000   F720
G0   X076.9122   Y196.2881   Z000.0000   F720
G0   X076.7371   Y195.8215   Z000.0000   F720
G0   X076.6093   Y195.3397   Z000.0000   F720
G0   X076.5301   Y194.8475   Z000.0000   F720
G0   X076.5003   Y194.3500   Z000.0000   F720
G0   X076.5202   Y193.8519   Z000.0000   F720
G0   X076.5895   Y193.3583   Z000.0000   F720
G0   X076.7077   Y192.8741   Z000.0000   F720
G0   X076.8366   Y192.4966   Z000.0000   F720
G0   X077.0394   Y192.0413   Z000.0000   F720
G0   X077.2864   Y191.6083   Z000.0000   F720
G0   X077.5754   Y191.2022   Z000.0000   F720
G0   X077.9034   Y190.8268   Z000.0000   F720
G0   X078.2670   Y190.4859   Z000.0000   F720
G0   X078.6629   Y190.1830   Z000.0000   F720
G0   X079.0869   Y189.9210   Z000.0000   F720
G0   X079.5349   Y189.7025   Z000.0000   F720
G0   X080.0024   Y189.5296   Z000.0000   F720
G0   X080.4849   Y189.4043   Z000.0000   F720
G0   X080.9774   Y189.3275   Z000.0000   F720
G0   X081.4751   Y189.3002   Z000.0000   F720
G0   X081.9731   Y189.3225   Z000.0000   F720
G0   X082.4663   Y189.3944   Z000.0000   F720
G0   X082.8542   Y189.4870   Z000.0000   F720
G0   X083.3268   Y189.6457   Z000.0000   F720
G0   X083.7811   Y189.8507   Z000.0000   F720
G0   X084.2128   Y190.1000   Z000.0000   F720
G0   X084.6175   Y190.3909   Z000.0000   F720
G0   X084.9912   Y190.7208   Z000.0000   F720
G0   X085.3303   Y191.0862   Z000.0000   F720
G0   X085.6313   Y191.4835   Z000.0000   F720
G0   X085.8912   Y191.9088   Z000.0000   F720
G0   X086.1074   Y192.3579   Z000.0000   F720
G0   X086.2779   Y192.8263   Z000.0000   F720
G0   X086.4009   Y193.3094   Z000.0000   F720
G0   X086.4752   Y193.8023   Z000.0000   F720
G0   X086.5000   Y194.3001   Z000.0000   F720
G0   X086.5000   Y194.3001   Z003.0000   F500

;Begin Line: layer=0 line=20
G0   X096.5000   Y199.3001   Z003.0000   F2100
G0   X096.5000   Y199.3001   Z000.0000   F210
G0   X096.5000   Y189.3001   Z000.0000   F720
G0   X106.5001   Y189.3001   Z000.0000   F720
G0   X106.5001   Y199.3001   Z000.0000   F720
G0   X096.5000   Y199.3001   Z000.0000   F720
G0   X096.5000   Y199.3001   Z003.0000   F500

;Begin Line: layer=0 line=21
G0   X096.7000   Y199.1001   Z003.0000   F2100
G0   X096.7000   Y199.1001   Z000.0000   F210
G0   X096.7000   Y189.5001   Z000.0000   F720
G0   X106.3001   Y189.5001   Z000.0000   F720
G0   X106.3001   Y199.1001   Z000.0000   F720
G0   X096.7000   Y199.1001   Z000.0000   F720
G0   X096.7000   Y199.1001   Z003.0000   F500

;Begin Line: layer=0 line=22
G0   X096.5000   Y179.3001   Z003.0000   F2100
G0   X096.5000   Y179.3001   Z000.0000   F210
G0   X096.5000   Y169.3001   Z000.0000   F720
G0   X106.5001   Y169.3001   Z000.0000   F720
G0   X106.5001   Y179.3001   Z000.0000   F720
G0   X096.5000   Y179.3001   Z000.0000   F720
G0   X096.5000   Y179.3001   Z003.0000   F500

;Begin Line: layer=0 line=23
G0   X096.7501   Y179.0501   Z003.0000   F2100
G0   X096.7501   Y179.0501   Z000.0000   F210
G0   X096.7501   Y169.5501   Z000.0000   F720
G0   X106.2501   Y169.5501   Z000.0000   F720
G0   X106.2501   Y179.0501   Z000.0000   F720
G0   X096.7501   Y179.0501   Z000.0000   F720
G0   X096.7501   Y179.0501   Z003.0000   F500

;Begin Line: layer=0 line=24
G0   X086.5000   Y174.3001   Z003.0000   F2100
G0   X086.5000   Y174.3001   Z000.0000   F210
G0   X086.4752   Y174.7979   Z000.0000   F720
G0   X086.4009   Y175.2908   Z000.0000   F720
G0   X086.3064   Y175.6783   Z000.0000   F720
G0   X086.1453   Y176.1500   Z000.0000   F720
G0   X085.9380   Y176.6033   Z000.0000   F720
G0   X085.6866   Y177.0337   Z000.0000   F720
G0   X085.3936   Y177.4370   Z000.0000   F720
G0   X085.0619   Y177.8091   Z000.0000   F720
G0   X084.6948   Y178.1463   Z000.0000   F720
G0   X084.2960   Y178.4453   Z000.0000   F720
G0   X083.8694   Y178.7031   Z000.0000   F720
G0   X083.4192   Y178.9171   Z000.0000   F720
G0   X082.9500   Y179.0853   Z000.0000   F720
G0   X082.5640   Y179.1856   Z000.0000   F720
G0   X082.0723   Y179.2672   Z000.0000   F720
G0   X081.5748   Y179.2995   Z000.0000   F720
G0   X081.0767   Y179.2821   Z000.0000   F720
G0   X080.5827   Y179.2152   Z000.0000   F720
G0   X080.0979   Y179.0995   Z000.0000   F720
G0   X079.6270   Y178.9360   Z000.0000   F720
G0   X079.1747   Y178.7265   Z000.0000   F720
G0   X078.7455   Y178.4730   Z000.0000   F720
G0   X078.3437   Y178.1780   Z000.0000   F720
G0   X077.9733   Y177.8444   Z000.0000   F720
G0   X077.7021   Y177.5521   Z000.0000   F720
G0   X077.3971   Y177.1578   Z000.0000   F720
G0   X077.1330   Y176.7350   Z000.0000   F720
G0   X076.9122   Y176.2881   Z000.0000   F720
G0   X076.7371   Y175.8214   Z000.0000   F720
G0   X076.6093   Y175.3397   Z000.0000   F720
G0   X076.5301   Y174.8475   Z000.0000   F720
G0   X076.5003   Y174.3500   Z000.0000   F720
G0   X076.5202   Y173.8519   Z000.0000   F720
G0   X076.5895   Y173.3583   Z000.0000   F720
G0   X076.7077   Y172.8740   Z000.0000   F720
G0   X076.8366   Y172.4966   Z000.0000   F720
G0   X077.0394   Y172.0413   Z000.0000   F720
G0   X077.2864   Y171.6083   Z000.0000   F720
G0   X077.5754   Y171.2022   Z000.0000   F720
G0   X077.9034   Y170.8268   Z000.0000   F720
G0   X078.2670   Y170.4860   Z000.0000   F720
G0   X078.6629   Y170.1830   Z000.0000   F720
G0   X079.0869   Y169.9210   Z000.0000   F720
G0   X079.5349   Y169.7025   Z000.0000   F720
G0   X080.0024   Y169.5296   Z000.0000   F720
G0   X080.4849   Y169.4042   Z000.0000   F720
G0   X080.9774   Y169.3275   Z000.0000   F720
G0   X081.4751   Y169.3002   Z000.0000   F720
G0   X081.9731   Y169.3225   Z000.0000   F720
G0   X082.4663   Y169.3944   Z000.0000   F720
G0   X082.9500   Y169.5149   Z000.0000   F720
G0   X083.4192   Y169.6831   Z000.0000   F720
G0   X083.8694   Y169.8971   Z000.0000   F720
G0   X084.2960   Y170.1549   Z000.0000   F720
G0   X084.6175   Y170.3909   Z000.0000   F720
G0   X084.9912   Y170.7208   Z000.0000   F720
G0   X085.3303   Y171.0862   Z000.0000   F720
G0   X085.6313   Y171.4835   Z000.0000   F720
G0   X085.8912   Y171.9088   Z000.0000   F720
G0   X086.1074   Y172.3579   Z000.0000   F720
G0   X086.2779   Y172.8263   Z000.0000   F720
G0   X086.4009   Y173.3094   Z000.0000   F720
G0   X086.4752   Y173.8023   Z000.0000   F720
G0   X086.5000   Y174.3001   Z000.0000   F720
G0   X086.5000   Y174.3001   Z003.0000   F500

;Begin Line: layer=0 line=25
G0   X086.2501   Y174.3001   Z003.0000   F2100
G0   X086.2501   Y174.3001   Z000.0000   F210
G0   X086.2333   Y174.6989   Z000.0000   F720
G0   X086.1653   Y175.1931   Z000.0000   F720
G0   X086.0739   Y175.5816   Z000.0000   F720
G0   X085.9143   Y176.0542   Z000.0000   F720
G0   X085.7060   Y176.5075   Z000.0000   F720
G0   X085.4513   Y176.9365   Z000.0000   F720
G0   X085.1530   Y177.3363   Z000.0000   F720
G0   X084.8852   Y177.6323   Z000.0000   F720
G0   X084.5934   Y177.9047   Z000.0000   F720
G0   X084.1983   Y178.2093   Z000.0000   F720
G0   X083.7735   Y178.4707   Z000.0000   F720
G0   X083.3236   Y178.6861   Z000.0000   F720
G0   X082.8535   Y178.8532   Z000.0000   F720
G0   X082.4665   Y178.9507   Z000.0000   F720
G0   X081.9734   Y179.0264   Z000.0000   F720
G0   X081.4751   Y179.0500   Z000.0000   F720
G0   X081.0764   Y179.0312   Z000.0000   F720
G0   X080.5825   Y178.9606   Z000.0000   F720
G0   X080.0988   Y178.8387   Z000.0000   F720
G0   X079.6306   Y178.6667   Z000.0000   F720
G0   X079.2705   Y178.4944   Z000.0000   F720
G0   X078.8430   Y178.2374   Z000.0000   F720
G0   X078.4447   Y177.9370   Z000.0000   F720
G0   X078.1501   Y177.6677   Z000.0000   F720
