;Generated with vpype gwrite fabian
G90 ; Use absolute position
G92 X0 Y0 Z0 ; Set the current position as (0,0,0)
G0   X000.0000   Y000.0000   Z003.0000   F500

;Begin Line: layer=0 line=0
G0   X036.5000   Y174.7501   Z003.0000   F2100
G0   X036.5000   Y174.7501   Z000.0000   F210
G0   X046.5000   Y174.7501   Z000.0000   F720
G0   X046.5000   Y174.7501   Z003.0000   F500

;Begin Line: layer=0 line=1
G0   X046.5000   Y174.5001   Z003.0000   F2100
G0   X046.5000   Y174.5001   Z000.0000   F210
G0   X036.5000   Y174.5001   Z000.0000   F720
G0   X036.5000   Y174.5001   Z003.0000   F500

;Begin Line: layer=0 line=2
G0   X036.5000   Y174.2501   Z003.0000   F2100
G0   X036.5000   Y174.2501   Z000.0000   F210
G0   X046.5000   Y174.2501   Z000.0000   F720
G0   X046.5000   Y174.2501   Z003.0000   F500

;Begin Line: layer=0 line=3
G0   X046.5000   Y154.8001   Z003.0000   F2100
G0   X046.5000   Y154.8001   Z000.0000   F210
G0   X036.5000   Y154.8001   Z000.0000   F720
G0   X036.5000   Y154.8001   Z003.0000   F500

;Begin Line: layer=0 line=4
G0   X036.5000   Y154.5001   Z003.0000   F2100
G0   X036.5000   Y154.5001   Z000.0000   F210
G0   X046.5000   Y154.5001   Z000.0000   F720
G0   X046.5000   Y154.5001   Z003.0000   F500

;Begin Line: layer=0 line=5
G0   X046.5000   Y154.2001   Z003.0000   F2100
G0   X046.5000   Y154.2001   Z000.0000   F210
G0   X036.5000   Y154.2001   Z000.0000   F720
G0   X036.5000   Y154.2001   Z003.0000   F500

;Begin Line: layer=0 line=6
G0   X036.5000   Y134.8501   Z003.0000   F2100
G0   X036.5000   Y134.8501   Z000.0000   F210
G0   X046.5000   Y134.8501   Z000.0000   F720
G0   X046.5000   Y134.8501   Z003.0000   F500

;Begin Line: layer=0 line=7
G0   X046.5000   Y134.5001   Z003.0000   F2100
G0   X046.5000   Y134.5001   Z000.0000   F210
G0   X036.5000   Y134.5001   Z000.0000   F720
G0   X036.5000   Y134.5001   Z003.0000   F500

;Begin Line: layer=0 line=8
G0   X036.5000   Y134.1501   Z003.0000   F2100
G0   X036.5000   Y134.1501   Z000.0000   F210
G0   X046.5000   Y134.1501   Z000.0000   F720
G0   X046.5000   Y134.1501   Z003.0000   F500

;Begin Line: layer=0 line=9
G0   X046.5000   Y114.9001   Z003.0000   F2100
G0   X046.5000   Y114.9001   Z000.0000   F210
G0   X036.5000   Y114.9001   Z000.0000   F720
G0   X036.5000   Y114.9001   Z003.0000   F500

;Begin Line: layer=0 line=10
G0   X036.5000   Y114.5001   Z003.0000   F2100
G0   X036.5000   Y114.5001   Z000.0000   F210
G0   X046.5000   Y114.5001   Z000.0000   F720
G0   X046.5000   Y114.5001   Z003.0000   F500

;Begin Line: layer=0 line=11
G0   X046.5000   Y114.1001   Z003.0000   F2100
G0   X046.5000   Y114.1001   Z000.0000   F210
G0   X036.5000   Y114.1001   Z000.0000   F720
G0   X036.5000   Y114.1001   Z003.0000   F500

;Begin Line: layer=0 line=12
G0   X036.5000   Y094.9500   Z003.0000   F2100
G0   X036.5000   Y094.9500   Z000.0000   F210
G0   X046.5000   Y094.9500   Z000.0000   F720
G0   X046.5000   Y094.9500   Z003.0000   F500

;Begin Line: layer=0 line=13
G0   X046.5000   Y094.5001   Z003.0000   F2100
G0   X046.5000   Y094.5001   Z000.0000   F210
G0   X036.5000   Y094.5001   Z000.0000   F720
G0   X036.5000   Y094.5001   Z003.0000   F500

;Begin Line: layer=0 line=14
G0   X036.5000   Y094.0501   Z003.0000   F2100
G0   X036.5000   Y094.0501   Z000.0000   F210
G0   X046.5000   Y094.0501   Z000.0000   F720
G0   X046.5000   Y094.0501   Z003.0000   F500

;Begin Line: layer=0 line=15
G0   X046.5000   Y075.0000   Z003.0000   F2100
G0   X046.5000   Y075.0000   Z000.0000   F210
G0   X036.5000   Y075.0000   Z000.0000   F720
G0   X036.5000   Y075.0000   Z003.0000   F500

;Begin Line: layer=0 line=16
G0   X036.5000   Y074.5000   Z003.0000   F2100
G0   X036.5000   Y074.5000   Z000.0000   F210
G0   X046.5000   Y074.5000   Z000.0000   F720
G0   X046.5000   Y074.5000   Z003.0000   F500

;Begin Line: layer=0 line=17
G0   X046.5000   Y074.0000   Z003.0000   F2100
G0   X046.5000   Y074.0000   Z000.0000   F210
G0   X036.5000   Y074.0000   Z000.0000   F720
G0   X036.5000   Y074.0000   Z003.0000   F500

;Begin Line: layer=0 line=18
G0   X036.5000   Y055.0500   Z003.0000   F2100
G0   X036.5000   Y055.0500   Z000.0000   F210
G0   X046.5000   Y055.0500   Z000.0000   F720
G0   X046.5000   Y055.0500   Z003.0000   F500

;Begin Line: layer=0 line=19
G0   X046.5000   Y054.5000   Z003.0000   F2100
G0   X046.5000   Y054.5000   Z000.0000   F210
G0   X036.5000   Y054.5000   Z000.0000   F720
G0   X036.5000   Y054.5000   Z003.0000   F500

;Begin Line: layer=0 line=20
G0   X036.5000   Y053.9500   Z003.0000   F2100
G0   X036.5000   Y053.9500   Z000.0000   F210
G0   X046.5000   Y053.9500   Z000.0000   F720
G0   X046.5000   Y053.9500   Z003.0000   F500

;Begin Line: layer=0 line=21
G0   X046.5000   Y035.1000   Z003.0000   F2100
G0   X046.5000   Y035.1000   Z000.0000   F210
G0   X036.5000   Y035.1000   Z000.0000   F720
G0   X036.5000   Y035.1000   Z003.0000   F500

;Begin Line: layer=0 line=22
G0   X036.5000   Y034.5000   Z003.0000   F2100
G0   X036.5000   Y034.5000   Z000.0000   F210
G0   X046.5000   Y034.5000   Z000.0000   F720
G0   X046.5000   Y034.5000   Z003.0000   F500

;Begin Line: layer=0 line=23
G0   X046.5000   Y033.9000   Z003.0000   F2100
G0   X046.5000   Y033.9000   Z000.0000   F210
G0   X036.5000   Y033.9000   Z000.0000   F720
G0   X036.5000   Y033.9000   Z003.0000   F500

;Begin Line: layer=0 line=24
G0   X027.1000   Y029.5000   Z003.0000   F2100
G0   X027.1000   Y029.5000   Z000.0000   F210
G0   X027.1000   Y039.5000   Z000.0000   F720
G0   X027.1000   Y039.5000   Z003.0000   F500

;Begin Line: layer=0 line=25
G0   X026.5000   Y039.5000   Z003.0000   F2100
G0   X026.5000   Y039.5000   Z000.0000   F210
G0   X026.5000   Y029.5000   Z000.0000   F720
G0   X026.5000   Y029.5000   Z003.0000   F500

;Begin Line: layer=0 line=26
G0   X025.9000   Y029.5000   Z003.0000   F2100
G0   X025.9000   Y029.5000   Z000.0000   F210
G0   X025.9000   Y039.5000   Z000.0000   F720
G0   X025.9000   Y039.5000   Z003.0000   F500

;Begin Line: layer=0 line=27
G0   X025.9500   Y049.5000   Z003.0000   F2100
G0   X025.9500   Y049.5000   Z000.0000   F210
G0   X025.9500   Y059.5000   Z000.0000   F720
G0   X025.9500   Y059.5000   Z003.0000   F500

;Begin Line: layer=0 line=28
G0   X026.5000   Y059.5000   Z003.0000   F2100
G0   X026.5000   Y059.5000   Z000.0000   F210
G0   X026.5000   Y049.5000   Z000.0000   F720
G0   X026.5000   Y049.5000   Z003.0000   F500

;Begin Line: layer=0 line=29
G0   X027.0500   Y049.5000   Z003.0000   F2100
G0   X027.0500   Y049.5000   Z000.0000   F210
G0   X027.0500   Y059.5000   Z000.0000   F720
G0   X027.0500   Y059.5000   Z003.0000   F500

;Begin Line: layer=0 line=30
G0   X027.0000   Y069.5000   Z003.0000   F2100
G0   X027.0000   Y069.5000   Z000.0000   F210
G0   X027.0000   Y079.5000   Z000.0000   F720
G0   X027.0000   Y079.5000   Z003.0000   F500

;Begin Line: layer=0 line=31
G0   X026.5000   Y079.5000   Z003.0000   F2100
G0   X026.5000   Y079.5000   Z000.0000   F210
G0   X026.5000   Y069.5000   Z000.0000   F720
G0   X026.5000   Y069.5000   Z003.0000   F500

;Begin Line: layer=0 line=32
G0   X026.0000   Y069.5000   Z003.0000   F2100
G0   X026.0000   Y069.5000   Z000.0000   F210
G0   X026.0000   Y079.5000   Z000.0000   F720
G0   X026.0000   Y079.5000   Z003.0000   F500

;Begin Line: layer=0 line=33
G0   X026.0500   Y089.5000   Z003.0000   F2100
G0   X026.0500   Y089.5000   Z000.0000   F210
G0   X026.0500   Y099.5001   Z000.0000   F720
G0   X026.0500   Y099.5001   Z003.0000   F500

;Begin Line: layer=0 line=34
G0   X026.5000   Y099.5001   Z003.0000   F2100
G0   X026.5000   Y099.5001   Z000.0000   F210
G0   X026.5000   Y089.5000   Z000.0000   F720
G0   X026.5000   Y089.5000   Z003.0000   F500

;Begin Line: layer=0 line=35
G0   X026.9500   Y089.5000   Z003.0000   F2100
G0   X026.9500   Y089.5000   Z000.0000   F210
G0   X026.9500   Y099.5001   Z000.0000   F720
G0   X026.9500   Y099.5001   Z003.0000   F500

;Begin Line: layer=0 line=36
G0   X026.9000   Y109.5001   Z003.0000   F2100
G0   X026.9000   Y109.5001   Z000.0000   F210
G0   X026.9000   Y119.5001   Z000.0000   F720
G0   X026.9000   Y119.5001   Z003.0000   F500

;Begin Line: layer=0 line=37
G0   X026.5000   Y119.5001   Z003.0000   F2100
G0   X026.5000   Y119.5001   Z000.0000   F210
G0   X026.5000   Y109.5001   Z000.0000   F720
G0   X026.5000   Y109.5001   Z003.0000   F500

;Begin Line: layer=0 line=38
G0   X026.1000   Y109.5001   Z003.0000   F2100
G0   X026.1000   Y109.5001   Z000.0000   F210
G0   X026.1000   Y119.5001   Z000.0000   F720
G0   X026.1000   Y119.5001   Z003.0000   F500

;Begin Line: layer=0 line=39
G0   X026.1500   Y129.5001   Z003.0000   F2100
G0   X026.1500   Y129.5001   Z000.0000   F210
G0   X026.1500   Y139.5001   Z000.0000   F720
G0   X026.1500   Y139.5001   Z003.0000   F500

;Begin Line: layer=0 line=40
G0   X026.5000   Y139.5001   Z003.0000   F2100
G0   X026.5000   Y139.5001   Z000.0000   F210
G0   X026.5000   Y129.5001   Z000.0000   F720
G0   X026.5000   Y129.5001   Z003.0000   F500

;Begin Line: layer=0 line=41
G0   X026.8500   Y129.5001   Z003.0000   F2100
G0   X026.8500   Y129.5001   Z000.0000   F210
G0   X026.8500   Y139.5001   Z000.0000   F720
G0   X026.8500   Y139.5001   Z003.0000   F500

;Begin Line: layer=0 line=42
G0   X026.8000   Y149.5001   Z003.0000   F2100
G0   X026.8000   Y149.5001   Z000.0000   F210
G0   X026.8000   Y159.5001   Z000.0000   F720
G0   X026.8000   Y159.5001   Z003.0000   F500

;Begin Line: layer=0 line=43
G0   X026.5000   Y159.5001   Z003.0000   F2100
G0   X026.5000   Y159.5001   Z000.0000   F210
G0   X026.5000   Y149.5001   Z000.0000   F720
G0   X026.5000   Y149.5001   Z003.0000   F500

;Begin Line: layer=0 line=44
G0   X026.2000   Y149.5001   Z003.0000   F2100
G0   X026.2000   Y149.5001   Z000.0000   F210
G0   X026.2000   Y159.5001   Z000.0000   F720
G0   X026.2000   Y159.5001   Z003.0000   F500

;Begin Line: layer=0 line=45
G0   X026.2500   Y169.5001   Z003.0000   F2100
G0   X026.2500   Y169.5001   Z000.0000   F210
G0   X026.2500   Y179.5001   Z000.0000   F720
G0   X026.2500   Y179.5001   Z003.0000   F500

;Begin Line: layer=0 line=46
G0   X026.5000   Y179.5001   Z003.0000   F2100
G0   X026.5000   Y179.5001   Z000.0000   F210
G0   X026.5000   Y169.5001   Z000.0000   F720
G0   X026.5000   Y169.5001   Z003.0000   F500

;Begin Line: layer=0 line=47
G0   X026.7500   Y169.5001   Z003.0000   F2100
G0   X026.7500   Y169.5001   Z000.0000   F210
G0   X026.7500   Y179.5001   Z000.0000   F720
G0   X026.7500   Y179.5001   Z003.0000   F500

;Begin Line: layer=0 line=48
G0   X026.7000   Y189.5001   Z003.0000   F2100
G0   X026.7000   Y189.5001   Z000.0000   F210
G0   X026.7000   Y199.5001   Z000.0000   F720
G0   X026.7000   Y199.5001   Z003.0000   F500

;Begin Line: layer=0 line=49
G0   X026.5000   Y199.5001   Z003.0000   F2100
G0   X026.5000   Y199.5001   Z000.0000   F210
G0   X026.5000   Y189.5001   Z000.0000   F720
G0   X026.5000   Y189.5001   Z003.0000   F500

;Begin Line: layer=0 line=50
G0   X026.3000   Y189.5001   Z003.0000   F2100
G0   X026.3000   Y189.5001   Z000.0000   F210
G0   X026.3000   Y199.5001   Z000.0000   F720
G0   X026.3000   Y199.5001   Z003.0000   F500

;Begin Line: layer=0 line=51
G0   X036.5000   Y194.3001   Z003.0000   F2100
G0   X036.5000   Y194.3001   Z000.0000   F210
G0   X046.5000   Y194.3001   Z000.0000   F720
G0   X046.5000   Y194.3001   Z003.0000   F500

;Begin Line: layer=0 line=52
G0   X046.5000   Y194.5001   Z003.0000   F2100
G0   X046.5000   Y194.5001   Z000.0000   F210
G0   X036.5000   Y194.5001   Z000.0000   F720
G0   X036.5000   Y194.5001   Z003.0000   F500

;Begin Line: layer=0 line=53
G0   X036.5000   Y194.7001   Z003.0000   F2100
G0   X036.5000   Y194.7001   Z000.0000   F210
G0   X046.5000   Y194.7001   Z000.0000   F720
G0   X046.5000   Y194.7001   Z003.0000   F500

;Begin Line: layer=0 line=54
G0   X066.3000   Y194.5001   Z003.0000   F2100
G0   X066.3000   Y194.5001   Z000.0000   F210
G0   X066.2834   Y194.8991   Z000.0000   F720
G0   X066.2161   Y195.3937   Z000.0000   F720
G0   X066.0978   Y195.8785   Z000.0000   F720
G0   X065.9674   Y196.2560   Z000.0000   F720
G0   X065.8059   Y196.6212   Z000.0000   F720
G0   X065.5624   Y197.0569   Z000.0000   F720
G0   X065.2750   Y197.4649   Z000.0000   F720
G0   X064.9467   Y197.8408   Z000.0000   F720
G0   X064.5812   Y198.1807   Z000.0000   F720
G0   X064.1823   Y198.4807   Z000.0000   F720
G0   X063.8421   Y198.6899   Z000.0000   F720
G0   X063.3944   Y198.9105   Z000.0000   F720
G0   X063.0212   Y199.0527   Z000.0000   F720
G0   X062.5403   Y199.1860   Z000.0000   F720
G0   X062.0481   Y199.2687   Z000.0000   F720
G0   X061.5500   Y199.2999   Z000.0000   F720
G0   X061.1508   Y199.2874   Z000.0000   F720
G0   X060.6556   Y199.2252   Z000.0000   F720
G0   X060.1695   Y199.1120   Z000.0000   F720
G0   X059.6978   Y198.9489   Z000.0000   F720
G0   X059.3342   Y198.7837   Z000.0000   F720
G0   X058.9012   Y198.5357   Z000.0000   F720
G0   X058.4962   Y198.2440   Z000.0000   F720
G0   X058.1236   Y197.9118   Z000.0000   F720
G0   X057.8517   Y197.6194   Z000.0000   F720
G0   X057.5475   Y197.2236   Z000.0000   F720
G0   X057.2861   Y196.7985   Z000.0000   F720
G0   X057.0702   Y196.3485   Z000.0000   F720
G0   X056.9319   Y195.9739   Z000.0000   F720
G0   X056.8035   Y195.4916   Z000.0000   F720
G0   X056.7260   Y194.9985   Z000.0000   F720
G0   X056.7000   Y194.5001   Z000.0000   F720
G0   X056.7260   Y194.0017   Z000.0000   F720
G0   X056.8035   Y193.5086   Z000.0000   F720
G0   X056.9319   Y193.0263   Z000.0000   F720
G0   X057.0702   Y192.6517   Z000.0000   F720
G0   X057.2861   Y192.2017   Z000.0000   F720
G0   X057.4917   Y191.8594   Z000.0000   F720
G0   X057.7876   Y191.4574   Z000.0000   F720
G0   X058.0534   Y191.1594   Z000.0000   F720
G0   X058.4189   Y190.8195   Z000.0000   F720
G0   X058.8178   Y190.5195   Z000.0000   F720
G0   X059.2456   Y190.2625   Z000.0000   F720
G0   X059.6057   Y190.0897   Z000.0000   F720
G0   X060.0739   Y189.9169   Z000.0000   F720
G0   X060.5575   Y189.7936   Z000.0000   F720
G0   X061.0513   Y189.7211   Z000.0000   F720
G0   X061.4501   Y189.7004   Z000.0000   F720
G0   X061.9488   Y189.7211   Z000.0000   F720
G0   X062.4426   Y189.7936   Z000.0000   F720
G0   X062.9262   Y189.9169   Z000.0000   F720
G0   X063.3023   Y190.0513   Z000.0000   F720
G0   X063.7545   Y190.2625   Z000.0000   F720
G0   X064.1823   Y190.5195   Z000.0000   F720
G0   X064.5039   Y190.7562   Z000.0000   F720
G0   X064.8765   Y191.0884   Z000.0000   F720
G0   X065.1484   Y191.3808   Z000.0000   F720
G0   X065.4525   Y191.7766   Z000.0000   F720
G0   X065.7140   Y192.2017   Z000.0000   F720
G0   X065.9299   Y192.6517   Z000.0000   F720
G0   X066.0978   Y193.1217   Z000.0000   F720
G0   X066.1965   Y193.5086   Z000.0000   F720
G0   X066.2741   Y194.0017   Z000.0000   F720
G0   X066.3000   Y194.5001   Z000.0000   F720
G0   X066.3000   Y194.5001   Z003.0000   F500

;Begin Line: layer=0 line=55
G0   X066.5000   Y194.5001   Z003.0000   F2100
G0   X066.5000   Y194.5001   Z000.0000   F210
G0   X066.4752   Y194.9979   Z000.0000   F720
G0   X066.4009   Y195.4908   Z000.0000   F720
G0   X066.3063   Y195.8783   Z000.0000   F720
G0   X066.1452   Y196.3500   Z000.0000   F720
G0   X065.9380   Y196.8033   Z000.0000   F720
G0   X065.6866   Y197.2338   Z000.0000   F720
G0   X065.3936   Y197.6370   Z000.0000   F720
G0   X065.0619   Y198.0091   Z000.0000   F720
G0   X064.6948   Y198.3463   Z000.0000   F720
G0   X064.2960   Y198.6453   Z000.0000   F720
G0   X063.8694   Y198.9031   Z000.0000   F720
G0   X063.4192   Y199.1171   Z000.0000   F720
G0   X062.9500   Y199.2853   Z000.0000   F720
G0   X062.4663   Y199.4059   Z000.0000   F720
G0   X061.9731   Y199.4777   Z000.0000   F720
G0   X061.4751   Y199.5000   Z000.0000   F720
G0   X061.0767   Y199.4822   Z000.0000   F720
G0   X060.5827   Y199.4152   Z000.0000   F720
G0   X060.0979   Y199.2995   Z000.0000   F720
G0   X059.6270   Y199.1360   Z000.0000   F720
G0   X059.1747   Y198.9265   Z000.0000   F720
