;Generated with vpype gwrite fabian
G90 ; Use absolute position
G92 X0 Y0 Z0 ; Set the current position as (0,0,0)
G0   X000.0000   Y000.0000   Z003.0000   F500

;Begin Line: layer=0 line=0
G0   X006.4740   Y134.1769   Z003.0000   F2100
G0   X006.4740   Y134.1769   Z000.0000   F210
G0   X005.2917   Y132.2669   Z000.0000   F720
G0   X005.2917   Y132.2669   Z003.0000   F500

;Begin Line: layer=0 line=1
G0   X006.4740   Y134.1769   Z003.0000   F2100
G0   X006.4740   Y134.1769   Z000.0000   F210
G0   X006.5650   Y132.2669   Z000.0000   F720
G0   X006.5650   Y132.2669   Z003.0000   F500

;Begin Line: layer=0 line=2
G0   X006.3831   Y133.9950   Z003.0000   F2100
G0   X006.3831   Y133.9950   Z000.0000   F210
G0   X006.4740   Y132.2669   Z000.0000   F720
G0   X006.4740   Y132.2669   Z003.0000   F500

;Begin Line: layer=0 line=3
G0   X005.6555   Y132.8127   Z003.0000   F2100
G0   X005.6555   Y132.8127   Z000.0000   F210
G0   X006.4740   Y132.8127   Z000.0000   F720
G0   X006.4740   Y132.8127   Z003.0000   F500

;Begin Line: layer=0 line=4
G0   X005.1098   Y132.2669   Z003.0000   F2100
G0   X005.1098   Y132.2669   Z000.0000   F210
G0   X005.6555   Y132.2669   Z000.0000   F720
G0   X005.6555   Y132.2669   Z003.0000   F500

;Begin Line: layer=0 line=5
G0   X006.2012   Y132.2669   Z003.0000   F2100
G0   X006.2012   Y132.2669   Z000.0000   F210
G0   X006.7469   Y132.2669   Z000.0000   F720
G0   X006.7469   Y132.2669   Z003.0000   F500

;Begin Line: layer=0 line=6
G0   X008.6569   Y133.1765   Z003.0000   F2100
G0   X008.6569   Y133.1765   Z000.0000   F210
G0   X008.7478   Y133.3583   Z000.0000   F720
G0   X008.9297   Y133.5403   Z000.0000   F720
G0   X009.2025   Y133.5403   Z000.0000   F720
G0   X009.2935   Y133.4493   Z000.0000   F720
G0   X009.2935   Y133.2674   Z000.0000   F720
G0   X009.2025   Y132.9036   Z000.0000   F720
G0   X009.0207   Y132.2669   Z000.0000   F720
G0   X009.0207   Y132.2669   Z003.0000   F500

;Begin Line: layer=0 line=7
G0   X009.1116   Y133.5403   Z003.0000   F2100
G0   X009.1116   Y133.5403   Z000.0000   F210
G0   X009.2025   Y133.4493   Z000.0000   F720
G0   X009.2025   Y133.2674   Z000.0000   F720
G0   X009.1116   Y132.9036   Z000.0000   F720
G0   X008.9297   Y132.2669   Z000.0000   F720
G0   X008.9297   Y132.2669   Z003.0000   F500

;Begin Line: layer=0 line=8
G0   X009.2025   Y132.9036   Z003.0000   F2100
G0   X009.2025   Y132.9036   Z000.0000   F210
G0   X009.3845   Y133.2674   Z000.0000   F720
G0   X009.5663   Y133.4493   Z000.0000   F720
G0   X009.7483   Y133.5403   Z000.0000   F720
G0   X009.9301   Y133.5403   Z000.0000   F720
G0   X010.1121   Y133.4493   Z000.0000   F720
G0   X010.2030   Y133.3583   Z000.0000   F720
G0   X010.2030   Y133.1765   Z000.0000   F720
G0   X010.0211   Y132.6307   Z000.0000   F720
G0   X010.0211   Y132.3579   Z000.0000   F720
G0   X010.1121   Y132.2669   Z000.0000   F720
G0   X010.1121   Y132.2669   Z003.0000   F500

;Begin Line: layer=0 line=9
G0   X009.9301   Y133.5403   Z003.0000   F2100
G0   X009.9301   Y133.5403   Z000.0000   F210
G0   X010.1121   Y133.3583   Z000.0000   F720
G0   X010.1121   Y133.1765   Z000.0000   F720
G0   X009.9301   Y132.6307   Z000.0000   F720
G0   X009.9301   Y132.3579   Z000.0000   F720
G0   X010.0211   Y132.2669   Z000.0000   F720
G0   X010.2939   Y132.2669   Z000.0000   F720
G0   X010.4759   Y132.4488   Z000.0000   F720
G0   X010.5668   Y132.6307   Z000.0000   F720
G0   X010.5668   Y132.6307   Z003.0000   F500

;Begin Line: layer=0 line=10
G0   X011.0215   Y132.7217   Z003.0000   F2100
G0   X011.0215   Y132.7217   Z000.0000   F210
G0   X011.3853   Y132.8127   Z000.0000   F720
G0   X011.6582   Y132.9036   Z000.0000   F720
G0   X011.9311   Y133.0855   Z000.0000   F720
G0   X012.0220   Y133.2674   Z000.0000   F720
G0   X011.9311   Y133.4493   Z000.0000   F720
G0   X011.7491   Y133.5403   Z000.0000   F720
G0   X011.4763   Y133.5403   Z000.0000   F720
G0   X011.2035   Y133.4493   Z000.0000   F720
G0   X011.0215   Y133.1765   Z000.0000   F720
G0   X010.9306   Y132.9036   Z000.0000   F720
G0   X010.9306   Y132.6307   Z000.0000   F720
G0   X011.0215   Y132.4488   Z000.0000   F720
G0   X011.1125   Y132.3579   Z000.0000   F720
G0   X011.2944   Y132.2669   Z000.0000   F720
G0   X011.4763   Y132.2669   Z000.0000   F720
G0   X011.7491   Y132.3579   Z000.0000   F720
G0   X011.9311   Y132.5398   Z000.0000   F720
G0   X011.9311   Y132.5398   Z003.0000   F500

;Begin Line: layer=0 line=11
G0   X011.4763   Y133.5403   Z003.0000   F2100
G0   X011.4763   Y133.5403   Z000.0000   F210
G0   X011.2944   Y133.4493   Z000.0000   F720
G0   X011.1125   Y133.1765   Z000.0000   F720
G0   X011.0215   Y132.9036   Z000.0000   F720
G0   X011.0215   Y132.5398   Z000.0000   F720
G0   X011.1125   Y132.3579   Z000.0000   F720
G0   X011.1125   Y132.3579   Z003.0000   F500

;Begin Line: layer=0 line=12
G0   X012.3858   Y133.1765   Z003.0000   F2100
G0   X012.3858   Y133.1765   Z000.0000   F210
G0   X012.4768   Y133.3583   Z000.0000   F720
G0   X012.6587   Y133.5403   Z000.0000   F720
G0   X012.9315   Y133.5403   Z000.0000   F720
G0   X013.0225   Y133.4493   Z000.0000   F720
G0   X013.0225   Y133.1765   Z000.0000   F720
G0   X012.8406   Y132.6307   Z000.0000   F720
G0   X012.8406   Y132.4488   Z000.0000   F720
G0   X013.0225   Y132.2669   Z000.0000   F720
G0   X013.0225   Y132.2669   Z003.0000   F500

;Begin Line: layer=0 line=13
G0   X012.8406   Y133.5403   Z003.0000   F2100
G0   X012.8406   Y133.5403   Z000.0000   F210
G0   X012.9315   Y133.4493   Z000.0000   F720
G0   X012.9315   Y133.1765   Z000.0000   F720
G0   X012.7496   Y132.6307   Z000.0000   F720
G0   X012.7496   Y132.4488   Z000.0000   F720
G0   X012.8406   Y132.3579   Z000.0000   F720
G0   X013.0225   Y132.2669   Z000.0000   F720
G0   X013.2044   Y132.2669   Z000.0000   F720
G0   X013.3863   Y132.3579   Z000.0000   F720
G0   X013.5682   Y132.5398   Z000.0000   F720
G0   X013.6591   Y132.7217   Z000.0000   F720
G0   X013.6591   Y132.7217   Z003.0000   F500

;Begin Line: layer=0 line=14
G0   X013.8410   Y133.5403   Z003.0000   F2100
G0   X013.8410   Y133.5403   Z000.0000   F210
G0   X013.6591   Y132.7217   Z000.0000   F720
G0   X013.6591   Y132.4488   Z000.0000   F720
G0   X013.7501   Y132.3579   Z000.0000   F720
G0   X013.9320   Y132.2669   Z000.0000   F720
G0   X014.1139   Y132.2669   Z000.0000   F720
G0   X014.2958   Y132.3579   Z000.0000   F720
G0   X014.4777   Y132.5398   Z000.0000   F720
G0   X014.5686   Y132.7217   Z000.0000   F720
G0   X014.6596   Y133.0855   Z000.0000   F720
G0   X014.6596   Y133.5403   Z000.0000   F720
G0   X014.5686   Y133.5403   Z000.0000   F720
G0   X014.6596   Y133.3583   Z000.0000   F720
G0   X014.6596   Y133.3583   Z003.0000   F500

;Begin Line: layer=0 line=15
G0   X013.9320   Y133.5403   Z003.0000   F2100
G0   X013.9320   Y133.5403   Z000.0000   F210
G0   X013.7501   Y132.7217   Z000.0000   F720
G0   X013.7501   Y132.4488   Z000.0000   F720
G0   X013.9320   Y132.2669   Z000.0000   F720
G0   X013.9320   Y132.2669   Z003.0000   F500

;Begin Line: layer=0 line=16
G0   X017.1152   Y134.1769   Z003.0000   F2100
G0   X017.1152   Y134.1769   Z000.0000   F210
G0   X016.5695   Y132.2669   Z000.0000   F720
G0   X016.5695   Y132.2669   Z003.0000   F500

;Begin Line: layer=0 line=17
G0   X017.2062   Y134.1769   Z003.0000   F2100
G0   X017.2062   Y134.1769   Z000.0000   F210
G0   X016.6605   Y132.2669   Z000.0000   F720
G0   X016.6605   Y132.2669   Z003.0000   F500

;Begin Line: layer=0 line=18
G0   X016.8424   Y132.9036   Z003.0000   F2100
G0   X016.8424   Y132.9036   Z000.0000   F210
G0   X017.0243   Y133.2674   Z000.0000   F720
G0   X017.2062   Y133.4493   Z000.0000   F720
G0   X017.3881   Y133.5403   Z000.0000   F720
G0   X017.5700   Y133.5403   Z000.0000   F720
G0   X017.7519   Y133.4493   Z000.0000   F720
G0   X017.8428   Y133.3583   Z000.0000   F720
G0   X017.8428   Y133.1765   Z000.0000   F720
G0   X017.6609   Y132.6307   Z000.0000   F720
G0   X017.6609   Y132.3579   Z000.0000   F720
G0   X017.7519   Y132.2669   Z000.0000   F720
G0   X017.7519   Y132.2669   Z003.0000   F500

;Begin Line: layer=0 line=19
G0   X017.5700   Y133.5403   Z003.0000   F2100
G0   X017.5700   Y133.5403   Z000.0000   F210
G0   X017.7519   Y133.3583   Z000.0000   F720
G0   X017.7519   Y133.1765   Z000.0000   F720
G0   X017.5700   Y132.6307   Z000.0000   F720
G0   X017.5700   Y132.3579   Z000.0000   F720
G0   X017.6609   Y132.2669   Z000.0000   F720
G0   X017.9338   Y132.2669   Z000.0000   F720
G0   X018.1157   Y132.4488   Z000.0000   F720
G0   X018.2067   Y132.6307   Z000.0000   F720
G0   X018.2067   Y132.6307   Z003.0000   F500

;Begin Line: layer=0 line=20
G0   X016.8424   Y134.1769   Z003.0000   F2100
G0   X016.8424   Y134.1769   Z000.0000   F210
G0   X017.2062   Y134.1769   Z000.0000   F720
G0   X017.2062   Y134.1769   Z003.0000   F500

;Begin Line: layer=0 line=21
G0   X019.1162   Y133.5403   Z003.0000   F2100
G0   X019.1162   Y133.5403   Z000.0000   F210
G0   X018.8433   Y133.4493   Z000.0000   F720
G0   X018.6614   Y133.1765   Z000.0000   F720
G0   X018.5705   Y132.9036   Z000.0000   F720
G0   X018.5705   Y132.6307   Z000.0000   F720
G0   X018.6614   Y132.4488   Z000.0000   F720
G0   X018.7524   Y132.3579   Z000.0000   F720
G0   X018.9343   Y132.2669   Z000.0000   F720
G0   X019.1162   Y132.2669   Z000.0000   F720
G0   X019.3890   Y132.3579   Z000.0000   F720
G0   X019.5709   Y132.6307   Z000.0000   F720
G0   X019.6619   Y132.9036   Z000.0000   F720
G0   X019.6619   Y133.1765   Z000.0000   F720
G0   X019.5709   Y133.3583   Z000.0000   F720
G0   X019.4800   Y133.4493   Z000.0000   F720
G0   X019.2981   Y133.5403   Z000.0000   F720
G0   X019.1162   Y133.5403   Z000.0000   F720
G0   X019.1162   Y133.5403   Z003.0000   F500

;Begin Line: layer=0 line=22
G0   X019.1162   Y133.5403   Z003.0000   F2100
G0   X019.1162   Y133.5403   Z000.0000   F210
G0   X018.9343   Y133.4493   Z000.0000   F720
G0   X018.7524   Y133.1765   Z000.0000   F720
G0   X018.6614   Y132.9036   Z000.0000   F720
G0   X018.6614   Y132.5398   Z000.0000   F720
G0   X018.7524   Y132.3579   Z000.0000   F720
G0   X018.7524   Y132.3579   Z003.0000   F500

;Begin Line: layer=0 line=23
G0   X019.1162   Y132.2669   Z003.0000   F2100
G0   X019.1162   Y132.2669   Z000.0000   F210
G0   X019.2981   Y132.3579   Z000.0000   F720
G0   X019.4800   Y132.6307   Z000.0000   F720
G0   X019.5709   Y132.9036   Z000.0000   F720
G0   X019.5709   Y133.2674   Z000.0000   F720
G0   X019.4800   Y133.4493   Z000.0000   F720
G0   X019.4800   Y133.4493   Z003.0000   F500

;Begin Line: layer=0 line=24
G0   X020.0257   Y133.1765   Z003.0000   F2100
G0   X020.0257   Y133.1765   Z000.0000   F210
G0   X020.1166   Y133.3583   Z000.0000   F720
G0   X020.2985   Y133.5403   Z000.0000   F720
G0   X020.5714   Y133.5403   Z000.0000   F720
G0   X020.6623   Y133.4493   Z000.0000   F720
G0   X020.6623   Y133.2674   Z000.0000   F720
G0   X020.5714   Y132.9036   Z000.0000   F720
G0   X020.3895   Y132.2669   Z000.0000   F720
G0   X020.3895   Y132.2669   Z003.0000   F500

;Begin Line: layer=0 line=25
G0   X020.4804   Y133.5403   Z003.0000   F2100
G0   X020.4804   Y133.5403   Z000.0000   F210
G0   X020.5714   Y133.4493   Z000.0000   F720
G0   X020.5714   Y133.2674   Z000.0000   F720
G0   X020.4804   Y132.9036   Z000.0000   F720
G0   X020.2985   Y132.2669   Z000.0000   F720
G0   X020.2985   Y132.2669   Z003.0000   F500

;Begin Line: layer=0 line=26
G0   X020.5714   Y132.9036   Z003.0000   F2100
G0   X020.5714   Y132.9036   Z000.0000   F210
G0   X020.7533   Y133.2674   Z000.0000   F720
G0   X020.9352   Y133.4493   Z000.0000   F720
G0   X021.1171   Y133.5403   Z000.0000   F720
G0   X021.2990   Y133.5403   Z000.0000   F720
G0   X021.4809   Y133.4493   Z000.0000   F720
G0   X021.5718   Y133.3583   Z000.0000   F720
G0   X021.5718   Y133.1765   Z000.0000   F720
G0   X021.2990   Y132.2669   Z000.0000   F720
G0   X021.2990   Y132.2669   Z003.0000   F500

;Begin Line: layer=0 line=27
G0   X021.2990   Y133.5403   Z003.0000   F2100
G0   X021.2990   Y133.5403   Z000.0000   F210
G0   X021.4809   Y133.3583   Z000.0000   F720
G0   X021.4809   Y133.1765   Z000.0000   F720
G0   X021.2080   Y132.2669   Z000.0000   F720
G0   X021.2080   Y132.2669   Z003.0000   F500

;Begin Line: layer=0 line=28
G0   X021.4809   Y132.9036   Z003.0000   F2100
G0   X021.4809   Y132.9036   Z000.0000   F210
G0   X021.6628   Y133.2674   Z000.0000   F720
G0   X021.8447   Y133.4493   Z000.0000   F720
G0   X022.0266   Y133.5403   Z000.0000   F720
G0   X022.2085   Y133.5403   Z000.0000   F720
G0   X022.3904   Y133.4493   Z000.0000   F720
G0   X022.4813   Y133.3583   Z000.0000   F720
G0   X022.4813   Y133.1765   Z000.0000   F720
G0   X022.2994   Y132.6307   Z000.0000   F720
G0   X022.2994   Y132.3579   Z000.0000   F720
G0   X022.3904   Y132.2669   Z000.0000   F720
G0   X022.3904   Y132.2669   Z003.0000   F500

;Begin Line: layer=0 line=29
G0   X022.2085   Y133.5403   Z003.0000   F2100
G0   X022.2085   Y133.5403   Z000.0000   F210
G0   X022.3904   Y133.3583   Z000.0000   F720
G0   X022.3904   Y133.1765   Z000.0000   F720
G0   X022.2085   Y132.6307   Z000.0000   F720
G0   X022.2085   Y132.3579   Z000.0000   F720
G0   X022.2994   Y132.2669   Z000.0000   F720
G0   X022.5723   Y132.2669   Z000.0000   F720
G0   X022.7542   Y132.4488   Z000.0000   F720
G0   X022.8451   Y132.6307   Z000.0000   F720
G0   X022.8451   Y132.6307   Z003.0000   F500

;Begin Line: layer=0 line=30
G0   X023.2999   Y132.7217   Z003.0000   F2100
G0   X023.2999   Y132.7217   Z000.0000   F210
G0   X023.6637   Y132.8127   Z000.0000   F720
G0   X023.9365   Y132.9036   Z000.0000   F720
G0   X024.2094   Y133.0855   Z000.0000   F720
G0   X024.3004   Y133.2674   Z000.0000   F720
G0   X024.2094   Y133.4493   Z000.0000   F720
G0   X024.0275   Y133.5403   Z000.0000   F720
G0   X023.7546   Y133.5403   Z000.0000   F720
G0   X023.4818   Y133.4493   Z000.0000   F720
G0   X023.2999   Y133.1765   Z000.0000   F720
G0   X023.2089   Y132.9036   Z000.0000   F720
G0   X023.2089   Y132.6307   Z000.0000   F720
G0   X023.2999   Y132.4488   Z000.0000   F720
G0   X023.3908   Y132.3579   Z000.0000   F720
G0   X023.5727   Y132.2669   Z000.0000   F720
G0   X023.7546   Y132.2669   Z000.0000   F720
G0   X024.0275   Y132.3579   Z000.0000   F720
G0   X024.2094   Y132.5398   Z000.0000   F720
G0   X024.2094   Y132.5398   Z003.0000   F500

;Begin Line: layer=0 line=31
G0   X023.7546   Y133.5403   Z003.0000   F2100
G0   X023.7546   Y133.5403   Z000.0000   F210
G0   X023.5727   Y133.4493   Z000.0000   F720
G0   X023.3908   Y133.1765   Z000.0000   F720
G0   X023.2999   Y132.9036   Z000.0000   F720
G0   X023.2999   Y132.5398   Z000.0000   F720
G0   X023.3908   Y132.3579   Z000.0000   F720
G0   X023.3908   Y132.3579   Z003.0000   F500

;Begin Line: layer=0 line=32
G0   X024.8460   Y132.2669   Z003.0000   F2100
G0   X024.8460   Y132.2669   Z000.0000   F210
G0   X024.7551   Y132.3579   Z000.0000   F720
G0   X024.8460   Y132.4488   Z000.0000   F720
G0   X024.9370   Y132.3579   Z000.0000   F720
G0   X024.9370   Y132.2669   Z000.0000   F720
G0   X024.8460   Y132.0850   Z000.0000   F720
G0   X024.6642   Y131.9031   Z000.0000   F720
G0   X024.6642   Y131.9031   Z003.0000   F500

;Begin Line: layer=0 line=33
G0   X028.3931   Y134.0859   Z003.0000   F2100
G0   X028.3931   Y134.0859   Z000.0000   F210
G0   X028.3022   Y133.9950   Z000.0000   F720
G0   X028.3931   Y133.9041   Z000.0000   F720
G0   X028.4841   Y133.9950   Z000.0000   F720
G0   X028.4841   Y134.0859   Z000.0000   F720
G0   X028.3931   Y134.1769   Z000.0000   F720
G0   X028.2112   Y134.1769   Z000.0000   F720
G0   X028.0293   Y134.0859   Z000.0000   F720
G0   X027.9384   Y133.9950   Z000.0000   F720
G0   X027.8474   Y133.8131   Z000.0000   F720
G0   X027.7564   Y133.5403   Z000.0000   F720
G0   X027.4836   Y132.2669   Z000.0000   F720
G0   X027.3926   Y131.9031   Z000.0000   F720
G0   X027.3017   Y131.7212   Z000.0000   F720
G0   X027.3017   Y131.7212   Z003.0000   F500

;Begin Line: layer=0 line=34
