;Generated with vpype gwrite fabian
G90 ; Use absolute position
G92 X0 Y0 Z0 ; Set the current position as (0,0,0)
G0   X000.0000   Y000.0000   Z003.0000   F500

;Begin Line: layer=0 line=0
G0   X118.3489   Y140.5953   Z003.0000   F2100
G0   X118.3489   Y140.5953   Z000.0000   F210
G0   X121.1428   Y140.2486   Z000.0000   F720
G0   X125.0998   Y140.2958   Z000.0000   F720
G0   X127.7352   Y140.1607   Z000.0000   F720
G0   X130.3457   Y139.7756   Z000.0000   F720
G0   X133.3500   Y139.0913   Z000.0000   F720
G0   X133.3500   Y139.0913   Z003.0000   F500

;Begin Line: layer=0 line=1
G0   X133.3500   Y139.5901   Z003.0000   F2100
G0   X133.3500   Y139.5901   Z000.0000   F210
G0   X130.7478   Y140.1674   Z000.0000   F720
G0   X128.1365   Y140.5475   Z000.0000   F720
G0   X125.5016   Y140.6926   Z000.0000   F720
G0   X121.5444   Y140.5874   Z000.0000   F720
G0   X118.5180   Y140.8883   Z000.0000   F720
G0   X118.5180   Y140.8883   Z003.0000   F500

;Begin Line: layer=0 line=2
G0   X118.9397   Y141.6188   Z003.0000   F2100
G0   X118.9397   Y141.6188   Z000.0000   F210
G0   X122.0555   Y141.6030   Z000.0000   F720
G0   X124.6924   Y141.7219   Z000.0000   F720
G0   X127.3311   Y141.6650   Z000.0000   F720
G0   X129.9608   Y141.4412   Z000.0000   F720
G0   X133.3500   Y140.9115   Z000.0000   F720
G0   X133.3500   Y140.9115   Z003.0000   F500

;Begin Line: layer=0 line=3
G0   X133.3500   Y144.5368   Z003.0000   F2100
G0   X133.3500   Y144.5368   Z000.0000   F210
G0   X131.5396   Y144.1672   Z000.0000   F720
G0   X130.2270   Y144.0298   Z000.0000   F720
G0   X123.6314   Y143.8463   Z000.0000   F720
G0   X122.3172   Y143.7253   Z000.0000   F720
G0   X119.8040   Y143.1157   Z000.0000   F720
G0   X119.8040   Y143.1157   Z003.0000   F500

;Begin Line: layer=0 line=4
G0   X119.1144   Y141.9213   Z003.0000   F2100
G0   X119.1144   Y141.9213   Z000.0000   F210
G0   X119.3250   Y141.9316   Z000.0000   F720
G0   X119.3250   Y141.9316   Z003.0000   F500

;Begin Line: layer=0 line=5
G0   X121.4373   Y140.3957   Z003.0000   F2100
G0   X121.4373   Y140.3957   Z000.0000   F210
G0   X118.4270   Y140.7308   Z000.0000   F720
G0   X122.0139   Y140.4128   Z000.0000   F720
G0   X124.6515   Y140.5142   Z000.0000   F720
G0   X127.2893   Y140.4387   Z000.0000   F720
G0   X129.9092   Y140.1217   Z000.0000   F720
G0   X133.3500   Y139.3504   Z000.0000   F720
G0   X130.6388   Y139.9400   Z000.0000   F720
G0   X128.0293   Y140.3319   Z000.0000   F720
G0   X125.3946   Y140.4810   Z000.0000   F720
G0   X121.4373   Y140.3957   Z000.0000   F720
G0   X121.4373   Y140.3957   Z003.0000   F500

;Begin Line: layer=0 line=6
G0   X121.6823   Y138.0547   Z003.0000   F2100
G0   X121.6823   Y138.0547   Z000.0000   F210
G0   X119.0777   Y138.4824   Z000.0000   F720
G0   X117.2303   Y138.6580   Z000.0000   F720
G0   X117.2303   Y138.6580   Z003.0000   F500

;Begin Line: layer=0 line=7
G0   X117.5658   Y139.2392   Z003.0000   F2100
G0   X117.5658   Y139.2392   Z000.0000   F210
G0   X121.8620   Y138.6681   Z000.0000   F720
G0   X125.8084   Y138.3694   Z000.0000   F720
G0   X127.1033   Y138.1142   Z000.0000   F720
G0   X130.9090   Y137.0229   Z000.0000   F720
G0   X133.3500   Y136.5631   Z000.0000   F720
G0   X133.3500   Y136.5631   Z003.0000   F500

;Begin Line: layer=0 line=8
G0   X133.3500   Y136.6750   Z003.0000   F2100
G0   X133.3500   Y136.6750   Z000.0000   F210
G0   X130.5295   Y137.2448   Z000.0000   F720
G0   X126.7141   Y138.2987   Z000.0000   F720
G0   X125.4116   Y138.5125   Z000.0000   F720
G0   X121.4617   Y138.7718   Z000.0000   F720
G0   X117.6059   Y139.3085   Z000.0000   F720
G0   X117.6059   Y139.3085   Z003.0000   F500

;Begin Line: layer=0 line=9
G0   X117.8134   Y139.6678   Z003.0000   F2100
G0   X117.8134   Y139.6678   Z000.0000   F210
G0   X121.7807   Y139.1407   Z000.0000   F720
G0   X124.4197   Y139.0895   Z000.0000   F720
G0   X127.0454   Y138.8331   Z000.0000   F720
G0   X133.3500   Y137.3682   Z000.0000   F720
G0   X133.3500   Y137.3682   Z003.0000   F500

;Begin Line: layer=0 line=10
G0   X133.3500   Y137.6642   Z003.0000   F2100
G0   X133.3500   Y137.6642   Z000.0000   F210
G0   X127.2472   Y139.0441   Z000.0000   F720
G0   X124.6194   Y139.2810   Z000.0000   F720
G0   X121.9799   Y139.2982   Z000.0000   F720
G0   X117.8966   Y139.8120   Z000.0000   F720
G0   X117.8966   Y139.8120   Z003.0000   F500

;Begin Line: layer=0 line=11
G0   X118.0692   Y140.1110   Z003.0000   F2100
G0   X118.0692   Y140.1110   Z000.0000   F210
G0   X121.0972   Y139.7124   Z000.0000   F720
G0   X125.0544   Y139.6779   Z000.0000   F720
G0   X127.6847   Y139.4695   Z000.0000   F720
G0   X130.2787   Y138.9849   Z000.0000   F720
G0   X133.3500   Y138.2525   Z000.0000   F720
G0   X128.0461   Y139.4186   Z000.0000   F720
G0   X126.7361   Y139.5798   Z000.0000   F720
G0   X124.0995   Y139.6821   Z000.0000   F720
G0   X124.0995   Y139.6821   Z003.0000   F500

;Begin Line: layer=0 line=12
G0   X122.6573   Y139.5329   Z003.0000   F2100
G0   X122.6573   Y139.5329   Z000.0000   F210
G0   X125.2965   Y139.5472   Z000.0000   F720
G0   X127.9224   Y139.2892   Z000.0000   F720
G0   X133.3500   Y138.0823   Z000.0000   F720
G0   X133.3500   Y138.0823   Z003.0000   F500

;Begin Line: layer=0 line=13
G0   X133.3500   Y137.8993   Z003.0000   F2100
G0   X133.3500   Y137.8993   Z000.0000   F210
G0   X127.5798   Y139.1860   Z000.0000   F720
G0   X126.2699   Y139.3474   Z000.0000   F720
G0   X123.6328   Y139.4375   Z000.0000   F720
G0   X123.6328   Y139.4375   Z003.0000   F500

;Begin Line: layer=0 line=14
G0   X126.0204   Y138.8577   Z003.0000   F2100
G0   X126.0204   Y138.8577   Z000.0000   F210
G0   X122.0668   Y139.0366   Z000.0000   F720
G0   X117.7622   Y139.5791   Z000.0000   F720
G0   X121.9496   Y139.0693   Z000.0000   F720
G0   X124.5886   Y139.0104   Z000.0000   F720
G0   X127.2101   Y138.7144   Z000.0000   F720
G0   X133.3500   Y137.2413   Z000.0000   F720
G0   X128.6125   Y138.3658   Z000.0000   F720
G0   X126.0204   Y138.8577   Z000.0000   F720
G0   X126.0204   Y138.8577   Z003.0000   F500

;Begin Line: layer=0 line=15
G0   X127.5144   Y145.1775   Z003.0000   F2100
G0   X127.5144   Y145.1775   Z000.0000   F210
G0   X130.0859   Y145.7640   Z000.0000   F720
G0   X131.3065   Y146.2661   Z000.0000   F720
G0   X132.4315   Y146.9562   Z000.0000   F720
G0   X133.3500   Y147.7295   Z000.0000   F720
G0   X133.3500   Y147.7295   Z003.0000   F500

;Begin Line: layer=0 line=16
G0   X130.1076   Y148.3409   Z003.0000   F2100
G0   X130.1076   Y148.3409   Z000.0000   F210
G0   X131.1888   Y149.0979   Z000.0000   F720
G0   X133.3500   Y151.0986   Z000.0000   F720
G0   X133.3500   Y151.0986   Z003.0000   F500

;Begin Line: layer=0 line=17
G0   X133.3500   Y151.5943   Z003.0000   F2100
G0   X133.3500   Y151.5943   Z000.0000   F210
G0   X131.4914   Y149.8707   Z000.0000   F720
G0   X130.4395   Y149.0737   Z000.0000   F720
G0   X129.3056   Y148.3982   Z000.0000   F720
G0   X126.8576   Y147.4171   Z000.0000   F720
G0   X123.0304   Y146.4033   Z000.0000   F720
G0   X121.2732   Y145.6604   Z000.0000   F720
G0   X121.2732   Y145.6604   Z003.0000   F500

;Begin Line: layer=0 line=18
G0   X122.7228   Y148.1712   Z003.0000   F2100
G0   X122.7228   Y148.1712   Z000.0000   F210
G0   X129.4816   Y151.0668   Z000.0000   F720
G0   X130.6353   Y151.7077   Z000.0000   F720
G0   X132.7753   Y153.2512   Z000.0000   F720
G0   X132.7753   Y153.2512   Z003.0000   F500

;Begin Line: layer=0 line=19
G0   X133.3500   Y153.8702   Z003.0000   F2100
G0   X133.3500   Y153.8702   Z000.0000   F210
G0   X131.2890   Y152.3404   Z000.0000   F720
G0   X130.1643   Y151.6498   Z000.0000   F720
G0   X127.7801   Y150.5184   Z000.0000   F720
G0   X122.8894   Y148.4598   Z000.0000   F720
G0   X122.8894   Y148.4598   Z003.0000   F500

;Begin Line: layer=0 line=20
G0   X125.0893   Y152.2702   Z003.0000   F2100
G0   X125.0893   Y152.2702   Z000.0000   F210
G0   X126.9436   Y153.6699   Z000.0000   F720
G0   X129.2440   Y154.9639   Z000.0000   F720
G0   X129.2440   Y154.9639   Z003.0000   F500

;Begin Line: layer=0 line=21
G0   X126.7056   Y155.0697   Z003.0000   F2100
G0   X126.7056   Y155.0697   Z000.0000   F210
G0   X128.9259   Y157.3353   Z000.0000   F720
G0   X129.9630   Y158.1517   Z000.0000   F720
G0   X133.2554   Y160.0336   Z000.0000   F720
G0   X133.2554   Y160.0336   Z003.0000   F500

;Begin Line: layer=0 line=22
G0   X132.9609   Y160.2036   Z003.0000   F2100
G0   X132.9609   Y160.2036   Z000.0000   F210
G0   X130.1962   Y158.6522   Z000.0000   F720
G0   X129.1282   Y157.8767   Z000.0000   F720
G0   X127.1146   Y155.7780   Z000.0000   F720
G0   X127.1146   Y155.7780   Z003.0000   F500

;Begin Line: layer=0 line=23
G0   X126.4604   Y156.6794   Z003.0000   F2100
G0   X126.4604   Y156.6794   Z000.0000   F210
G0   X127.4479   Y158.0963   Z000.0000   F720
G0   X128.3568   Y159.0533   Z000.0000   F720
G0   X129.4197   Y159.8357   Z000.0000   F720
G0   X131.5817   Y161.0000   Z000.0000   F720
G0   X131.5817   Y161.0000   Z003.0000   F500

;Begin Line: layer=0 line=24
G0   X131.3436   Y161.1374   Z003.0000   F2100
G0   X131.3436   Y161.1374   Z000.0000   F210
G0   X129.2989   Y160.0448   Z000.0000   F720
G0   X128.2336   Y159.2657   Z000.0000   F720
G0   X127.3263   Y158.3071   Z000.0000   F720
G0   X126.2358   Y156.6794   Z000.0000   F720
G0   X126.2358   Y156.6794   Z003.0000   F500

;Begin Line: layer=0 line=25
G0   X126.1324   Y156.6794   Z003.0000   F2100
G0   X126.1324   Y156.6794   Z000.0000   F210
G0   X127.1881   Y158.3003   Z000.0000   F720
G0   X128.0778   Y159.2752   Z000.0000   F720
G0   X128.0778   Y159.2752   Z003.0000   F500

;Begin Line: layer=0 line=26
G0   X130.4807   Y161.6356   Z003.0000   F2100
G0   X130.4807   Y161.6356   Z000.0000   F210
G0   X128.6148   Y160.6236   Z000.0000   F720
G0   X127.5822   Y159.8016   Z000.0000   F720
G0   X126.7213   Y158.8012   Z000.0000   F720
G0   X125.4930   Y156.6794   Z000.0000   F720
G0   X125.4930   Y156.6794   Z003.0000   F500

;Begin Line: layer=0 line=27
G0   X123.7645   Y156.6794   Z003.0000   F2100
G0   X123.7645   Y156.6794   Z000.0000   F210
G0   X124.5507   Y158.8348   Z000.0000   F720
G0   X125.1031   Y160.0334   Z000.0000   F720
G0   X126.4999   Y162.2703   Z000.0000   F720
G0   X127.3691   Y163.2635   Z000.0000   F720
G0   X127.3691   Y163.2635   Z003.0000   F500

;Begin Line: layer=0 line=28
G0   X127.1563   Y163.5550   Z003.0000   F2100
G0   X127.1563   Y163.5550   Z000.0000   F210
G0   X126.1901   Y162.3485   Z000.0000   F720
G0   X124.8814   Y160.0580   Z000.0000   F720
G0   X123.5873   Y156.6794   Z000.0000   F720
G0   X123.5873   Y156.6794   Z003.0000   F500

;Begin Line: layer=0 line=29
G0   X123.2638   Y156.6794   Z003.0000   F2100
G0   X123.2638   Y156.6794   Z000.0000   F210
G0   X123.9307   Y158.6762   Z000.0000   F720
G0   X124.9640   Y161.1041   Z000.0000   F720
G0   X125.5670   Y162.2781   Z000.0000   F720
G0   X126.5766   Y163.8897   Z000.0000   F720
G0   X126.5766   Y163.8897   Z003.0000   F500

;Begin Line: layer=0 line=30
G0   X127.0257   Y163.6303   Z003.0000   F2100
G0   X127.0257   Y163.6303   Z000.0000   F210
G0   X126.2115   Y162.5666   Z000.0000   F720
G0   X125.5212   Y161.4417   Z000.0000   F720
G0   X124.3685   Y159.0687   Z000.0000   F720
G0   X124.3685   Y159.0687   Z003.0000   F500

;Begin Line: layer=0 line=31
G0   X124.1489   Y160.1129   Z003.0000   F2100
G0   X124.1489   Y160.1129   Z000.0000   F210
G0   X122.9641   Y156.6794   Z000.0000   F720
G0   X122.9641   Y156.6794   Z003.0000   F500

;Begin Line: layer=0 line=32
G0   X123.1068   Y156.6794   Z003.0000   F2100
G0   X123.1068   Y156.6794   Z000.0000   F210
G0   X124.1278   Y159.6463   Z000.0000   F720
G0   X124.6461   Y160.8600   Z000.0000   F720
G0   X126.3039   Y164.0471   Z000.0000   F720
G0   X126.3039   Y164.0471   Z003.0000   F500

;Begin Line: layer=0 line=33
G0   X125.1448   Y163.4173   Z003.0000   F2100
G0   X125.1448   Y163.4173   Z000.0000   F210
G0   X125.5825   Y164.4636   Z000.0000   F720
G0   X123.6387   Y159.6028   Z000.0000   F720
G0   X122.6724   Y156.6794   Z000.0000   F720
G0   X122.6724   Y156.6794   Z003.0000   F500

;Begin Line: layer=0 line=34
G0   X122.6051   Y156.6794   Z003.0000   F2100
G0   X122.6051   Y156.6794   Z000.0000   F210
G0   X123.6884   Y159.9411   Z000.0000   F720
G0   X125.5092   Y164.5059   Z000.0000   F720
G0   X125.5092   Y164.5059   Z003.0000   F500

;Begin Line: layer=0 line=35
G0   X125.3316   Y164.6084   Z003.0000   F2100
G0   X125.3316   Y164.6084   Z000.0000   F210
G0   X123.6087   Y160.0844   Z000.0000   F720
G0   X122.4818   Y156.6794   Z000.0000   F720
G0   X122.4818   Y156.6794   Z003.0000   F500

;Begin Line: layer=0 line=36
G0   X122.2756   Y156.6794   Z003.0000   F2100
G0   X122.2756   Y156.6794   Z000.0000   F210
G0   X125.0351   Y164.7796   Z000.0000   F720
G0   X124.7160   Y163.7915   Z000.0000   F720
G0   X124.7160   Y163.7915   Z003.0000   F500

;Begin Line: layer=0 line=37
G0   X124.8630   Y164.8789   Z003.0000   F2100
G0   X124.8630   Y164.8789   Z000.0000   F210
G0   X122.1267   Y156.6794   Z000.0000   F720
G0   X122.1267   Y156.6794   Z003.0000   F500

;Begin Line: layer=0 line=38
G0   X121.7231   Y156.8560   Z003.0000   F2100
G0   X121.7231   Y156.8560   Z000.0000   F210
G0   X123.7502   Y163.1357   Z000.0000   F720
G0   X124.2997   Y165.2042   Z000.0000   F720
G0   X124.2997   Y165.2042   Z003.0000   F500

;Begin Line: layer=0 line=39
G0   X124.1498   Y165.2908   Z003.0000   F2100
G0   X124.1498   Y165.2908   Z000.0000   F210
G0   X122.8405   Y160.6923   Z000.0000   F720
G0   X122.8405   Y160.6923   Z003.0000   F500

;Begin Line: layer=0 line=40
G0   X124.1583   Y160.4567   Z003.0000   F2100
G0   X124.1583   Y160.4567   Z000.0000   F210
G0   X125.8513   Y164.3084   Z000.0000   F720
G0   X123.9259   Y159.9738   Z000.0000   F720
G0   X122.8134   Y156.6794   Z000.0000   F720
G0   X124.1583   Y160.4567   Z000.0000   F720
G0   X124.1583   Y160.4567   Z003.0000   F500

;Begin Line: layer=0 line=41
G0   X123.4913   Y162.5940   Z003.0000   F2100
G0   X123.4913   Y162.5940   Z000.0000   F210
G0   X121.5763   Y156.6794   Z000.0000   F720
G0   X121.5763   Y156.6794   Z003.0000   F500

;Begin Line: layer=0 line=42
G0   X121.4534   Y156.6794   Z003.0000   F2100
G0   X121.4534   Y156.6794   Z000.0000   F210
G0   X123.0614   Y161.6280   Z000.0000   F720
G0   X124.0816   Y165.3301   Z000.0000   F720
G0   X124.0816   Y165.3301   Z003.0000   F500

;Begin Line: layer=0 line=43
G0   X123.5336   Y165.6465   Z003.0000   F2100
G0   X123.5336   Y165.6465   Z000.0000   F210
G0   X121.9367   Y159.6409   Z000.0000   F720
G0   X120.8817   Y156.6794   Z000.0000   F720
G0   X120.8817   Y156.6794   Z003.0000   F500

;Begin Line: layer=0 line=44
G0   X119.3086   Y157.1714   Z003.0000   F2100
G0   X119.3086   Y157.1714   Z000.0000   F210
G0   X119.0639   Y156.6794   Z000.0000   F720
G0   X119.0639   Y156.6794   Z003.0000   F500

;Begin Line: layer=0 line=45
G0   X119.1828   Y156.6794   Z003.0000   F2100
G0   X119.1828   Y156.6794   Z000.0000   F210
G0   X120.4142   Y159.5344   Z000.0000   F720
G0   X121.4361   Y163.3589   Z000.0000   F720
G0   X122.3737   Y166.3162   Z000.0000   F720
G0   X122.3737   Y166.3162   Z003.0000   F500

;Begin Line: layer=0 line=46
G0   X122.0026   Y166.5304   Z003.0000   F2100
G0   X122.0026   Y166.5304   Z000.0000   F210
G0   X120.9943   Y163.7599   Z000.0000   F720
G0   X119.9033   Y159.9546   Z000.0000   F720
G0   X119.4304   Y158.7224   Z000.0000   F720
G0   X118.4194   Y156.6794   Z000.0000   F720
G0   X118.4194   Y156.6794   Z003.0000   F500

;Begin Line: layer=0 line=47
G0   X118.1624   Y156.6794   Z003.0000   F2100
G0   X118.1624   Y156.6794   Z000.0000   F210
G0   X119.1174   Y158.5406   Z000.0000   F720
G0   X119.6214   Y159.7604   Z000.0000   F720
G0   X120.7452   Y163.5562   Z000.0000   F720
G0   X121.8866   Y166.5974   Z000.0000   F720
G0   X121.8866   Y166.5974   Z003.0000   F500

;Begin Line: layer=0 line=48
G0   X121.2925   Y166.9404   Z003.0000   F2100
