;Generated with vpype gwrite fabian
G90 ; Use absolute position
G92 X0 Y0 Z0 ; Set the current position as (0,0,0)
G0   X000.0000   Y000.0000   Z003.0000   F500

;Begin Line: layer=0 line=0
G0   X036.2343   Y069.8000   Z003.0000   F2100
G0   X036.2343   Y069.8000   Z000.0000   F210
G0   X035.8000   Y069.3657   Z000.0000   F720
G0   X035.3657   Y069.8000   Z000.0000   F720
G0   X035.8000   Y070.2343   Z000.0000   F720
G0   X036.2343   Y069.8000   Z000.0000   F720
G0   X036.2343   Y069.8000   Z003.0000   F500

;Begin Line: layer=0 line=1
G0   X033.2343   Y068.8000   Z003.0000   F2100
G0   X033.2343   Y068.8000   Z000.0000   F210
G0   X032.8000   Y068.3657   Z000.0000   F720
G0   X032.3657   Y068.8000   Z000.0000   F720
G0   X032.8000   Y069.2343   Z000.0000   F720
G0   X033.2343   Y068.8000   Z000.0000   F720
G0   X033.2343   Y068.8000   Z003.0000   F500

;Begin Line: layer=0 line=2
G0   X033.3657   Y065.8000   Z003.0000   F2100
G0   X033.3657   Y065.8000   Z000.0000   F210
G0   X033.8000   Y066.2343   Z000.0000   F720
G0   X034.2343   Y065.8000   Z000.0000   F720
G0   X033.8000   Y065.3657   Z000.0000   F720
G0   X033.3657   Y065.8000   Z000.0000   F720
G0   X033.3657   Y065.8000   Z003.0000   F500

;Begin Line: layer=0 line=3
G0   X034.8000   Y066.3657   Z003.0000   F2100
G0   X034.8000   Y066.3657   Z000.0000   F210
G0   X033.3657   Y067.8000   Z000.0000   F720
G0   X034.8000   Y069.2343   Z000.0000   F720
G0   X036.2343   Y067.8000   Z000.0000   F720
G0   X034.8000   Y066.3657   Z000.0000   F720
G0   X034.8000   Y066.3657   Z003.0000   F500

;Begin Line: layer=0 line=4
G0   X040.1212   Y063.8000   Z003.0000   F2100
G0   X040.1212   Y063.8000   Z000.0000   F210
G0   X036.8000   Y060.4788   Z000.0000   F720
G0   X033.4788   Y063.8000   Z000.0000   F720
G0   X036.8000   Y067.1212   Z000.0000   F720
G0   X040.1212   Y063.8000   Z000.0000   F720
G0   X040.1212   Y063.8000   Z003.0000   F500

;Begin Line: layer=0 line=5
G0   X036.8000   Y060.3657   Z003.0000   F2100
G0   X036.8000   Y060.3657   Z000.0000   F210
G0   X033.3657   Y063.8000   Z000.0000   F720
G0   X036.8000   Y067.2343   Z000.0000   F720
G0   X040.2343   Y063.8000   Z000.0000   F720
G0   X036.8000   Y060.3657   Z000.0000   F720
G0   X036.8000   Y060.3657   Z003.0000   F500

;Begin Line: layer=0 line=6
G0   X037.4788   Y059.8000   Z003.0000   F2100
G0   X037.4788   Y059.8000   Z000.0000   F210
G0   X040.8000   Y063.1212   Z000.0000   F720
G0   X044.1212   Y059.8000   Z000.0000   F720
G0   X040.8000   Y056.4788   Z000.0000   F720
G0   X037.4788   Y059.8000   Z000.0000   F720
G0   X037.4788   Y059.8000   Z003.0000   F500

;Begin Line: layer=0 line=7
G0   X036.2343   Y055.8000   Z003.0000   F2100
G0   X036.2343   Y055.8000   Z000.0000   F210
G0   X035.8000   Y056.2343   Z000.0000   F720
G0   X035.3657   Y055.8000   Z000.0000   F720
G0   X035.8000   Y055.3657   Z000.0000   F720
G0   X036.2343   Y055.8000   Z000.0000   F720
G0   X036.2343   Y055.8000   Z003.0000   F500

;Begin Line: layer=0 line=8
G0   X038.2343   Y057.8000   Z003.0000   F2100
G0   X038.2343   Y057.8000   Z000.0000   F210
G0   X036.8000   Y056.3657   Z000.0000   F720
G0   X035.3657   Y057.8000   Z000.0000   F720
G0   X036.8000   Y059.2343   Z000.0000   F720
G0   X038.2343   Y057.8000   Z000.0000   F720
G0   X038.2343   Y057.8000   Z003.0000   F500

;Begin Line: layer=0 line=9
G0   X038.8000   Y057.2343   Z003.0000   F2100
G0   X038.8000   Y057.2343   Z000.0000   F210
G0   X039.2343   Y056.8000   Z000.0000   F720
G0   X038.8000   Y056.3657   Z000.0000   F720
G0   X038.3657   Y056.8000   Z000.0000   F720
G0   X038.8000   Y057.2343   Z000.0000   F720
G0   X038.8000   Y057.2343   Z003.0000   F500

;Begin Line: layer=0 line=10
G0   X041.3657   Y055.8000   Z003.0000   F2100
G0   X041.3657   Y055.8000   Z000.0000   F210
G0   X044.8000   Y059.2343   Z000.0000   F720
G0   X048.2343   Y055.8000   Z000.0000   F720
G0   X044.8000   Y052.3657   Z000.0000   F720
G0   X041.3657   Y055.8000   Z000.0000   F720
G0   X041.3657   Y055.8000   Z003.0000   F500

;Begin Line: layer=0 line=11
G0   X041.4788   Y055.8000   Z003.0000   F2100
G0   X041.4788   Y055.8000   Z000.0000   F210
G0   X044.8000   Y059.1212   Z000.0000   F720
G0   X048.1212   Y055.8000   Z000.0000   F720
G0   X044.8000   Y052.4788   Z000.0000   F720
G0   X041.4788   Y055.8000   Z000.0000   F720
G0   X041.4788   Y055.8000   Z003.0000   F500

;Begin Line: layer=0 line=12
G0   X044.2343   Y059.8000   Z003.0000   F2100
G0   X044.2343   Y059.8000   Z000.0000   F210
G0   X040.8000   Y056.3657   Z000.0000   F720
G0   X037.3657   Y059.8000   Z000.0000   F720
G0   X040.8000   Y063.2343   Z000.0000   F720
G0   X044.2343   Y059.8000   Z000.0000   F720
G0   X044.2343   Y059.8000   Z003.0000   F500

;Begin Line: layer=0 line=13
G0   X046.8000   Y061.2343   Z003.0000   F2100
G0   X046.8000   Y061.2343   Z000.0000   F210
G0   X045.3657   Y059.8000   Z000.0000   F720
G0   X046.8000   Y058.3657   Z000.0000   F720
G0   X048.2343   Y059.8000   Z000.0000   F720
G0   X046.8000   Y061.2343   Z000.0000   F720
G0   X046.8000   Y061.2343   Z003.0000   F500

;Begin Line: layer=0 line=14
G0   X047.3657   Y061.8000   Z003.0000   F2100
G0   X047.3657   Y061.8000   Z000.0000   F210
G0   X047.8000   Y061.3657   Z000.0000   F720
G0   X048.2343   Y061.8000   Z000.0000   F720
G0   X047.8000   Y062.2343   Z000.0000   F720
G0   X047.3657   Y061.8000   Z000.0000   F720
G0   X047.3657   Y061.8000   Z003.0000   F500

;Begin Line: layer=0 line=15
G0   X048.8000   Y058.3657   Z003.0000   F2100
G0   X048.8000   Y058.3657   Z000.0000   F210
G0   X048.3657   Y058.8000   Z000.0000   F720
G0   X048.8000   Y059.2343   Z000.0000   F720
G0   X049.2343   Y058.8000   Z000.0000   F720
G0   X048.8000   Y058.3657   Z000.0000   F720
G0   X048.8000   Y058.3657   Z003.0000   F500

;Begin Line: layer=0 line=16
G0   X051.3657   Y057.8000   Z003.0000   F2100
G0   X051.3657   Y057.8000   Z000.0000   F210
G0   X051.8000   Y058.2343   Z000.0000   F720
G0   X052.2343   Y057.8000   Z000.0000   F720
G0   X051.8000   Y057.3657   Z000.0000   F720
G0   X051.3657   Y057.8000   Z000.0000   F720
G0   X051.3657   Y057.8000   Z003.0000   F500

;Begin Line: layer=0 line=17
G0   X052.3657   Y056.8000   Z003.0000   F2100
G0   X052.3657   Y056.8000   Z000.0000   F210
G0   X052.8000   Y057.2343   Z000.0000   F720
G0   X053.2343   Y056.8000   Z000.0000   F720
G0   X052.8000   Y056.3657   Z000.0000   F720
G0   X052.3657   Y056.8000   Z000.0000   F720
G0   X052.3657   Y056.8000   Z003.0000   F500

;Begin Line: layer=0 line=18
G0   X054.8000   Y054.3657   Z003.0000   F2100
G0   X054.8000   Y054.3657   Z000.0000   F210
G0   X053.3657   Y055.8000   Z000.0000   F720
G0   X054.8000   Y057.2343   Z000.0000   F720
G0   X056.2343   Y055.8000   Z000.0000   F720
G0   X054.8000   Y054.3657   Z000.0000   F720
G0   X054.8000   Y054.3657   Z003.0000   F500

;Begin Line: layer=0 line=19
G0   X053.4788   Y051.8000   Z003.0000   F2100
G0   X053.4788   Y051.8000   Z000.0000   F210
G0   X056.8000   Y055.1212   Z000.0000   F720
G0   X060.1212   Y051.8000   Z000.0000   F720
G0   X056.8000   Y048.4788   Z000.0000   F720
G0   X053.4788   Y051.8000   Z000.0000   F720
G0   X053.4788   Y051.8000   Z003.0000   F500

;Begin Line: layer=0 line=20
G0   X056.8000   Y048.3657   Z003.0000   F2100
G0   X056.8000   Y048.3657   Z000.0000   F210
G0   X053.3657   Y051.8000   Z000.0000   F720
G0   X056.8000   Y055.2343   Z000.0000   F720
G0   X060.2343   Y051.8000   Z000.0000   F720
G0   X056.8000   Y048.3657   Z000.0000   F720
G0   X056.8000   Y048.3657   Z003.0000   F500

;Begin Line: layer=0 line=21
G0   X062.8000   Y050.3657   Z003.0000   F2100
G0   X062.8000   Y050.3657   Z000.0000   F210
G0   X064.2343   Y051.8000   Z000.0000   F720
G0   X062.8000   Y053.2343   Z000.0000   F720
G0   X061.3657   Y051.8000   Z000.0000   F720
G0   X062.8000   Y050.3657   Z000.0000   F720
G0   X062.8000   Y050.3657   Z003.0000   F500

;Begin Line: layer=0 line=22
G0   X065.2343   Y052.8000   Z003.0000   F2100
G0   X065.2343   Y052.8000   Z000.0000   F210
G0   X064.8000   Y053.2343   Z000.0000   F720
G0   X064.3657   Y052.8000   Z000.0000   F720
G0   X064.8000   Y052.3657   Z000.0000   F720
G0   X065.2343   Y052.8000   Z000.0000   F720
G0   X065.2343   Y052.8000   Z003.0000   F500

;Begin Line: layer=0 line=23
G0   X064.1212   Y047.8000   Z003.0000   F2100
G0   X064.1212   Y047.8000   Z000.0000   F210
G0   X060.8000   Y044.4788   Z000.0000   F720
G0   X057.4788   Y047.8000   Z000.0000   F720
G0   X060.8000   Y051.1212   Z000.0000   F720
G0   X064.1212   Y047.8000   Z000.0000   F720
G0   X064.1212   Y047.8000   Z003.0000   F500

;Begin Line: layer=0 line=24
G0   X064.2343   Y047.8000   Z003.0000   F2100
G0   X064.2343   Y047.8000   Z000.0000   F210
G0   X060.8000   Y044.3657   Z000.0000   F720
G0   X057.3657   Y047.8000   Z000.0000   F720
G0   X060.8000   Y051.2343   Z000.0000   F720
G0   X064.2343   Y047.8000   Z000.0000   F720
G0   X064.2343   Y047.8000   Z003.0000   F500

;Begin Line: layer=0 line=25
G0   X066.8000   Y047.2343   Z003.0000   F2100
G0   X066.8000   Y047.2343   Z000.0000   F210
G0   X066.3657   Y046.8000   Z000.0000   F720
G0   X066.8000   Y046.3657   Z000.0000   F720
G0   X067.2343   Y046.8000   Z000.0000   F720
G0   X066.8000   Y047.2343   Z000.0000   F720
G0   X066.8000   Y047.2343   Z003.0000   F500

;Begin Line: layer=0 line=26
G0   X067.8000   Y047.3657   Z003.0000   F2100
G0   X067.8000   Y047.3657   Z000.0000   F210
G0   X068.2343   Y047.8000   Z000.0000   F720
G0   X067.8000   Y048.2343   Z000.0000   F720
G0   X067.3657   Y047.8000   Z000.0000   F720
G0   X067.8000   Y047.3657   Z000.0000   F720
G0   X067.8000   Y047.3657   Z003.0000   F500

;Begin Line: layer=0 line=27
G0   X066.2343   Y045.8000   Z003.0000   F2100
G0   X066.2343   Y045.8000   Z000.0000   F210
G0   X064.8000   Y044.3657   Z000.0000   F720
G0   X063.3657   Y045.8000   Z000.0000   F720
G0   X064.8000   Y047.2343   Z000.0000   F720
G0   X066.2343   Y045.8000   Z000.0000   F720
G0   X066.2343   Y045.8000   Z003.0000   F500

;Begin Line: layer=0 line=28
G0   X067.8000   Y041.3657   Z003.0000   F2100
G0   X067.8000   Y041.3657   Z000.0000   F210
G0   X067.3657   Y041.8000   Z000.0000   F720
G0   X067.8000   Y042.2343   Z000.0000   F720
G0   X068.2343   Y041.8000   Z000.0000   F720
G0   X067.8000   Y041.3657   Z000.0000   F720
G0   X067.8000   Y041.3657   Z003.0000   F500

;Begin Line: layer=0 line=29
G0   X068.3657   Y040.8000   Z003.0000   F2100
G0   X068.3657   Y040.8000   Z000.0000   F210
G0   X068.8000   Y041.2343   Z000.0000   F720
G0   X069.2343   Y040.8000   Z000.0000   F720
G0   X068.8000   Y040.3657   Z000.0000   F720
G0   X068.3657   Y040.8000   Z000.0000   F720
G0   X068.3657   Y040.8000   Z003.0000   F500

;Begin Line: layer=0 line=30
G0   X066.8000   Y038.3657   Z003.0000   F2100
G0   X066.8000   Y038.3657   Z000.0000   F210
G0   X065.3657   Y039.8000   Z000.0000   F720
G0   X066.8000   Y041.2343   Z000.0000   F720
G0   X068.2343   Y039.8000   Z000.0000   F720
G0   X066.8000   Y038.3657   Z000.0000   F720
G0   X066.8000   Y038.3657   Z003.0000   F500

;Begin Line: layer=0 line=31
G0   X068.2343   Y037.8000   Z003.0000   F2100
G0   X068.2343   Y037.8000   Z000.0000   F210
G0   X067.8000   Y037.3657   Z000.0000   F720
G0   X067.3657   Y037.8000   Z000.0000   F720
G0   X067.8000   Y038.2343   Z000.0000   F720
G0   X068.2343   Y037.8000   Z000.0000   F720
G0   X068.2343   Y037.8000   Z003.0000   F500

;Begin Line: layer=0 line=32
G0   X067.8000   Y033.3657   Z003.0000   F2100
G0   X067.8000   Y033.3657   Z000.0000   F210
G0   X067.3657   Y033.8000   Z000.0000   F720
G0   X067.8000   Y034.2343   Z000.0000   F720
G0   X068.2343   Y033.8000   Z000.0000   F720
G0   X067.8000   Y033.3657   Z000.0000   F720
G0   X067.8000   Y033.3657   Z003.0000   F500

;Begin Line: layer=0 line=33
G0   X065.3657   Y035.8000   Z003.0000   F2100
G0   X065.3657   Y035.8000   Z000.0000   F210
G0   X066.8000   Y034.3657   Z000.0000   F720
G0   X068.2343   Y035.8000   Z000.0000   F720
G0   X066.8000   Y037.2343   Z000.0000   F720
G0   X065.3657   Y035.8000   Z000.0000   F720
G0   X065.3657   Y035.8000   Z003.0000   F500

;Begin Line: layer=0 line=34
G0   X064.8000   Y035.2343   Z003.0000   F2100
G0   X064.8000   Y035.2343   Z000.0000   F210
G0   X063.3657   Y033.8000   Z000.0000   F720
G0   X064.8000   Y032.3657   Z000.0000   F720
G0   X066.2343   Y033.8000   Z000.0000   F720
G0   X064.8000   Y035.2343   Z000.0000   F720
G0   X064.8000   Y035.2343   Z003.0000   F500

;Begin Line: layer=0 line=35
G0   X062.8000   Y034.3657   Z003.0000   F2100
G0   X062.8000   Y034.3657   Z000.0000   F210
G0   X063.2343   Y034.8000   Z000.0000   F720
G0   X062.8000   Y035.2343   Z000.0000   F720
G0   X062.3657   Y034.8000   Z000.0000   F720
G0   X062.8000   Y034.3657   Z000.0000   F720
G0   X062.8000   Y034.3657   Z003.0000   F500

;Begin Line: layer=0 line=36
G0   X063.3657   Y037.8000   Z003.0000   F2100
G0   X063.3657   Y037.8000   Z000.0000   F210
G0   X064.8000   Y039.2343   Z000.0000   F720
G0   X066.2343   Y037.8000   Z000.0000   F720
G0   X064.8000   Y036.3657   Z000.0000   F720
G0   X063.3657   Y037.8000   Z000.0000   F720
G0   X063.3657   Y037.8000   Z003.0000   F500

;Begin Line: layer=0 line=37
G0   X060.8000   Y036.4788   Z003.0000   F2100
G0   X060.8000   Y036.4788   Z000.0000   F210
G0   X057.4788   Y039.8000   Z000.0000   F720
G0   X060.8000   Y043.1212   Z000.0000   F720
G0   X064.1212   Y039.8000   Z000.0000   F720
G0   X060.8000   Y036.4788   Z000.0000   F720
G0   X060.8000   Y036.4788   Z003.0000   F500

;Begin Line: layer=0 line=38
G0   X059.2343   Y036.8000   Z003.0000   F2100
G0   X059.2343   Y036.8000   Z000.0000   F210
G0   X058.8000   Y036.3657   Z000.0000   F720
G0   X058.3657   Y036.8000   Z000.0000   F720
G0   X058.8000   Y037.2343   Z000.0000   F720
G0   X059.2343   Y036.8000   Z000.0000   F720
G0   X059.2343   Y036.8000   Z003.0000   F500

;Begin Line: layer=0 line=39
G0   X056.2343   Y035.8000   Z003.0000   F2100
G0   X056.2343   Y035.8000   Z000.0000   F210
G0   X054.8000   Y034.3657   Z000.0000   F720
G0   X053.3657   Y035.8000   Z000.0000   F720
G0   X054.8000   Y037.2343   Z000.0000   F720
G0   X056.2343   Y035.8000   Z000.0000   F720
G0   X056.2343   Y035.8000   Z003.0000   F500

;Begin Line: layer=0 line=40
G0   X052.8000   Y032.3657   Z003.0000   F2100
G0   X052.8000   Y032.3657   Z000.0000   F210
G0   X054.2343   Y033.8000   Z000.0000   F720
G0   X052.8000   Y035.2343   Z000.0000   F720
G0   X051.3657   Y033.8000   Z000.0000   F720
G0   X052.8000   Y032.3657   Z000.0000   F720
G0   X052.8000   Y032.3657   Z003.0000   F500

;Begin Line: layer=0 line=41
G0   X052.2343   Y031.8000   Z003.0000   F2100
G0   X052.2343   Y031.8000   Z000.0000   F210
G0   X051.8000   Y032.2343   Z000.0000   F720
G0   X051.3657   Y031.8000   Z000.0000   F720
G0   X051.8000   Y031.3657   Z000.0000   F720
G0   X052.2343   Y031.8000   Z000.0000   F720
G0   X052.2343   Y031.8000   Z003.0000   F500

;Begin Line: layer=0 line=42
G0   X050.2343   Y035.8000   Z003.0000   F2100
G0   X050.2343   Y035.8000   Z000.0000   F210
G0   X049.8000   Y035.3657   Z000.0000   F720
G0   X049.3657   Y035.8000   Z000.0000   F720
G0   X049.8000   Y036.2343   Z000.0000   F720
G0   X050.2343   Y035.8000   Z000.0000   F720
G0   X050.2343   Y035.8000   Z003.0000   F500

;Begin Line: layer=0 line=43
G0   X048.8000   Y036.3657   Z003.0000   F2100
G0   X048.8000   Y036.3657   Z000.0000   F210
G0   X047.3657   Y037.8000   Z000.0000   F720
G0   X048.8000   Y039.2343   Z000.0000   F720
G0   X050.2343   Y037.8000   Z000.0000   F720
G0   X048.8000   Y036.3657   Z000.0000   F720
G0   X048.8000   Y036.3657   Z003.0000   F500

;Begin Line: layer=0 line=44
G0   X045.8000   Y036.2343   Z003.0000   F2100
G0   X045.8000   Y036.2343   Z000.0000   F210
G0   X045.3657   Y035.8000   Z000.0000   F720
G0   X045.8000   Y035.3657   Z000.0000   F720
G0   X046.2343   Y035.8000   Z000.0000   F720
G0   X045.8000   Y036.2343   Z000.0000   F720
