;Generated with vpype gwrite fabian
G90 ; Use absolute position
G92 X0 Y0 Z0 ; Set the current position as (0,0,0)
G0   X000.0000   Y000.0000   Z003.0000   F500

;Begin Line: layer=0 line=0
G0   X228.3081   Y122.3000   Z003.0000   F2100
G0   X228.3081   Y122.3000   Z000.0000   F210
G0   X221.1000   Y115.0920   Z000.0000   F720
G0   X213.8920   Y122.3000   Z000.0000   F720
G0   X221.1000   Y129.5081   Z000.0000   F720
G0   X228.3081   Y122.3000   Z000.0000   F720
G0   X228.3081   Y122.3000   Z003.0000   F500

;Begin Line: layer=0 line=1
G0   X228.5343   Y114.3000   Z003.0000   F2100
G0   X228.5343   Y114.3000   Z000.0000   F210
G0   X225.1000   Y117.7343   Z000.0000   F720
G0   X221.6657   Y114.3000   Z000.0000   F720
G0   X225.1000   Y110.8657   Z000.0000   F720
G0   X228.5343   Y114.3000   Z000.0000   F720
G0   X228.5343   Y114.3000   Z003.0000   F500

;Begin Line: layer=0 line=2
G0   X229.1000   Y110.8657   Z003.0000   F2100
G0   X229.1000   Y110.8657   Z000.0000   F210
G0   X230.5344   Y112.3000   Z000.0000   F720
G0   X229.1000   Y113.7343   Z000.0000   F720
G0   X227.6657   Y112.3000   Z000.0000   F720
G0   X229.1000   Y110.8657   Z000.0000   F720
G0   X229.1000   Y110.8657   Z003.0000   F500

;Begin Line: layer=0 line=3
G0   X221.7789   Y114.3000   Z003.0000   F2100
G0   X221.7789   Y114.3000   Z000.0000   F210
G0   X225.1000   Y117.6212   Z000.0000   F720
G0   X228.4212   Y114.3000   Z000.0000   F720
G0   X225.1000   Y110.9788   Z000.0000   F720
G0   X221.7789   Y114.3000   Z000.0000   F720
G0   X221.7789   Y114.3000   Z003.0000   F500

;Begin Line: layer=0 line=4
G0   X213.7788   Y122.3000   Z003.0000   F2100
G0   X213.7788   Y122.3000   Z000.0000   F210
G0   X221.1000   Y129.6212   Z000.0000   F720
G0   X228.4212   Y122.3000   Z000.0000   F720
G0   X221.1000   Y114.9788   Z000.0000   F720
G0   X213.7788   Y122.3000   Z000.0000   F720
G0   X213.7788   Y122.3000   Z003.0000   F500

;Begin Line: layer=0 line=5
G0   X213.6657   Y122.3000   Z003.0000   F2100
G0   X213.6657   Y122.3000   Z000.0000   F210
G0   X221.1000   Y129.7343   Z000.0000   F720
G0   X228.5343   Y122.3000   Z000.0000   F720
G0   X221.1000   Y114.8657   Z000.0000   F720
G0   X213.6657   Y122.3000   Z000.0000   F720
G0   X213.6657   Y122.3000   Z003.0000   F500

;Begin Line: layer=0 line=6
G0   X213.1000   Y121.7343   Z003.0000   F2100
G0   X213.1000   Y121.7343   Z000.0000   F210
G0   X205.6657   Y114.3000   Z000.0000   F720
G0   X213.1000   Y106.8657   Z000.0000   F720
G0   X220.5343   Y114.3000   Z000.0000   F720
G0   X213.1000   Y121.7343   Z000.0000   F720
G0   X213.1000   Y121.7343   Z003.0000   F500

;Begin Line: layer=0 line=7
G0   X213.1000   Y121.6212   Z003.0000   F2100
G0   X213.1000   Y121.6212   Z000.0000   F210
G0   X205.7788   Y114.3000   Z000.0000   F720
G0   X213.1000   Y106.9788   Z000.0000   F720
G0   X220.4212   Y114.3000   Z000.0000   F720
G0   X213.1000   Y121.6212   Z000.0000   F720
G0   X213.1000   Y121.6212   Z003.0000   F500

;Begin Line: layer=0 line=8
G0   X211.5344   Y123.3000   Z003.0000   F2100
G0   X211.5344   Y123.3000   Z000.0000   F210
G0   X211.1000   Y122.8657   Z000.0000   F720
G0   X210.6657   Y123.3000   Z000.0000   F720
G0   X211.1000   Y123.7343   Z000.0000   F720
G0   X211.5344   Y123.3000   Z000.0000   F720
G0   X211.5344   Y123.3000   Z003.0000   F500

;Begin Line: layer=0 line=9
G0   X212.5343   Y126.3000   Z003.0000   F2100
G0   X212.5343   Y126.3000   Z000.0000   F210
G0   X211.1000   Y124.8657   Z000.0000   F720
G0   X209.6657   Y126.3000   Z000.0000   F720
G0   X211.1000   Y127.7343   Z000.0000   F720
G0   X212.5343   Y126.3000   Z000.0000   F720
G0   X212.5343   Y126.3000   Z003.0000   F500

;Begin Line: layer=0 line=10
G0   X209.1000   Y126.8657   Z003.0000   F2100
G0   X209.1000   Y126.8657   Z000.0000   F210
G0   X210.5343   Y128.3000   Z000.0000   F720
G0   X209.1000   Y129.7343   Z000.0000   F720
G0   X207.6657   Y128.3000   Z000.0000   F720
G0   X209.1000   Y126.8657   Z000.0000   F720
G0   X209.1000   Y126.8657   Z003.0000   F500

;Begin Line: layer=0 line=11
G0   X207.1000   Y127.7343   Z003.0000   F2100
G0   X207.1000   Y127.7343   Z000.0000   F210
G0   X205.6657   Y126.3000   Z000.0000   F720
G0   X207.1000   Y124.8657   Z000.0000   F720
G0   X208.5343   Y126.3000   Z000.0000   F720
G0   X207.1000   Y127.7343   Z000.0000   F720
G0   X207.1000   Y127.7343   Z003.0000   F500

;Begin Line: layer=0 line=12
G0   X209.6657   Y130.3000   Z003.0000   F2100
G0   X209.6657   Y130.3000   Z000.0000   F210
G0   X211.1000   Y128.8657   Z000.0000   F720
G0   X212.5343   Y130.3000   Z000.0000   F720
G0   X211.1000   Y131.7343   Z000.0000   F720
G0   X209.6657   Y130.3000   Z000.0000   F720
G0   X209.6657   Y130.3000   Z003.0000   F500

;Begin Line: layer=0 line=13
G0   X212.4212   Y138.3000   Z003.0000   F2100
G0   X212.4212   Y138.3000   Z000.0000   F210
G0   X205.1000   Y145.6212   Z000.0000   F720
G0   X197.7788   Y138.3000   Z000.0000   F720
G0   X205.1000   Y130.9788   Z000.0000   F720
G0   X212.4212   Y138.3000   Z000.0000   F720
G0   X212.4212   Y138.3000   Z003.0000   F500

;Begin Line: layer=0 line=14
G0   X216.4212   Y142.3000   Z003.0000   F2100
G0   X216.4212   Y142.3000   Z000.0000   F210
G0   X213.1000   Y145.6212   Z000.0000   F720
G0   X209.7788   Y142.3000   Z000.0000   F720
G0   X213.1000   Y138.9788   Z000.0000   F720
G0   X216.4212   Y142.3000   Z000.0000   F720
G0   X216.4212   Y142.3000   Z003.0000   F500

;Begin Line: layer=0 line=15
G0   X216.5343   Y142.3000   Z003.0000   F2100
G0   X216.5343   Y142.3000   Z000.0000   F210
G0   X213.1000   Y145.7343   Z000.0000   F720
G0   X209.6657   Y142.3000   Z000.0000   F720
G0   X213.1000   Y138.8657   Z000.0000   F720
G0   X216.5343   Y142.3000   Z000.0000   F720
G0   X216.5343   Y142.3000   Z003.0000   F500

;Begin Line: layer=0 line=16
G0   X220.5343   Y146.3000   Z003.0000   F2100
G0   X220.5343   Y146.3000   Z000.0000   F210
G0   X217.1000   Y149.7343   Z000.0000   F720
G0   X213.6657   Y146.3000   Z000.0000   F720
G0   X217.1000   Y142.8657   Z000.0000   F720
G0   X220.5343   Y146.3000   Z000.0000   F720
G0   X220.5343   Y146.3000   Z003.0000   F500

;Begin Line: layer=0 line=17
G0   X217.1000   Y149.6212   Z003.0000   F2100
G0   X217.1000   Y149.6212   Z000.0000   F210
G0   X213.7788   Y146.3000   Z000.0000   F720
G0   X217.1000   Y142.9788   Z000.0000   F720
G0   X220.4212   Y146.3000   Z000.0000   F720
G0   X217.1000   Y149.6212   Z000.0000   F720
G0   X217.1000   Y149.6212   Z003.0000   F500

;Begin Line: layer=0 line=18
G0   X216.5343   Y150.3000   Z003.0000   F2100
G0   X216.5343   Y150.3000   Z000.0000   F210
G0   X213.1000   Y153.7343   Z000.0000   F720
G0   X209.6657   Y150.3000   Z000.0000   F720
G0   X213.1000   Y146.8657   Z000.0000   F720
G0   X216.5343   Y150.3000   Z000.0000   F720
G0   X216.5343   Y150.3000   Z003.0000   F500

;Begin Line: layer=0 line=19
G0   X213.1000   Y146.9788   Z003.0000   F2100
G0   X213.1000   Y146.9788   Z000.0000   F210
G0   X216.4212   Y150.3000   Z000.0000   F720
G0   X213.1000   Y153.6212   Z000.0000   F720
G0   X209.7788   Y150.3000   Z000.0000   F720
G0   X213.1000   Y146.9788   Z000.0000   F720
G0   X213.1000   Y146.9788   Z003.0000   F500

;Begin Line: layer=0 line=20
G0   X212.4212   Y154.3000   Z003.0000   F2100
G0   X212.4212   Y154.3000   Z000.0000   F210
G0   X205.1000   Y146.9788   Z000.0000   F720
G0   X197.7788   Y154.3000   Z000.0000   F720
G0   X205.1000   Y161.6212   Z000.0000   F720
G0   X212.4212   Y154.3000   Z000.0000   F720
G0   X212.4212   Y154.3000   Z003.0000   F500

;Begin Line: layer=0 line=21
G0   X212.5343   Y154.3000   Z003.0000   F2100
G0   X212.5343   Y154.3000   Z000.0000   F210
G0   X205.1000   Y146.8657   Z000.0000   F720
G0   X197.6657   Y154.3000   Z000.0000   F720
G0   X205.1000   Y161.7343   Z000.0000   F720
G0   X212.5343   Y154.3000   Z000.0000   F720
G0   X212.5343   Y154.3000   Z003.0000   F500

;Begin Line: layer=0 line=22
G0   X213.1000   Y154.8657   Z003.0000   F2100
G0   X213.1000   Y154.8657   Z000.0000   F210
G0   X220.5343   Y162.3000   Z000.0000   F720
G0   X213.1000   Y169.7343   Z000.0000   F720
G0   X205.6657   Y162.3000   Z000.0000   F720
G0   X213.1000   Y154.8657   Z000.0000   F720
G0   X213.1000   Y154.8657   Z003.0000   F500

;Begin Line: layer=0 line=23
G0   X217.6657   Y158.3000   Z003.0000   F2100
G0   X217.6657   Y158.3000   Z000.0000   F210
G0   X221.1000   Y154.8657   Z000.0000   F720
G0   X224.5343   Y158.3000   Z000.0000   F720
G0   X221.1000   Y161.7343   Z000.0000   F720
G0   X217.6657   Y158.3000   Z000.0000   F720
G0   X217.6657   Y158.3000   Z003.0000   F500

;Begin Line: layer=0 line=24
G0   X224.4212   Y158.3000   Z003.0000   F2100
G0   X224.4212   Y158.3000   Z000.0000   F210
G0   X221.1000   Y161.6212   Z000.0000   F720
G0   X217.7788   Y158.3000   Z000.0000   F720
G0   X221.1000   Y154.9788   Z000.0000   F720
G0   X224.4212   Y158.3000   Z000.0000   F720
G0   X224.4212   Y158.3000   Z003.0000   F500

;Begin Line: layer=0 line=25
G0   X220.5343   Y170.3000   Z003.0000   F2100
G0   X220.5343   Y170.3000   Z000.0000   F210
G0   X217.1000   Y173.7343   Z000.0000   F720
G0   X213.6657   Y170.3000   Z000.0000   F720
G0   X217.1000   Y166.8657   Z000.0000   F720
G0   X220.5343   Y170.3000   Z000.0000   F720
G0   X220.5343   Y170.3000   Z003.0000   F500

;Begin Line: layer=0 line=26
G0   X220.4212   Y170.3000   Z003.0000   F2100
G0   X220.4212   Y170.3000   Z000.0000   F210
G0   X217.1000   Y173.6212   Z000.0000   F720
G0   X213.7788   Y170.3000   Z000.0000   F720
G0   X217.1000   Y166.9788   Z000.0000   F720
G0   X220.4212   Y170.3000   Z000.0000   F720
G0   X220.4212   Y170.3000   Z003.0000   F500

;Begin Line: layer=0 line=27
G0   X205.8920   Y162.3000   Z003.0000   F2100
G0   X205.8920   Y162.3000   Z000.0000   F210
G0   X213.1000   Y155.0920   Z000.0000   F720
G0   X220.3081   Y162.3000   Z000.0000   F720
G0   X213.1000   Y169.5081   Z000.0000   F720
G0   X205.8920   Y162.3000   Z000.0000   F720
G0   X205.8920   Y162.3000   Z003.0000   F500

;Begin Line: layer=0 line=28
G0   X205.7788   Y162.3000   Z003.0000   F2100
G0   X205.7788   Y162.3000   Z000.0000   F210
G0   X213.1000   Y154.9788   Z000.0000   F720
G0   X220.4212   Y162.3000   Z000.0000   F720
G0   X213.1000   Y169.6212   Z000.0000   F720
G0   X205.7788   Y162.3000   Z000.0000   F720
G0   X205.7788   Y162.3000   Z003.0000   F500

;Begin Line: layer=0 line=29
G0   X205.1000   Y161.5081   Z003.0000   F2100
G0   X205.1000   Y161.5081   Z000.0000   F210
G0   X197.8920   Y154.3000   Z000.0000   F720
G0   X205.1000   Y147.0920   Z000.0000   F720
G0   X212.3081   Y154.3000   Z000.0000   F720
G0   X205.1000   Y161.5081   Z000.0000   F720
G0   X205.1000   Y161.5081   Z003.0000   F500

;Begin Line: layer=0 line=30
G0   X205.1000   Y145.7343   Z003.0000   F2100
G0   X205.1000   Y145.7343   Z000.0000   F210
G0   X197.6657   Y138.3000   Z000.0000   F720
G0   X205.1000   Y130.8657   Z000.0000   F720
G0   X212.5343   Y138.3000   Z000.0000   F720
G0   X205.1000   Y145.7343   Z000.0000   F720
G0   X205.1000   Y145.7343   Z003.0000   F500

;Begin Line: layer=0 line=31
G0   X205.1000   Y145.5081   Z003.0000   F2100
G0   X205.1000   Y145.5081   Z000.0000   F210
G0   X197.8920   Y138.3000   Z000.0000   F720
G0   X205.1000   Y131.0920   Z000.0000   F720
G0   X212.3081   Y138.3000   Z000.0000   F720
G0   X205.1000   Y145.5081   Z000.0000   F720
G0   X205.1000   Y145.5081   Z003.0000   F500

;Begin Line: layer=0 line=32
G0   X204.3080   Y146.3000   Z003.0000   F2100
G0   X204.3080   Y146.3000   Z000.0000   F210
G0   X197.1000   Y139.0920   Z000.0000   F720
G0   X189.8920   Y146.3000   Z000.0000   F720
G0   X197.1000   Y153.5081   Z000.0000   F720
G0   X204.3080   Y146.3000   Z000.0000   F720
G0   X204.3080   Y146.3000   Z003.0000   F500

;Begin Line: layer=0 line=33
G0   X196.5343   Y154.3000   Z003.0000   F2100
G0   X196.5343   Y154.3000   Z000.0000   F210
G0   X189.1000   Y146.8657   Z000.0000   F720
G0   X181.6657   Y154.3000   Z000.0000   F720
G0   X189.1000   Y161.7343   Z000.0000   F720
G0   X196.5343   Y154.3000   Z000.0000   F720
G0   X196.5343   Y154.3000   Z003.0000   F500

;Begin Line: layer=0 line=34
G0   X196.4212   Y154.3000   Z003.0000   F2100
G0   X196.4212   Y154.3000   Z000.0000   F210
G0   X189.1000   Y146.9788   Z000.0000   F720
G0   X181.7788   Y154.3000   Z000.0000   F720
G0   X189.1000   Y161.6212   Z000.0000   F720
G0   X196.4212   Y154.3000   Z000.0000   F720
G0   X196.4212   Y154.3000   Z003.0000   F500

;Begin Line: layer=0 line=35
G0   X189.1000   Y161.5081   Z003.0000   F2100
G0   X189.1000   Y161.5081   Z000.0000   F210
G0   X181.8920   Y154.3000   Z000.0000   F720
G0   X189.1000   Y147.0920   Z000.0000   F720
G0   X196.3080   Y154.3000   Z000.0000   F720
G0   X189.1000   Y161.5081   Z000.0000   F720
G0   X189.1000   Y161.5081   Z003.0000   F500

;Begin Line: layer=0 line=36
G0   X177.1000   Y157.7343   Z003.0000   F2100
G0   X177.1000   Y157.7343   Z000.0000   F210
G0   X180.5343   Y154.3000   Z000.0000   F720
G0   X177.1000   Y150.8657   Z000.0000   F720
G0   X173.6657   Y154.3000   Z000.0000   F720
G0   X177.1000   Y157.7343   Z000.0000   F720
G0   X177.1000   Y157.7343   Z003.0000   F500

;Begin Line: layer=0 line=37
G0   X180.4212   Y154.3000   Z003.0000   F2100
G0   X180.4212   Y154.3000   Z000.0000   F210
G0   X177.1000   Y150.9788   Z000.0000   F720
G0   X173.7788   Y154.3000   Z000.0000   F720
G0   X177.1000   Y157.6212   Z000.0000   F720
G0   X180.4212   Y154.3000   Z000.0000   F720
G0   X180.4212   Y154.3000   Z003.0000   F500

;Begin Line: layer=0 line=38
G0   X189.7788   Y146.3000   Z003.0000   F2100
G0   X189.7788   Y146.3000   Z000.0000   F210
G0   X197.1000   Y153.6212   Z000.0000   F720
G0   X204.4212   Y146.3000   Z000.0000   F720
G0   X197.1000   Y138.9788   Z000.0000   F720
G0   X189.7788   Y146.3000   Z000.0000   F720
G0   X189.7788   Y146.3000   Z003.0000   F500

;Begin Line: layer=0 line=39
G0   X189.1000   Y145.6212   Z003.0000   F2100
G0   X189.1000   Y145.6212   Z000.0000   F210
G0   X192.4212   Y142.3000   Z000.0000   F720
G0   X189.1000   Y138.9788   Z000.0000   F720
G0   X185.7788   Y142.3000   Z000.0000   F720
G0   X189.1000   Y145.6212   Z000.0000   F720
G0   X189.1000   Y145.6212   Z003.0000   F500

;Begin Line: layer=0 line=40
G0   X192.5343   Y142.3000   Z003.0000   F2100
G0   X192.5343   Y142.3000   Z000.0000   F210
G0   X189.1000   Y138.8657   Z000.0000   F720
G0   X185.6657   Y142.3000   Z000.0000   F720
G0   X189.1000   Y145.7343   Z000.0000   F720
G0   X192.5343   Y142.3000   Z000.0000   F720
G0   X192.5343   Y142.3000   Z003.0000   F500

;Begin Line: layer=0 line=41
G0   X195.1000   Y139.7343   Z003.0000   F2100
G0   X195.1000   Y139.7343   Z000.0000   F210
G0   X196.5343   Y138.3000   Z000.0000   F720
G0   X195.1000   Y136.8657   Z000.0000   F720
G0   X193.6657   Y138.3000   Z000.0000   F720
G0   X195.1000   Y139.7343   Z000.0000   F720
G0   X195.1000   Y139.7343   Z003.0000   F500

;Begin Line: layer=0 line=42
G0   X197.1000   Y138.8657   Z003.0000   F2100
G0   X197.1000   Y138.8657   Z000.0000   F210
G0   X189.6657   Y146.3000   Z000.0000   F720
G0   X197.1000   Y153.7343   Z000.0000   F720
G0   X204.5343   Y146.3000   Z000.0000   F720
G0   X197.1000   Y138.8657   Z000.0000   F720
G0   X197.1000   Y138.8657   Z003.0000   F500

;Begin Line: layer=0 line=43
G0   X197.1000   Y137.7343   Z003.0000   F2100
G0   X197.1000   Y137.7343   Z000.0000   F210
G0   X204.5343   Y130.3000   Z000.0000   F720
G0   X197.1000   Y122.8657   Z000.0000   F720
G0   X189.6657   Y130.3000   Z000.0000   F720
G0   X197.1000   Y137.7343   Z000.0000   F720
G0   X197.1000   Y137.7343   Z003.0000   F500

;Begin Line: layer=0 line=44
G0   X193.1000   Y134.8657   Z003.0000   F2100
G0   X193.1000   Y134.8657   Z000.0000   F210
G0   X191.6657   Y136.3000   Z000.0000   F720
G0   X193.1000   Y137.7343   Z000.0000   F720
G0   X194.5343   Y136.3000   Z000.0000   F720
G0   X193.1000   Y134.8657   Z000.0000   F720
