;Generated with vpype gwrite fabian
G90 ; Use absolute position
G92 X0 Y0 Z0 ; Set the current position as (0,0,0)
G0   X000.0000   Y000.0000   Z003.0000   F500

;Begin Line: layer=0 line=0
G0   X065.2053   Y117.5562   Z003.0000   F2100
G0   X065.2053   Y117.5562   Z000.0000   F210
G0   X064.0060   Y117.2007   Z000.0000   F720
G0   X062.8182   Y116.8736   Z000.0000   F720
G0   X059.4629   Y116.0199   Z000.0000   F720
G0   X058.7134   Y115.7827   Z000.0000   F720
G0   X057.8050   Y115.4332   Z000.0000   F720
G0   X056.3246   Y114.7672   Z000.0000   F720
G0   X054.4875   Y114.0042   Z000.0000   F720
G0   X053.9410   Y113.7570   Z000.0000   F720
G0   X053.3057   Y113.4341   Z000.0000   F720
G0   X052.2732   Y112.8170   Z000.0000   F720
G0   X050.0670   Y111.4381   Z000.0000   F720
G0   X049.6786   Y111.1426   Z000.0000   F720
G0   X049.4051   Y110.8966   Z000.0000   F720
G0   X049.0857   Y110.5644   Z000.0000   F720
G0   X048.7932   Y110.1989   Z000.0000   F720
G0   X048.4587   Y109.7073   Z000.0000   F720
G0   X048.1721   Y109.2181   Z000.0000   F720
G0   X047.9100   Y108.7232   Z000.0000   F720
G0   X047.7062   Y108.2890   Z000.0000   F720
G0   X047.5497   Y107.8899   Z000.0000   F720
G0   X047.4322   Y107.4979   Z000.0000   F720
G0   X047.3354   Y107.0006   Z000.0000   F720
G0   X047.3044   Y106.5121   Z000.0000   F720
G0   X047.3291   Y105.9642   Z000.0000   F720
G0   X047.3967   Y105.4861   Z000.0000   F720
G0   X047.4860   Y105.0540   Z000.0000   F720
G0   X047.6408   Y104.4463   Z000.0000   F720
G0   X047.9260   Y103.5791   Z000.0000   F720
G0   X048.1554   Y102.9747   Z000.0000   F720
G0   X048.4988   Y102.1734   Z000.0000   F720
G0   X048.8274   Y101.4853   Z000.0000   F720
G0   X048.8274   Y101.4853   Z003.0000   F500

;Begin Line: layer=0 line=1
G0   X044.7521   Y104.5253   Z003.0000   F2100
G0   X044.7521   Y104.5253   Z000.0000   F210
G0   X043.7116   Y105.8601   Z000.0000   F720
G0   X042.3020   Y107.5906   Z000.0000   F720
G0   X041.3424   Y108.7254   Z000.0000   F720
G0   X041.0507   Y109.1016   Z000.0000   F720
G0   X040.8399   Y109.4398   Z000.0000   F720
G0   X040.7317   Y109.6837   Z000.0000   F720
G0   X040.6580   Y109.9701   Z000.0000   F720
G0   X040.6415   Y110.1703   Z000.0000   F720
G0   X040.6668   Y110.5341   Z000.0000   F720
G0   X040.7935   Y111.0007   Z000.0000   F720
G0   X040.8763   Y111.2102   Z000.0000   F720
G0   X041.2491   Y111.8865   Z000.0000   F720
G0   X041.9060   Y112.7895   Z000.0000   F720
G0   X043.8434   Y115.2477   Z000.0000   F720
G0   X044.3280   Y115.8221   Z000.0000   F720
G0   X044.7169   Y116.2514   Z000.0000   F720
G0   X045.1294   Y116.6696   Z000.0000   F720
G0   X045.6813   Y117.1672   Z000.0000   F720
G0   X046.1573   Y117.5559   Z000.0000   F720
G0   X046.7147   Y117.9628   Z000.0000   F720
G0   X047.1321   Y118.2440   Z000.0000   F720
G0   X047.9314   Y118.7146   Z000.0000   F720
G0   X049.1962   Y119.3789   Z000.0000   F720
G0   X049.7880   Y119.6537   Z000.0000   F720
G0   X050.2427   Y119.8459   Z000.0000   F720
G0   X050.7199   Y120.0242   Z000.0000   F720
G0   X051.6105   Y120.2770   Z000.0000   F720
G0   X052.4655   Y120.4598   Z000.0000   F720
G0   X053.2604   Y120.5874   Z000.0000   F720
G0   X054.1300   Y120.6822   Z000.0000   F720
G0   X054.6934   Y120.7264   Z000.0000   F720
G0   X055.4213   Y120.7550   Z000.0000   F720
G0   X056.3248   Y120.7229   Z000.0000   F720
G0   X057.2738   Y120.6082   Z000.0000   F720
G0   X058.9200   Y120.3302   Z000.0000   F720
G0   X059.9567   Y120.2212   Z000.0000   F720
G0   X059.9567   Y120.2212   Z003.0000   F500

;Begin Line: layer=0 line=2
G0   X061.2803   Y121.5636   Z003.0000   F2100
G0   X061.2803   Y121.5636   Z000.0000   F210
G0   X060.6730   Y121.5943   Z000.0000   F720
G0   X059.5569   Y121.7147   Z000.0000   F720
G0   X058.3222   Y121.9699   Z000.0000   F720
G0   X057.2079   Y122.2431   Z000.0000   F720
G0   X056.2706   Y122.4272   Z000.0000   F720
G0   X055.4087   Y122.5316   Z000.0000   F720
G0   X054.4068   Y122.5898   Z000.0000   F720
G0   X053.6106   Y122.5959   Z000.0000   F720
G0   X053.0785   Y122.5716   Z000.0000   F720
G0   X052.5075   Y122.5214   Z000.0000   F720
G0   X051.7361   Y122.4160   Z000.0000   F720
G0   X050.8192   Y122.2260   Z000.0000   F720
G0   X050.0532   Y121.9942   Z000.0000   F720
G0   X049.3333   Y121.7012   Z000.0000   F720
G0   X048.8800   Y121.4627   Z000.0000   F720
G0   X048.3703   Y121.1567   Z000.0000   F720
G0   X047.3372   Y120.4501   Z000.0000   F720
G0   X046.0868   Y119.5244   Z000.0000   F720
G0   X045.5043   Y119.0601   Z000.0000   F720
G0   X044.5736   Y118.2501   Z000.0000   F720
G0   X043.4337   Y117.1437   Z000.0000   F720
G0   X042.9085   Y116.5827   Z000.0000   F720
G0   X040.9244   Y114.3543   Z000.0000   F720
G0   X039.6627   Y112.9773   Z000.0000   F720
G0   X038.8190   Y112.0815   Z000.0000   F720
G0   X038.4139   Y111.6797   Z000.0000   F720
G0   X038.1810   Y111.4760   Z000.0000   F720
G0   X037.9728   Y111.3386   Z000.0000   F720
G0   X037.7643   Y111.2718   Z000.0000   F720
G0   X037.7643   Y111.2718   Z003.0000   F500

;Begin Line: layer=0 line=3
G0   X041.8952   Y108.2550   Z003.0000   F2100
G0   X041.8952   Y108.2550   Z000.0000   F210
G0   X041.5284   Y108.7849   Z000.0000   F720
G0   X041.3908   Y109.0241   Z000.0000   F720
G0   X041.3042   Y109.2122   Z000.0000   F720
G0   X041.1863   Y109.5908   Z000.0000   F720
G0   X041.1433   Y109.8884   Z000.0000   F720
G0   X041.1378   Y110.0313   Z000.0000   F720
G0   X041.1592   Y110.2957   Z000.0000   F720
G0   X041.2257   Y110.6136   Z000.0000   F720
G0   X041.2975   Y110.8548   Z000.0000   F720
G0   X041.4112   Y111.1426   Z000.0000   F720
G0   X041.6262   Y111.5552   Z000.0000   F720
G0   X041.8570   Y111.9296   Z000.0000   F720
G0   X042.2700   Y112.5034   Z000.0000   F720
G0   X043.9048   Y114.6357   Z000.0000   F720
G0   X044.5388   Y115.4108   Z000.0000   F720
G0   X045.1646   Y116.0880   Z000.0000   F720
G0   X045.9674   Y116.8120   Z000.0000   F720
G0   X046.6710   Y117.3539   Z000.0000   F720
G0   X047.4796   Y117.8816   Z000.0000   F720
G0   X048.0413   Y118.2118   Z000.0000   F720
G0   X048.8354   Y118.6255   Z000.0000   F720
G0   X049.4910   Y118.9391   Z000.0000   F720
G0   X049.9597   Y119.1478   Z000.0000   F720
G0   X050.6608   Y119.4173   Z000.0000   F720
G0   X051.2198   Y119.6014   Z000.0000   F720
G0   X051.8559   Y119.7726   Z000.0000   F720
G0   X052.7033   Y119.9510   Z000.0000   F720
G0   X053.3507   Y120.0647   Z000.0000   F720
G0   X054.2018   Y120.1784   Z000.0000   F720
G0   X054.8445   Y120.2437   Z000.0000   F720
G0   X055.4414   Y120.2842   Z000.0000   F720
G0   X056.4243   Y120.2653   Z000.0000   F720
G0   X057.5745   Y120.1253   Z000.0000   F720
G0   X058.4421   Y119.9896   Z000.0000   F720
G0   X058.4421   Y119.9896   Z003.0000   F500

;Begin Line: layer=0 line=4
G0   X057.4878   Y114.8782   Z003.0000   F2100
G0   X057.4878   Y114.8782   Z000.0000   F210
G0   X056.1189   Y114.1646   Z000.0000   F720
G0   X054.5889   Y113.4339   Z000.0000   F720
G0   X053.8912   Y113.0844   Z000.0000   F720
G0   X053.3001   Y112.7604   Z000.0000   F720
G0   X050.7918   Y111.3152   Z000.0000   F720
G0   X050.1924   Y110.9321   Z000.0000   F720
G0   X049.6957   Y110.5400   Z000.0000   F720
G0   X049.4109   Y110.2519   Z000.0000   F720
G0   X049.1223   Y109.9093   Z000.0000   F720
G0   X048.7606   Y109.4086   Z000.0000   F720
G0   X048.4538   Y108.9145   Z000.0000   F720
G0   X048.2040   Y108.4700   Z000.0000   F720
G0   X047.8529   Y107.7297   Z000.0000   F720
G0   X047.7562   Y107.4495   Z000.0000   F720
G0   X047.6276   Y106.9647   Z000.0000   F720
G0   X047.5869   Y106.6371   Z000.0000   F720
G0   X047.5686   Y106.1756   Z000.0000   F720
G0   X047.5935   Y105.7762   Z000.0000   F720
G0   X047.6750   Y105.1670   Z000.0000   F720
G0   X047.8200   Y104.5078   Z000.0000   F720
G0   X047.9737   Y103.9799   Z000.0000   F720
G0   X048.1117   Y103.5744   Z000.0000   F720
G0   X048.4307   Y102.7541   Z000.0000   F720
G0   X048.7091   Y102.1105   Z000.0000   F720
G0   X049.1538   Y101.2186   Z000.0000   F720
G0   X049.6532   Y100.3597   Z000.0000   F720
G0   X050.0814   Y099.6979   Z000.0000   F720
G0   X051.2819   Y097.9255   Z000.0000   F720
G0   X051.7932   Y097.1133   Z000.0000   F720
G0   X052.0618   Y096.6477   Z000.0000   F720
G0   X052.3727   Y096.0672   Z000.0000   F720
G0   X052.6461   Y095.5065   Z000.0000   F720
G0   X052.9597   Y094.8027   Z000.0000   F720
G0   X053.2586   Y094.0561   Z000.0000   F720
G0   X053.7312   Y092.7261   Z000.0000   F720
G0   X054.1503   Y091.4723   Z000.0000   F720
G0   X054.4551   Y090.4852   Z000.0000   F720
G0   X054.7254   Y089.4776   Z000.0000   F720
G0   X054.8854   Y088.7611   Z000.0000   F720
G0   X054.9441   Y088.3589   Z000.0000   F720
G0   X054.9870   Y087.8646   Z000.0000   F720
G0   X054.9910   Y087.2335   Z000.0000   F720
G0   X054.9517   Y086.8275   Z000.0000   F720
G0   X054.8869   Y086.4134   Z000.0000   F720
G0   X054.7838   Y085.9163   Z000.0000   F720
G0   X054.5680   Y085.1138   Z000.0000   F720
G0   X054.4008   Y084.5816   Z000.0000   F720
G0   X054.1103   Y083.7809   Z000.0000   F720
G0   X053.8934   Y083.2389   Z000.0000   F720
G0   X053.0852   Y081.4115   Z000.0000   F720
G0   X052.7157   Y080.5219   Z000.0000   F720
G0   X052.5024   Y079.9594   Z000.0000   F720
G0   X051.8466   Y078.0927   Z000.0000   F720
G0   X051.5606   Y077.3907   Z000.0000   F720
G0   X051.2517   Y076.7729   Z000.0000   F720
G0   X050.8678   Y076.1169   Z000.0000   F720
G0   X049.7889   Y074.4259   Z000.0000   F720
G0   X049.2153   Y073.4073   Z000.0000   F720
G0   X048.3713   Y071.7628   Z000.0000   F720
G0   X047.8091   Y070.4745   Z000.0000   F720
G0   X047.4965   Y069.6091   Z000.0000   F720
G0   X047.1122   Y068.3536   Z000.0000   F720
G0   X046.6362   Y066.6299   Z000.0000   F720
G0   X046.0362   Y064.1027   Z000.0000   F720
G0   X045.7258   Y062.9721   Z000.0000   F720
G0   X045.3347   Y061.8128   Z000.0000   F720
G0   X045.0609   Y061.1666   Z000.0000   F720
G0   X044.7623   Y060.5520   Z000.0000   F720
G0   X044.3396   Y059.7956   Z000.0000   F720
G0   X043.9293   Y059.1774   Z000.0000   F720
G0   X043.5689   Y058.6926   Z000.0000   F720
G0   X043.5689   Y058.6926   Z003.0000   F500

;Begin Line: layer=0 line=5
G0   X043.5689   Y058.6926   Z003.0000   F2100
G0   X043.5689   Y058.6926   Z000.0000   F210
G0   X043.5204   Y058.6274   Z000.0000   F720
G0   X043.5204   Y058.6274   Z003.0000   F500

;Begin Line: layer=0 line=6
G0   X043.5204   Y058.6274   Z003.0000   F2100
G0   X043.5204   Y058.6274   Z000.0000   F210
G0   X042.1709   Y056.9258   Z000.0000   F720
G0   X040.6120   Y054.8441   Z000.0000   F720
G0   X039.6182   Y053.5657   Z000.0000   F720
G0   X038.9711   Y052.8365   Z000.0000   F720
G0   X037.9457   Y051.8109   Z000.0000   F720
G0   X037.2265   Y051.1728   Z000.0000   F720
G0   X033.2878   Y047.8187   Z000.0000   F720
G0   X032.2143   Y046.8873   Z000.0000   F720
G0   X032.2143   Y046.8873   Z003.0000   F500

;Begin Line: layer=0 line=7
G0   X031.2103   Y045.9205   Z003.0000   F2100
G0   X031.2103   Y045.9205   Z000.0000   F210
G0   X032.6278   Y047.2004   Z000.0000   F720
G0   X036.5929   Y050.5674   Z000.0000   F720
G0   X037.9445   Y051.7625   Z000.0000   F720
G0   X039.0385   Y052.8633   Z000.0000   F720
G0   X039.9163   Y053.8995   Z000.0000   F720
G0   X040.8201   Y055.0776   Z000.0000   F720
G0   X042.0173   Y056.6863   Z000.0000   F720
G0   X043.0777   Y058.0320   Z000.0000   F720
G0   X043.5204   Y058.6274   Z000.0000   F720
G0   X043.5204   Y058.6274   Z003.0000   F500

;Begin Line: layer=0 line=8
G0   X043.5204   Y058.6274   Z003.0000   F2100
G0   X043.5204   Y058.6274   Z000.0000   F210
G0   X043.5689   Y058.6926   Z000.0000   F720
G0   X043.5689   Y058.6926   Z003.0000   F500

;Begin Line: layer=0 line=9
G0   X043.5689   Y058.6926   Z003.0000   F2100
G0   X043.5689   Y058.6926   Z000.0000   F210
G0   X044.2756   Y059.7481   Z000.0000   F720
G0   X044.6539   Y060.4026   Z000.0000   F720
G0   X044.9571   Y061.0063   Z000.0000   F720
G0   X045.3606   Y062.0004   Z000.0000   F720
G0   X045.6485   Y062.8348   Z000.0000   F720
G0   X045.9529   Y063.9075   Z000.0000   F720
G0   X046.5383   Y066.3974   Z000.0000   F720
G0   X046.9693   Y068.0145   Z000.0000   F720
G0   X047.2177   Y068.8728   Z000.0000   F720
G0   X047.5137   Y069.8046   Z000.0000   F720
G0   X047.7518   Y070.4802   Z000.0000   F720
G0   X048.0968   Y071.3161   Z000.0000   F720
G0   X048.3370   Y071.8457   Z000.0000   F720
G0   X049.2461   Y073.6522   Z000.0000   F720
G0   X049.7307   Y074.5367   Z000.0000   F720
G0   X050.6971   Y076.1036   Z000.0000   F720
G0   X050.9993   Y076.6227   Z000.0000   F720
G0   X051.2860   Y077.1808   Z000.0000   F720
G0   X051.5393   Y077.7683   Z000.0000   F720
G0   X051.7597   Y078.3808   Z000.0000   F720
G0   X052.3846   Y080.3019   Z000.0000   F720
G0   X052.6184   Y080.9278   Z000.0000   F720
G0   X052.9577   Y081.7591   Z000.0000   F720
G0   X053.6670   Y083.4169   Z000.0000   F720
G0   X054.0213   Y084.3673   Z000.0000   F720
G0   X054.3459   Y085.4132   Z000.0000   F720
G0   X054.5689   Y086.3252   Z000.0000   F720
G0   X054.6934   Y087.1040   Z000.0000   F720
G0   X054.7173   Y087.7034   Z000.0000   F720
G0   X054.6713   Y088.3752   Z000.0000   F720
G0   X054.5882   Y088.9386   Z000.0000   F720
G0   X054.3145   Y090.1436   Z000.0000   F720
G0   X054.1154   Y090.8551   Z000.0000   F720
G0   X053.5011   Y092.8008   Z000.0000   F720
G0   X053.0952   Y093.9741   Z000.0000   F720
G0   X052.8067   Y094.7157   Z000.0000   F720
G0   X052.5651   Y095.2835   Z000.0000   F720
G0   X052.2900   Y095.8693   Z000.0000   F720
G0   X051.9373   Y096.5381   Z000.0000   F720
G0   X051.4668   Y097.3437   Z000.0000   F720
G0   X049.8977   Y099.7207   Z000.0000   F720
G0   X049.4929   Y100.3651   Z000.0000   F720
G0   X049.0309   Y101.1789   Z000.0000   F720
G0   X048.5055   Y102.2541   Z000.0000   F720
G0   X048.1523   Y103.0897   Z000.0000   F720
G0   X047.9906   Y103.5119   Z000.0000   F720
G0   X047.8041   Y104.0588   Z000.0000   F720
G0   X047.6583   Y104.5468   Z000.0000   F720
G0   X047.5364   Y105.0292   Z000.0000   F720
G0   X047.4351   Y105.5599   Z000.0000   F720
G0   X047.3772   Y106.0410   Z000.0000   F720
G0   X047.3655   Y106.5603   Z000.0000   F720
G0   X047.4012   Y107.0050   Z000.0000   F720
G0   X047.4629   Y107.3606   Z000.0000   F720
G0   X047.5763   Y107.7594   Z000.0000   F720
G0   X047.7341   Y108.1688   Z000.0000   F720
G0   X047.9511   Y108.6279   Z000.0000   F720
G0   X048.4219   Y109.4825   Z000.0000   F720
G0   X048.6771   Y109.8855   Z000.0000   F720
G0   X049.0319   Y110.3544   Z000.0000   F720
G0   X049.2670   Y110.6259   Z000.0000   F720
G0   X049.5278   Y110.8857   Z000.0000   F720
G0   X049.8014   Y111.1222   Z000.0000   F720
G0   X050.0982   Y111.3479   Z000.0000   F720
G0   X050.5374   Y111.6393   Z000.0000   F720
G0   X053.1418   Y113.2170   Z000.0000   F720
G0   X053.5446   Y113.4415   Z000.0000   F720
G0   X054.0349   Y113.6897   Z000.0000   F720
G0   X054.0349   Y113.6897   Z003.0000   F500

;Begin Line: layer=0 line=10
G0   X054.4363   Y113.5868   Z003.0000   F2100
G0   X054.4363   Y113.5868   Z000.0000   F210
G0   X053.7744   Y113.2606   Z000.0000   F720
G0   X053.1542   Y112.9212   Z000.0000   F720
G0   X050.9439   Y111.6237   Z000.0000   F720
G0   X050.2927   Y111.2254   Z000.0000   F720
G0   X049.8418   Y110.8967   Z000.0000   F720
G0   X049.5207   Y110.6113   Z000.0000   F720
G0   X049.1030   Y110.1698   Z000.0000   F720
G0   X048.7848   Y109.7462   Z000.0000   F720
G0   X048.2942   Y108.9494   Z000.0000   F720
G0   X047.8976   Y108.1843   Z000.0000   F720
G0   X047.7169   Y107.7581   Z000.0000   F720
G0   X047.6118   Y107.4288   Z000.0000   F720
G0   X047.5020   Y106.9435   Z000.0000   F720
G0   X047.4715   Y106.6063   Z000.0000   F720
G0   X047.4688   Y106.3146   Z000.0000   F720
G0   X047.4995   Y105.7280   Z000.0000   F720
G0   X047.5819   Y105.1974   Z000.0000   F720
