;Generated with vpype gwrite fabian
G90 ; Use absolute position
G92 X0 Y0 Z0 ; Set the current position as (0,0,0)
G0   X000.0000   Y000.0000   Z003.0000   F500

;Begin Line: layer=0 line=0
G0   X080.4627   Y015.9254   Z003.0000   F2100
G0   X080.4627   Y015.9254   Z000.0000   F210
G0   X080.0605   Y016.4735   Z000.0000   F720
G0   X079.5032   Y017.1126   Z000.0000   F720
G0   X079.0668   Y017.5214   Z000.0000   F720
G0   X077.4776   Y018.8781   Z000.0000   F720
G0   X077.0272   Y019.3038   Z000.0000   F720
G0   X076.3195   Y020.0226   Z000.0000   F720
G0   X075.4769   Y020.9685   Z000.0000   F720
G0   X073.4503   Y023.3879   Z000.0000   F720
G0   X071.2431   Y025.8467   Z000.0000   F720
G0   X069.9611   Y027.0819   Z000.0000   F720
G0   X068.4561   Y028.3457   Z000.0000   F720
G0   X066.7401   Y029.7061   Z000.0000   F720
G0   X065.6767   Y030.6921   Z000.0000   F720
G0   X064.4577   Y031.9696   Z000.0000   F720
G0   X063.9080   Y032.6090   Z000.0000   F720
G0   X062.6743   Y034.1245   Z000.0000   F720
G0   X062.2175   Y034.7818   Z000.0000   F720
G0   X062.2175   Y034.7818   Z003.0000   F500

;Begin Line: layer=0 line=1
G0   X061.9573   Y033.0468   Z003.0000   F2100
G0   X061.9573   Y033.0468   Z000.0000   F210
G0   X061.1024   Y034.1061   Z000.0000   F720
G0   X060.6743   Y034.7721   Z000.0000   F720
G0   X060.4573   Y035.1960   Z000.0000   F720
G0   X060.2253   Y035.7368   Z000.0000   F720
G0   X060.0050   Y036.3994   Z000.0000   F720
G0   X059.8474   Y037.0960   Z000.0000   F720
G0   X059.7663   Y037.8081   Z000.0000   F720
G0   X059.7795   Y038.4555   Z000.0000   F720
G0   X059.8552   Y038.9113   Z000.0000   F720
G0   X060.0255   Y039.5559   Z000.0000   F720
G0   X060.2110   Y040.0569   Z000.0000   F720
G0   X060.5314   Y040.8196   Z000.0000   F720
G0   X060.8220   Y041.4483   Z000.0000   F720
G0   X061.2102   Y042.2306   Z000.0000   F720
G0   X061.5512   Y042.8293   Z000.0000   F720
G0   X061.9705   Y043.4826   Z000.0000   F720
G0   X062.6170   Y044.3565   Z000.0000   F720
G0   X063.2342   Y045.0459   Z000.0000   F720
G0   X063.9245   Y045.7292   Z000.0000   F720
G0   X064.6020   Y046.3500   Z000.0000   F720
G0   X067.0053   Y048.3966   Z000.0000   F720
G0   X067.7879   Y049.1191   Z000.0000   F720
G0   X068.4803   Y049.8473   Z000.0000   F720
G0   X069.0845   Y050.6072   Z000.0000   F720
G0   X069.4525   Y051.2076   Z000.0000   F720
G0   X069.7817   Y051.8758   Z000.0000   F720
G0   X069.9987   Y052.4230   Z000.0000   F720
G0   X070.3122   Y053.3540   Z000.0000   F720
G0   X070.4769   Y054.0160   Z000.0000   F720
G0   X070.6494   Y054.8864   Z000.0000   F720
G0   X070.7550   Y055.6139   Z000.0000   F720
G0   X070.8648   Y056.5564   Z000.0000   F720
G0   X071.1909   Y060.0289   Z000.0000   F720
G0   X071.3195   Y061.1274   Z000.0000   F720
G0   X071.4309   Y061.8374   Z000.0000   F720
G0   X071.5871   Y062.6891   Z000.0000   F720
G0   X071.9859   Y064.5045   Z000.0000   F720
G0   X072.1285   Y065.0202   Z000.0000   F720
G0   X072.3515   Y065.7047   Z000.0000   F720
G0   X072.5821   Y066.2888   Z000.0000   F720
G0   X072.7997   Y066.7763   Z000.0000   F720
G0   X073.7691   Y068.7726   Z000.0000   F720
G0   X074.0814   Y069.4996   Z000.0000   F720
G0   X074.4711   Y070.5379   Z000.0000   F720
G0   X074.9014   Y071.8783   Z000.0000   F720
G0   X075.0972   Y072.3512   Z000.0000   F720
G0   X075.3974   Y072.9189   Z000.0000   F720
G0   X076.0501   Y073.9467   Z000.0000   F720
G0   X076.2209   Y074.2800   Z000.0000   F720
G0   X076.3530   Y074.6194   Z000.0000   F720
G0   X076.3530   Y074.6194   Z003.0000   F500

;Begin Line: layer=0 line=2
G0   X075.9981   Y074.7474   Z003.0000   F2100
G0   X075.9981   Y074.7474   Z000.0000   F210
G0   X075.7398   Y074.2155   Z000.0000   F720
G0   X074.9943   Y073.0668   Z000.0000   F720
G0   X074.7441   Y072.6272   Z000.0000   F720
G0   X074.6182   Y072.3744   Z000.0000   F720
G0   X074.4187   Y071.9158   Z000.0000   F720
G0   X073.9042   Y070.4379   Z000.0000   F720
G0   X073.5689   Y069.6085   Z000.0000   F720
G0   X073.3631   Y069.1720   Z000.0000   F720
G0   X073.1055   Y068.6802   Z000.0000   F720
G0   X072.1039   Y066.9307   Z000.0000   F720
G0   X071.7789   Y066.2582   Z000.0000   F720
G0   X071.4617   Y065.4409   Z000.0000   F720
G0   X071.2584   Y064.8089   Z000.0000   F720
G0   X071.1049   Y064.2472   Z000.0000   F720
G0   X070.7253   Y062.6184   Z000.0000   F720
G0   X070.3566   Y060.8605   Z000.0000   F720
G0   X069.6636   Y057.2036   Z000.0000   F720
G0   X069.3035   Y055.4905   Z000.0000   F720
G0   X069.0994   Y054.6726   Z000.0000   F720
G0   X068.8231   Y053.7652   Z000.0000   F720
G0   X068.4939   Y052.9239   Z000.0000   F720
G0   X068.1525   Y052.2420   Z000.0000   F720
G0   X067.5199   Y051.3455   Z000.0000   F720
G0   X066.9473   Y050.6910   Z000.0000   F720
G0   X066.0036   Y049.8323   Z000.0000   F720
G0   X064.2103   Y048.4276   Z000.0000   F720
G0   X063.4286   Y047.7800   Z000.0000   F720
G0   X062.9398   Y047.3513   Z000.0000   F720
G0   X062.9398   Y047.3513   Z003.0000   F500

;Begin Line: layer=0 line=3
G0   X062.4560   Y049.9130   Z003.0000   F2100
G0   X062.4560   Y049.9130   Z000.0000   F210
G0   X061.2312   Y048.5007   Z000.0000   F720
G0   X060.5738   Y047.8062   Z000.0000   F720
G0   X060.0338   Y047.2942   Z000.0000   F720
G0   X059.4903   Y046.8312   Z000.0000   F720
G0   X059.0434   Y046.4761   Z000.0000   F720
G0   X058.2992   Y045.9205   Z000.0000   F720
G0   X057.7645   Y045.5532   Z000.0000   F720
G0   X057.2903   Y045.2525   Z000.0000   F720
G0   X056.4122   Y044.7588   Z000.0000   F720
G0   X054.6774   Y043.8588   Z000.0000   F720
G0   X054.0355   Y043.4766   Z000.0000   F720
G0   X053.1536   Y042.8860   Z000.0000   F720
G0   X052.6456   Y042.5006   Z000.0000   F720
G0   X051.9907   Y041.9679   Z000.0000   F720
G0   X051.0049   Y041.1003   Z000.0000   F720
G0   X050.1983   Y040.3125   Z000.0000   F720
G0   X049.3060   Y039.3848   Z000.0000   F720
G0   X048.9721   Y039.0559   Z000.0000   F720
G0   X048.5591   Y038.6881   Z000.0000   F720
G0   X047.8801   Y038.1665   Z000.0000   F720
G0   X047.2109   Y037.7256   Z000.0000   F720
G0   X047.2109   Y037.7256   Z003.0000   F500

;Begin Line: layer=0 line=4
G0   X047.8999   Y037.6488   Z003.0000   F2100
G0   X047.8999   Y037.6488   Z000.0000   F210
G0   X048.3266   Y037.9739   Z000.0000   F720
G0   X048.7193   Y038.3148   Z000.0000   F720
G0   X049.0979   Y038.6895   Z000.0000   F720
G0   X050.3235   Y040.0864   Z000.0000   F720
G0   X050.7804   Y040.5837   Z000.0000   F720
G0   X051.1544   Y040.9557   Z000.0000   F720
G0   X051.9986   Y041.7267   Z000.0000   F720
G0   X052.7908   Y042.3964   Z000.0000   F720
G0   X053.3123   Y042.8010   Z000.0000   F720
G0   X053.6007   Y043.0039   Z000.0000   F720
G0   X054.0763   Y043.3208   Z000.0000   F720
G0   X054.4774   Y043.5656   Z000.0000   F720
G0   X055.0673   Y043.8998   Z000.0000   F720
G0   X056.9640   Y044.8804   Z000.0000   F720
G0   X057.7854   Y045.3834   Z000.0000   F720
G0   X058.8006   Y046.1028   Z000.0000   F720
G0   X059.3982   Y046.5619   Z000.0000   F720
G0   X060.0256   Y047.0798   Z000.0000   F720
G0   X060.5874   Y047.5977   Z000.0000   F720
G0   X061.0330   Y048.0559   Z000.0000   F720
G0   X062.6555   Y049.8711   Z000.0000   F720
G0   X064.3887   Y051.6689   Z000.0000   F720
G0   X064.9009   Y052.2363   Z000.0000   F720
G0   X065.4396   Y052.8897   Z000.0000   F720
G0   X065.9423   Y053.5789   Z000.0000   F720
G0   X066.5336   Y054.5256   Z000.0000   F720
G0   X066.8519   Y055.1586   Z000.0000   F720
G0   X067.3347   Y056.2339   Z000.0000   F720
G0   X067.7468   Y057.2799   Z000.0000   F720
G0   X068.0915   Y058.2508   Z000.0000   F720
G0   X068.7892   Y060.4361   Z000.0000   F720
G0   X069.1772   Y061.8524   Z000.0000   F720
G0   X069.4060   Y062.8194   Z000.0000   F720
G0   X069.7611   Y064.4612   Z000.0000   F720
G0   X069.9771   Y065.2782   Z000.0000   F720
G0   X070.3079   Y066.2233   Z000.0000   F720
G0   X070.5592   Y066.7768   Z000.0000   F720
G0   X070.9557   Y067.5583   Z000.0000   F720
G0   X071.7020   Y068.8916   Z000.0000   F720
G0   X071.9929   Y069.4572   Z000.0000   F720
G0   X072.2035   Y069.9197   Z000.0000   F720
G0   X072.4058   Y070.4212   Z000.0000   F720
G0   X072.8309   Y071.6218   Z000.0000   F720
G0   X073.1621   Y072.4352   Z000.0000   F720
G0   X073.4975   Y073.1021   Z000.0000   F720
G0   X074.1554   Y074.2460   Z000.0000   F720
G0   X074.5120   Y074.9446   Z000.0000   F720
G0   X074.8055   Y075.6340   Z000.0000   F720
G0   X075.2617   Y076.8591   Z000.0000   F720
G0   X075.5503   Y077.5876   Z000.0000   F720
G0   X075.8255   Y078.1868   Z000.0000   F720
G0   X076.0626   Y078.6362   Z000.0000   F720
G0   X076.3903   Y079.1537   Z000.0000   F720
G0   X076.5666   Y079.3785   Z000.0000   F720
G0   X076.7257   Y079.5477   Z000.0000   F720
G0   X076.9032   Y079.7055   Z000.0000   F720
G0   X077.0938   Y079.8414   Z000.0000   F720
G0   X077.4459   Y080.0128   Z000.0000   F720
G0   X077.7727   Y080.0961   Z000.0000   F720
G0   X078.0865   Y080.1253   Z000.0000   F720
G0   X078.3219   Y080.1248   Z000.0000   F720
G0   X078.6867   Y080.0842   Z000.0000   F720
G0   X079.0845   Y079.9998   Z000.0000   F720
G0   X079.4241   Y079.8956   Z000.0000   F720
G0   X079.7123   Y079.7761   Z000.0000   F720
G0   X079.9640   Y079.6382   Z000.0000   F720
G0   X080.1862   Y079.4589   Z000.0000   F720
G0   X080.1862   Y079.4589   Z003.0000   F500

;Begin Line: layer=0 line=5
G0   X079.9655   Y079.4254   Z003.0000   F2100
G0   X079.9655   Y079.4254   Z000.0000   F210
G0   X079.6370   Y079.5391   Z000.0000   F720
G0   X079.2610   Y079.5947   Z000.0000   F720
G0   X078.8849   Y079.5883   Z000.0000   F720
G0   X078.6151   Y079.5416   Z000.0000   F720
G0   X078.4592   Y079.4933   Z000.0000   F720
G0   X078.2052   Y079.3752   Z000.0000   F720
G0   X077.9717   Y079.2081   Z000.0000   F720
G0   X077.7529   Y078.9788   Z000.0000   F720
G0   X077.5640   Y078.7045   Z000.0000   F720
G0   X077.3712   Y078.3180   Z000.0000   F720
G0   X077.2487   Y078.0101   Z000.0000   F720
G0   X077.0129   Y077.2478   Z000.0000   F720
G0   X076.8301   Y076.4499   Z000.0000   F720
G0   X076.5915   Y075.1389   Z000.0000   F720
G0   X076.5113   Y074.7875   Z000.0000   F720
G0   X076.4117   Y074.4454   Z000.0000   F720
G0   X076.2762   Y074.1102   Z000.0000   F720
G0   X076.1467   Y073.8569   Z000.0000   F720
G0   X075.5178   Y072.8433   Z000.0000   F720
G0   X075.3324   Y072.4980   Z000.0000   F720
G0   X075.2122   Y072.2345   Z000.0000   F720
G0   X075.0671   Y071.8712   Z000.0000   F720
G0   X074.6508   Y070.5315   Z000.0000   F720
G0   X074.3408   Y069.6667   Z000.0000   F720
G0   X073.9131   Y068.5975   Z000.0000   F720
G0   X073.0620   Y066.6362   Z000.0000   F720
G0   X072.8436   Y066.0636   Z000.0000   F720
G0   X072.6336   Y065.4259   Z000.0000   F720
G0   X072.3927   Y064.5318   Z000.0000   F720
G0   X072.2979   Y064.0959   Z000.0000   F720
G0   X072.0306   Y062.6616   Z000.0000   F720
G0   X071.8632   Y061.5846   Z000.0000   F720
G0   X071.7637   Y060.6181   Z000.0000   F720
G0   X071.7063   Y059.7513   Z000.0000   F720
G0   X071.5522   Y056.3462   Z000.0000   F720
G0   X071.4859   Y055.4005   Z000.0000   F720
G0   X071.3943   Y054.5870   Z000.0000   F720
G0   X071.1925   Y053.5504   Z000.0000   F720
G0   X070.9133   Y052.5755   Z000.0000   F720
G0   X070.6858   Y051.9102   Z000.0000   F720
G0   X070.2688   Y050.8760   Z000.0000   F720
G0   X070.0330   Y050.3938   Z000.0000   F720
G0   X069.7807   Y049.9498   Z000.0000   F720
G0   X069.2520   Y049.2277   Z000.0000   F720
G0   X068.9078   Y048.8087   Z000.0000   F720
G0   X068.2027   Y048.0429   Z000.0000   F720
G0   X067.0524   Y046.8325   Z000.0000   F720
G0   X065.1797   Y044.9243   Z000.0000   F720
G0   X064.6062   Y044.2777   Z000.0000   F720
G0   X064.1759   Y043.7296   Z000.0000   F720
G0   X063.7027   Y043.0118   Z000.0000   F720
G0   X063.3456   Y042.3775   Z000.0000   F720
G0   X062.8879   Y041.3022   Z000.0000   F720
G0   X062.6739   Y040.6983   Z000.0000   F720
G0   X062.4469   Y039.7486   Z000.0000   F720
G0   X062.3519   Y039.0569   Z000.0000   F720
G0   X062.3609   Y038.2618   Z000.0000   F720
G0   X062.3609   Y038.2618   Z003.0000   F500

;Begin Line: layer=0 line=6
G0   X064.6989   Y037.2670   Z003.0000   F2100
G0   X064.6989   Y037.2670   Z000.0000   F210
G0   X064.4955   Y038.1049   Z000.0000   F720
G0   X064.4208   Y038.7818   Z000.0000   F720
G0   X064.4307   Y039.5302   Z000.0000   F720
G0   X064.5362   Y040.2183   Z000.0000   F720
G0   X064.7831   Y041.1181   Z000.0000   F720
G0   X065.1094   Y041.9099   Z000.0000   F720
G0   X065.4774   Y042.6299   Z000.0000   F720
G0   X066.0273   Y043.5473   Z000.0000   F720
G0   X066.4697   Y044.1633   Z000.0000   F720
G0   X067.1906   Y045.0937   Z000.0000   F720
G0   X069.3757   Y047.8667   Z000.0000   F720
G0   X069.9318   Y048.6100   Z000.0000   F720
G0   X070.1884   Y049.0155   Z000.0000   F720
G0   X070.4833   Y049.5492   Z000.0000   F720
G0   X070.7234   Y050.0782   Z000.0000   F720
G0   X070.9939   Y050.7757   Z000.0000   F720
G0   X071.4241   Y052.0637   Z000.0000   F720
G0   X071.5634   Y052.5402   Z000.0000   F720
G0   X071.7365   Y053.2231   Z000.0000   F720
G0   X071.8635   Y053.9098   Z000.0000   F720
G0   X071.9756   Y054.8329   Z000.0000   F720
G0   X072.0303   Y055.8512   Z000.0000   F720
G0   X072.0618   Y059.0844   Z000.0000   F720
G0   X072.1089   Y060.6499   Z000.0000   F720
G0   X072.1757   Y061.4753   Z000.0000   F720
G0   X072.2295   Y061.9330   Z000.0000   F720
G0   X072.4008   Y063.1161   Z000.0000   F720
G0   X072.5544   Y064.0354   Z000.0000   F720
G0   X072.6616   Y064.6038   Z000.0000   F720
G0   X072.7682   Y065.0695   Z000.0000   F720
G0   X073.0919   Y066.1872   Z000.0000   F720
G0   X073.5228   Y067.3484   Z000.0000   F720
G0   X074.1184   Y068.8155   Z000.0000   F720
G0   X074.5344   Y069.9130   Z000.0000   F720
G0   X074.5344   Y069.9130   Z003.0000   F500

;Begin Line: layer=0 line=7
G0   X074.5165   Y069.5981   Z003.0000   F2100
G0   X074.5165   Y069.5981   Z000.0000   F210
G0   X073.6955   Y067.3971   Z000.0000   F720
G0   X073.4921   Y066.8157   Z000.0000   F720
G0   X073.2309   Y065.9799   Z000.0000   F720
G0   X072.9837   Y064.9604   Z000.0000   F720
G0   X072.8875   Y064.4370   Z000.0000   F720
G0   X072.6850   Y063.0022   Z000.0000   F720
G0   X072.5311   Y061.5235   Z000.0000   F720
G0   X072.4929   Y060.9815   Z000.0000   F720
G0   X072.4671   Y060.0734   Z000.0000   F720
G0   X072.4876   Y058.6433   Z000.0000   F720
G0   X072.5994   Y055.3830   Z000.0000   F720
G0   X072.5828   Y054.4117   Z000.0000   F720
G0   X072.5432   Y053.7813   Z000.0000   F720
G0   X072.4805   Y053.2237   Z000.0000   F720
G0   X072.3219   Y052.4147   Z000.0000   F720
G0   X072.2145   Y051.9516   Z000.0000   F720
G0   X071.5672   Y049.4404   Z000.0000   F720
G0   X071.4403   Y049.0302   Z000.0000   F720
G0   X071.2232   Y048.4681   Z000.0000   F720
G0   X070.9892   Y047.9604   Z000.0000   F720
G0   X070.7480   Y047.4992   Z000.0000   F720
G0   X070.3209   Y046.7822   Z000.0000   F720
G0   X070.0049   Y046.2782   Z000.0000   F720
G0   X068.5779   Y044.1246   Z000.0000   F720
G0   X068.0683   Y043.2864   Z000.0000   F720
G0   X067.6725   Y042.5483   Z000.0000   F720
G0   X067.4052   Y041.9794   Z000.0000   F720
G0   X067.2004   Y041.4786   Z000.0000   F720
G0   X067.0145   Y040.9292   Z000.0000   F720
G0   X066.8451   Y040.2094   Z000.0000   F720
G0   X066.7715   Y039.2685   Z000.0000   F720
G0   X066.8027   Y038.5966   Z000.0000   F720
G0   X066.9074   Y037.9703   Z000.0000   F720
G0   X067.2153   Y037.0465   Z000.0000   F720
G0   X067.4396   Y036.5106   Z000.0000   F720
G0   X068.0244   Y035.4608   Z000.0000   F720
G0   X068.8196   Y034.2965   Z000.0000   F720
G0   X069.5956   Y033.2673   Z000.0000   F720
G0   X070.5895   Y032.0706   Z000.0000   F720
G0   X071.8082   Y030.7521   Z000.0000   F720
G0   X072.9673   Y029.5595   Z000.0000   F720
G0   X074.3209   Y028.0833   Z000.0000   F720
