;Generated with vpype gwrite fabian
G90 ; Use absolute position
G92 X0 Y0 Z0 ; Set the current position as (0,0,0)
G0   X000.0000   Y000.0000   Z003.0000   F500

;Begin Line: layer=0 line=0
G0   X090.8000   Y057.3657   Z003.0000   F2100
G0   X090.8000   Y057.3657   Z000.0000   F210
G0   X090.3657   Y057.8000   Z000.0000   F720
G0   X090.8000   Y058.2343   Z000.0000   F720
G0   X091.2343   Y057.8000   Z000.0000   F720
G0   X090.8000   Y057.3657   Z000.0000   F720
G0   X090.8000   Y057.3657   Z003.0000   F500

;Begin Line: layer=0 line=1
G0   X088.2343   Y056.8000   Z003.0000   F2100
G0   X088.2343   Y056.8000   Z000.0000   F210
G0   X086.8000   Y055.3657   Z000.0000   F720
G0   X085.3657   Y056.8000   Z000.0000   F720
G0   X086.8000   Y058.2343   Z000.0000   F720
G0   X088.2343   Y056.8000   Z000.0000   F720
G0   X088.2343   Y056.8000   Z003.0000   F500

;Begin Line: layer=0 line=2
G0   X087.3657   Y058.8000   Z003.0000   F2100
G0   X087.3657   Y058.8000   Z000.0000   F210
G0   X088.8000   Y060.2343   Z000.0000   F720
G0   X090.2343   Y058.8000   Z000.0000   F720
G0   X088.8000   Y057.3657   Z000.0000   F720
G0   X087.3657   Y058.8000   Z000.0000   F720
G0   X087.3657   Y058.8000   Z003.0000   F500

;Begin Line: layer=0 line=3
G0   X083.3657   Y058.8000   Z003.0000   F2100
G0   X083.3657   Y058.8000   Z000.0000   F210
G0   X084.8000   Y057.3657   Z000.0000   F720
G0   X086.2343   Y058.8000   Z000.0000   F720
G0   X084.8000   Y060.2343   Z000.0000   F720
G0   X083.3657   Y058.8000   Z000.0000   F720
G0   X083.3657   Y058.8000   Z003.0000   F500

;Begin Line: layer=0 line=4
G0   X081.3657   Y056.8000   Z003.0000   F2100
G0   X081.3657   Y056.8000   Z000.0000   F210
G0   X082.8000   Y055.3657   Z000.0000   F720
G0   X084.2343   Y056.8000   Z000.0000   F720
G0   X082.8000   Y058.2343   Z000.0000   F720
G0   X081.3657   Y056.8000   Z000.0000   F720
G0   X081.3657   Y056.8000   Z003.0000   F500

;Begin Line: layer=0 line=5
G0   X080.8000   Y057.3657   Z003.0000   F2100
G0   X080.8000   Y057.3657   Z000.0000   F210
G0   X082.2343   Y058.8000   Z000.0000   F720
G0   X080.8000   Y060.2343   Z000.0000   F720
G0   X079.3657   Y058.8000   Z000.0000   F720
G0   X080.8000   Y057.3657   Z000.0000   F720
G0   X080.8000   Y057.3657   Z003.0000   F500

;Begin Line: layer=0 line=6
G0   X079.2343   Y059.8000   Z003.0000   F2100
G0   X079.2343   Y059.8000   Z000.0000   F210
G0   X078.8000   Y060.2343   Z000.0000   F720
G0   X078.3657   Y059.8000   Z000.0000   F720
G0   X078.8000   Y059.3657   Z000.0000   F720
G0   X079.2343   Y059.8000   Z000.0000   F720
G0   X079.2343   Y059.8000   Z003.0000   F500

;Begin Line: layer=0 line=7
G0   X079.3657   Y060.8000   Z003.0000   F2100
G0   X079.3657   Y060.8000   Z000.0000   F210
G0   X079.8000   Y060.3657   Z000.0000   F720
G0   X080.2343   Y060.8000   Z000.0000   F720
G0   X079.8000   Y061.2343   Z000.0000   F720
G0   X079.3657   Y060.8000   Z000.0000   F720
G0   X079.3657   Y060.8000   Z003.0000   F500

;Begin Line: layer=0 line=8
G0   X079.4788   Y062.8000   Z003.0000   F2100
G0   X079.4788   Y062.8000   Z000.0000   F210
G0   X082.8000   Y066.1212   Z000.0000   F720
G0   X086.1212   Y062.8000   Z000.0000   F720
G0   X082.8000   Y059.4788   Z000.0000   F720
G0   X079.4788   Y062.8000   Z000.0000   F720
G0   X079.4788   Y062.8000   Z003.0000   F500

;Begin Line: layer=0 line=9
G0   X077.8000   Y061.2343   Z003.0000   F2100
G0   X077.8000   Y061.2343   Z000.0000   F210
G0   X078.2343   Y060.8000   Z000.0000   F720
G0   X077.8000   Y060.3657   Z000.0000   F720
G0   X077.3657   Y060.8000   Z000.0000   F720
G0   X077.8000   Y061.2343   Z000.0000   F720
G0   X077.8000   Y061.2343   Z003.0000   F500

;Begin Line: layer=0 line=10
G0   X078.8000   Y058.2343   Z003.0000   F2100
G0   X078.8000   Y058.2343   Z000.0000   F210
G0   X079.2343   Y057.8000   Z000.0000   F720
G0   X078.8000   Y057.3657   Z000.0000   F720
G0   X078.3657   Y057.8000   Z000.0000   F720
G0   X078.8000   Y058.2343   Z000.0000   F720
G0   X078.8000   Y058.2343   Z003.0000   F500

;Begin Line: layer=0 line=11
G0   X078.2343   Y056.8000   Z003.0000   F2100
G0   X078.2343   Y056.8000   Z000.0000   F210
G0   X077.8000   Y056.3657   Z000.0000   F720
G0   X077.3657   Y056.8000   Z000.0000   F720
G0   X077.8000   Y057.2343   Z000.0000   F720
G0   X078.2343   Y056.8000   Z000.0000   F720
G0   X078.2343   Y056.8000   Z003.0000   F500

;Begin Line: layer=0 line=12
G0   X073.8000   Y052.3657   Z003.0000   F2100
G0   X073.8000   Y052.3657   Z000.0000   F210
G0   X073.3657   Y052.8000   Z000.0000   F720
G0   X073.8000   Y053.2343   Z000.0000   F720
G0   X074.2343   Y052.8000   Z000.0000   F720
G0   X073.8000   Y052.3657   Z000.0000   F720
G0   X073.8000   Y052.3657   Z003.0000   F500

;Begin Line: layer=0 line=13
G0   X072.8000   Y053.3657   Z003.0000   F2100
G0   X072.8000   Y053.3657   Z000.0000   F210
G0   X071.3657   Y054.8000   Z000.0000   F720
G0   X072.8000   Y056.2343   Z000.0000   F720
G0   X074.2343   Y054.8000   Z000.0000   F720
G0   X072.8000   Y053.3657   Z000.0000   F720
G0   X072.8000   Y053.3657   Z003.0000   F500

;Begin Line: layer=0 line=14
G0   X073.8000   Y057.2343   Z003.0000   F2100
G0   X073.8000   Y057.2343   Z000.0000   F210
G0   X074.2343   Y056.8000   Z000.0000   F720
G0   X073.8000   Y056.3657   Z000.0000   F720
G0   X073.3657   Y056.8000   Z000.0000   F720
G0   X073.8000   Y057.2343   Z000.0000   F720
G0   X073.8000   Y057.2343   Z003.0000   F500

;Begin Line: layer=0 line=15
G0   X072.2343   Y060.8000   Z003.0000   F2100
G0   X072.2343   Y060.8000   Z000.0000   F210
G0   X070.8000   Y059.3657   Z000.0000   F720
G0   X069.3657   Y060.8000   Z000.0000   F720
G0   X070.8000   Y062.2343   Z000.0000   F720
G0   X072.2343   Y060.8000   Z000.0000   F720
G0   X072.2343   Y060.8000   Z003.0000   F500

;Begin Line: layer=0 line=16
G0   X072.8000   Y064.2343   Z003.0000   F2100
G0   X072.8000   Y064.2343   Z000.0000   F210
G0   X074.2343   Y062.8000   Z000.0000   F720
G0   X072.8000   Y061.3657   Z000.0000   F720
G0   X071.3657   Y062.8000   Z000.0000   F720
G0   X072.8000   Y064.2343   Z000.0000   F720
G0   X072.8000   Y064.2343   Z003.0000   F500

;Begin Line: layer=0 line=17
G0   X075.3657   Y066.8000   Z003.0000   F2100
G0   X075.3657   Y066.8000   Z000.0000   F210
G0   X078.8000   Y070.2343   Z000.0000   F720
G0   X082.2343   Y066.8000   Z000.0000   F720
G0   X078.8000   Y063.3657   Z000.0000   F720
G0   X075.3657   Y066.8000   Z000.0000   F720
G0   X075.3657   Y066.8000   Z003.0000   F500

;Begin Line: layer=0 line=18
G0   X075.4788   Y066.8000   Z003.0000   F2100
G0   X075.4788   Y066.8000   Z000.0000   F210
G0   X078.8000   Y070.1212   Z000.0000   F720
G0   X082.1212   Y066.8000   Z000.0000   F720
G0   X078.8000   Y063.4788   Z000.0000   F720
G0   X075.4788   Y066.8000   Z000.0000   F720
G0   X075.4788   Y066.8000   Z003.0000   F500

;Begin Line: layer=0 line=19
G0   X074.8000   Y067.4788   Z003.0000   F2100
G0   X074.8000   Y067.4788   Z000.0000   F210
G0   X082.1212   Y074.8000   Z000.0000   F720
G0   X074.8000   Y082.1212   Z000.0000   F720
G0   X067.4788   Y074.8000   Z000.0000   F720
G0   X074.8000   Y067.4788   Z000.0000   F720
G0   X074.8000   Y067.4788   Z003.0000   F500

;Begin Line: layer=0 line=20
G0   X079.4788   Y070.8000   Z003.0000   F2100
G0   X079.4788   Y070.8000   Z000.0000   F210
G0   X082.8000   Y074.1212   Z000.0000   F720
G0   X086.1212   Y070.8000   Z000.0000   F720
G0   X082.8000   Y067.4788   Z000.0000   F720
G0   X079.4788   Y070.8000   Z000.0000   F720
G0   X079.4788   Y070.8000   Z003.0000   F500

;Begin Line: layer=0 line=21
G0   X082.8000   Y074.2343   Z003.0000   F2100
G0   X082.8000   Y074.2343   Z000.0000   F210
G0   X086.2343   Y070.8000   Z000.0000   F720
G0   X082.8000   Y067.3657   Z000.0000   F720
G0   X079.3657   Y070.8000   Z000.0000   F720
G0   X082.8000   Y074.2343   Z000.0000   F720
G0   X082.8000   Y074.2343   Z003.0000   F500

;Begin Line: layer=0 line=22
G0   X082.2343   Y074.8000   Z003.0000   F2100
G0   X082.2343   Y074.8000   Z000.0000   F210
G0   X074.8000   Y067.3657   Z000.0000   F720
G0   X067.3657   Y074.8000   Z000.0000   F720
G0   X074.8000   Y082.2343   Z000.0000   F720
G0   X082.2343   Y074.8000   Z000.0000   F720
G0   X082.2343   Y074.8000   Z003.0000   F500

;Begin Line: layer=0 line=23
G0   X082.8000   Y075.5920   Z003.0000   F2100
G0   X082.8000   Y075.5920   Z000.0000   F210
G0   X075.5920   Y082.8000   Z000.0000   F720
G0   X082.8000   Y090.0081   Z000.0000   F720
G0   X090.0081   Y082.8000   Z000.0000   F720
G0   X082.8000   Y075.5920   Z000.0000   F720
G0   X082.8000   Y075.5920   Z003.0000   F500

;Begin Line: layer=0 line=24
G0   X086.8000   Y078.1212   Z003.0000   F2100
G0   X086.8000   Y078.1212   Z000.0000   F210
G0   X083.4789   Y074.8000   Z000.0000   F720
G0   X086.8000   Y071.4788   Z000.0000   F720
G0   X090.1212   Y074.8000   Z000.0000   F720
G0   X086.8000   Y078.1212   Z000.0000   F720
G0   X086.8000   Y078.1212   Z003.0000   F500

;Begin Line: layer=0 line=25
G0   X086.8000   Y078.2343   Z003.0000   F2100
G0   X086.8000   Y078.2343   Z000.0000   F210
G0   X083.3657   Y074.8000   Z000.0000   F720
G0   X086.8000   Y071.3657   Z000.0000   F720
G0   X090.2343   Y074.8000   Z000.0000   F720
G0   X086.8000   Y078.2343   Z000.0000   F720
G0   X086.8000   Y078.2343   Z003.0000   F500

;Begin Line: layer=0 line=26
G0   X090.8000   Y076.2343   Z003.0000   F2100
G0   X090.8000   Y076.2343   Z000.0000   F210
G0   X091.2343   Y075.8000   Z000.0000   F720
G0   X090.8000   Y075.3657   Z000.0000   F720
G0   X090.3657   Y075.8000   Z000.0000   F720
G0   X090.8000   Y076.2343   Z000.0000   F720
G0   X090.8000   Y076.2343   Z003.0000   F500

;Begin Line: layer=0 line=27
G0   X089.3657   Y072.8000   Z003.0000   F2100
G0   X089.3657   Y072.8000   Z000.0000   F210
G0   X090.8000   Y074.2343   Z000.0000   F720
G0   X092.2343   Y072.8000   Z000.0000   F720
G0   X090.8000   Y071.3657   Z000.0000   F720
G0   X089.3657   Y072.8000   Z000.0000   F720
G0   X089.3657   Y072.8000   Z003.0000   F500

;Begin Line: layer=0 line=28
G0   X086.8000   Y070.2343   Z003.0000   F2100
G0   X086.8000   Y070.2343   Z000.0000   F210
G0   X088.2343   Y068.8000   Z000.0000   F720
G0   X086.8000   Y067.3657   Z000.0000   F720
G0   X085.3657   Y068.8000   Z000.0000   F720
G0   X086.8000   Y070.2343   Z000.0000   F720
G0   X086.8000   Y070.2343   Z003.0000   F500

;Begin Line: layer=0 line=29
G0   X088.8000   Y069.3657   Z003.0000   F2100
G0   X088.8000   Y069.3657   Z000.0000   F210
G0   X087.3657   Y070.8000   Z000.0000   F720
G0   X088.8000   Y072.2343   Z000.0000   F720
G0   X090.2343   Y070.8000   Z000.0000   F720
G0   X088.8000   Y069.3657   Z000.0000   F720
G0   X088.8000   Y069.3657   Z003.0000   F500

;Begin Line: layer=0 line=30
G0   X086.2343   Y062.8000   Z003.0000   F2100
G0   X086.2343   Y062.8000   Z000.0000   F210
G0   X082.8000   Y066.2343   Z000.0000   F720
G0   X079.3657   Y062.8000   Z000.0000   F720
G0   X082.8000   Y059.3657   Z000.0000   F720
G0   X086.2343   Y062.8000   Z000.0000   F720
G0   X086.2343   Y062.8000   Z003.0000   F500

;Begin Line: layer=0 line=31
G0   X086.8000   Y062.2343   Z003.0000   F2100
G0   X086.8000   Y062.2343   Z000.0000   F210
G0   X085.3657   Y060.8000   Z000.0000   F720
G0   X086.8000   Y059.3657   Z000.0000   F720
G0   X088.2343   Y060.8000   Z000.0000   F720
G0   X086.8000   Y062.2343   Z000.0000   F720
G0   X086.8000   Y062.2343   Z003.0000   F500

;Begin Line: layer=0 line=32
G0   X090.2343   Y062.8000   Z003.0000   F2100
G0   X090.2343   Y062.8000   Z000.0000   F210
G0   X088.8000   Y061.3657   Z000.0000   F720
G0   X087.3657   Y062.8000   Z000.0000   F720
G0   X088.8000   Y064.2343   Z000.0000   F720
G0   X090.2343   Y062.8000   Z000.0000   F720
G0   X090.2343   Y062.8000   Z003.0000   F500

;Begin Line: layer=0 line=33
G0   X090.8000   Y062.2343   Z003.0000   F2100
G0   X090.8000   Y062.2343   Z000.0000   F210
G0   X092.2343   Y060.8000   Z000.0000   F720
G0   X090.8000   Y059.3657   Z000.0000   F720
G0   X089.3657   Y060.8000   Z000.0000   F720
G0   X090.8000   Y062.2343   Z000.0000   F720
G0   X090.8000   Y062.2343   Z003.0000   F500

;Begin Line: layer=0 line=34
G0   X092.2343   Y064.8000   Z003.0000   F2100
G0   X092.2343   Y064.8000   Z000.0000   F210
G0   X090.8000   Y066.2343   Z000.0000   F720
G0   X089.3657   Y064.8000   Z000.0000   F720
G0   X090.8000   Y063.3657   Z000.0000   F720
G0   X092.2343   Y064.8000   Z000.0000   F720
G0   X092.2343   Y064.8000   Z003.0000   F500

;Begin Line: layer=0 line=35
G0   X094.2343   Y068.8000   Z003.0000   F2100
G0   X094.2343   Y068.8000   Z000.0000   F210
G0   X093.8000   Y069.2343   Z000.0000   F720
G0   X093.3657   Y068.8000   Z000.0000   F720
G0   X093.8000   Y068.3657   Z000.0000   F720
G0   X094.2343   Y068.8000   Z000.0000   F720
G0   X094.2343   Y068.8000   Z003.0000   F500

;Begin Line: layer=0 line=36
G0   X092.8000   Y069.3657   Z003.0000   F2100
G0   X092.8000   Y069.3657   Z000.0000   F210
G0   X094.2343   Y070.8000   Z000.0000   F720
G0   X092.8000   Y072.2343   Z000.0000   F720
G0   X091.3657   Y070.8000   Z000.0000   F720
G0   X092.8000   Y069.3657   Z000.0000   F720
G0   X092.8000   Y069.3657   Z003.0000   F500

;Begin Line: layer=0 line=37
G0   X092.8000   Y073.3657   Z003.0000   F2100
G0   X092.8000   Y073.3657   Z000.0000   F210
G0   X094.2343   Y074.8000   Z000.0000   F720
G0   X092.8000   Y076.2343   Z000.0000   F720
G0   X091.3657   Y074.8000   Z000.0000   F720
G0   X092.8000   Y073.3657   Z000.0000   F720
G0   X092.8000   Y073.3657   Z003.0000   F500

;Begin Line: layer=0 line=38
G0   X096.2343   Y076.8000   Z003.0000   F2100
G0   X096.2343   Y076.8000   Z000.0000   F210
G0   X094.8000   Y075.3657   Z000.0000   F720
G0   X093.3657   Y076.8000   Z000.0000   F720
G0   X094.8000   Y078.2343   Z000.0000   F720
G0   X096.2343   Y076.8000   Z000.0000   F720
G0   X096.2343   Y076.8000   Z003.0000   F500

;Begin Line: layer=0 line=39
G0   X090.2343   Y082.8000   Z003.0000   F2100
G0   X090.2343   Y082.8000   Z000.0000   F210
G0   X082.8000   Y075.3657   Z000.0000   F720
G0   X075.3657   Y082.8000   Z000.0000   F720
G0   X082.8000   Y090.2343   Z000.0000   F720
G0   X090.2343   Y082.8000   Z000.0000   F720
G0   X090.2343   Y082.8000   Z003.0000   F500

;Begin Line: layer=0 line=40
G0   X077.2343   Y085.8000   Z003.0000   F2100
G0   X077.2343   Y085.8000   Z000.0000   F210
G0   X076.8000   Y085.3657   Z000.0000   F720
G0   X076.3657   Y085.8000   Z000.0000   F720
G0   X076.8000   Y086.2343   Z000.0000   F720
G0   X077.2343   Y085.8000   Z000.0000   F720
G0   X077.2343   Y085.8000   Z003.0000   F500

;Begin Line: layer=0 line=41
G0   X075.4788   Y082.8000   Z003.0000   F2100
G0   X075.4788   Y082.8000   Z000.0000   F210
G0   X082.8000   Y090.1212   Z000.0000   F720
G0   X090.1212   Y082.8000   Z000.0000   F720
G0   X082.8000   Y075.4788   Z000.0000   F720
G0   X075.4788   Y082.8000   Z000.0000   F720
G0   X075.4788   Y082.8000   Z003.0000   F500

;Begin Line: layer=0 line=42
G0   X074.8000   Y082.0081   Z003.0000   F2100
G0   X074.8000   Y082.0081   Z000.0000   F210
G0   X082.0081   Y074.8000   Z000.0000   F720
G0   X074.8000   Y067.5920   Z000.0000   F720
G0   X067.5920   Y074.8000   Z000.0000   F720
G0   X074.8000   Y082.0081   Z000.0000   F720
G0   X074.8000   Y082.0081   Z003.0000   F500

;Begin Line: layer=0 line=43
G0   X074.1212   Y082.8000   Z003.0000   F2100
G0   X074.1212   Y082.8000   Z000.0000   F210
G0   X070.8000   Y079.4788   Z000.0000   F720
G0   X067.4788   Y082.8000   Z000.0000   F720
G0   X070.8000   Y086.1212   Z000.0000   F720
G0   X074.1212   Y082.8000   Z000.0000   F720
G0   X074.1212   Y082.8000   Z003.0000   F500

;Begin Line: layer=0 line=44
G0   X073.3657   Y084.8000   Z003.0000   F2100
G0   X073.3657   Y084.8000   Z000.0000   F210
G0   X074.8000   Y086.2343   Z000.0000   F720
G0   X076.2343   Y084.8000   Z000.0000   F720
G0   X074.8000   Y083.3657   Z000.0000   F720
G0   X073.3657   Y084.8000   Z000.0000   F720
