;Generated with vpype gwrite fabian
;generation/stones/output/small_eye_2_2x2.svg.gcode
G90
G92 X0 Y0 Z0
G00 X0 Y0 Z0 F2100
G00 X0 Y0 Z5 F500

;Begin Line: layer=0 line=0
G00 X32.1701 Y14.1751 Z3    F2100
G01 X32.1701 Y14.1751 Z-0 F210
G01 X31.6983 Y14.5144 Z-0 F720
G01 X31.5022 Y13.8934 Z-0 F720
G01 X31.7235 Y13.7988 Z-0 F720
G01 X32.2884 Y13.8886 Z-0 F720
G01 X32.1701 Y14.1751 Z-0 F720
G00 X32.1701 Y14.1751 Z3    F500

;Begin Line: layer=0 line=1
G00 X32.7497 Y14.0551 Z3    F2100
G01 X32.7497 Y14.0551 Z-0 F210
G01 X32.6390 Y13.9205 Z-0 F720
G01 X32.5656 Y13.5132 Z-0 F720
G01 X32.7390 Y13.3678 Z-0 F720
G01 X32.8945 Y13.5646 Z-0 F720
G01 X32.7497 Y14.0551 Z-0 F720
G00 X32.7497 Y14.0551 Z3    F500

;Begin Line: layer=0 line=2
G00 X32.3442 Y12.7049 Z3    F2100
G01 X32.3442 Y12.7049 Z-0 F210
G01 X32.1249 Y12.4200 Z-0 F720
G00 X32.1249 Y12.4200 Z3    F500

;Begin Line: layer=0 line=3
G00 X30.9724 Y14.3649 Z3    F2100
G01 X30.9724 Y14.3649 Z-0 F210
G01 X30.8683 Y14.4758 Z-0 F720
G01 X30.8858 Y14.1785 Z-0 F720
G01 X30.9724 Y14.3649 Z-0 F720
G00 X30.9724 Y14.3649 Z3    F500

;Begin Line: layer=0 line=4
G00 X30.2397 Y15.4957 Z3    F2100
G01 X30.2397 Y15.4957 Z-0 F210
G01 X29.4934 Y15.8647 Z-0 F720
G01 X29.3937 Y15.2655 Z-0 F720
G01 X29.6399 Y14.9289 Z-0 F720
G01 X29.8473 Y14.9663 Z-0 F720
G01 X30.2397 Y15.4957 Z-0 F720
G00 X30.2397 Y15.4957 Z3    F500

;Begin Line: layer=0 line=5
G00 X30.3827 Y16.4158 Z3    F2100
G01 X30.3827 Y16.4158 Z-0 F210
G01 X29.7723 Y16.6039 Z-0 F720
G00 X29.7723 Y16.6039 Z3    F500

;Begin Line: layer=0 line=6
G00 X29.8223 Y17.1846 Z3    F2100
G01 X29.8223 Y17.1846 Z-0 F210
G01 X29.8017 Y17.3083 Z-0 F720
G00 X29.8017 Y17.3083 Z3    F500

;Begin Line: layer=0 line=7
G00 X29.2634 Y18.2585 Z3    F2100
G01 X29.2634 Y18.2585 Z-0 F210
G01 X29.4591 Y17.5636 Z-0 F720
G01 X29.7438 Y17.6555 Z-0 F720
G01 X30.1312 Y17.9726 Z-0 F720
G01 X30.4866 Y18.6903 Z-0 F720
G01 X29.2557 Y18.5954 Z-0 F720
G01 X29.2634 Y18.2585 Z-0 F720
G00 X29.2634 Y18.2585 Z3    F500

;Begin Line: layer=0 line=8
G00 X30.8105 Y18.3872 Z3    F2100
G01 X30.8105 Y18.3872 Z-0 F210
G01 X30.0800 Y17.5780 Z-0 F720
G01 X31.1336 Y17.3449 Z-0 F720
G01 X30.8105 Y18.3872 Z-0 F720
G00 X30.8105 Y18.3872 Z3    F500

;Begin Line: layer=0 line=9
G00 X31.3612 Y18.3945 Z3    F2100
G01 X31.3612 Y18.3945 Z-0 F210
G01 X31.7033 Y18.2384 Z-0 F720
G01 X31.7742 Y18.8317 Z-0 F720
G01 X31.3612 Y18.3945 Z-0 F720
G00 X31.3612 Y18.3945 Z3    F500

;Begin Line: layer=0 line=10
G00 X31.6329 Y19.7984 Z3    F2100
G01 X31.6329 Y19.7984 Z-0 F210
G01 X31.9121 Y19.3481 Z-0 F720
G01 X32.1099 Y19.2223 Z-0 F720
G01 X32.0984 Y19.5598 Z-0 F720
G01 X31.9107 Y19.9088 Z-0 F720
G01 X31.6329 Y19.7984 Z-0 F720
G00 X31.6329 Y19.7984 Z3    F500

;Begin Line: layer=0 line=11
G00 X30.6867 Y20.1029 Z3    F2100
G01 X30.6867 Y20.1029 Z-0 F210
G01 X31.3864 Y20.5106 Z-0 F720
G01 X31.3332 Y20.7123 Z-0 F720
G01 X31.0557 Y20.9061 Z-0 F720
G01 X30.6582 Y20.2686 Z-0 F720
G01 X30.6867 Y20.1029 Z-0 F720
G00 X30.6867 Y20.1029 Z3    F500

;Begin Line: layer=0 line=12
G00 X32.2471 Y23.7012 Z3    F2100
G01 X32.2471 Y23.7012 Z-0 F210
G01 X32.3260 Y23.4676 Z-0 F720
G01 X34.0629 Y22.9164 Z-0 F720
G01 X34.8348 Y22.9994 Z-0 F720
G01 X35.1838 Y24.2907 Z-0 F720
G01 X35.1837 Y25.2172 Z-0 F720
G01 X34.8007 Y25.7241 Z-0 F720
G01 X32.9531 Y25.6050 Z-0 F720
G01 X32.5495 Y25.5031 Z-0 F720
G01 X32.2471 Y23.7012 Z-0 F720
G00 X32.2471 Y23.7012 Z3    F500

;Begin Line: layer=0 line=13
G00 X32.9739 Y26.1276 Z3    F2100
G01 X32.9739 Y26.1276 Z-0 F210
G01 X34.4474 Y25.9776 Z-0 F720
G01 X34.9779 Y27.1622 Z-0 F720
G01 X35.0939 Y27.7927 Z-0 F720
G01 X34.8135 Y30.0181 Z-0 F720
G01 X34.6597 Y30.6273 Z-0 F720
G01 X32.0465 Y29.6847 Z-0 F720
G01 X31.4753 Y29.3169 Z-0 F720
G01 X32.3199 Y26.8025 Z-0 F720
G01 X32.9739 Y26.1276 Z-0 F720
G00 X32.9739 Y26.1276 Z3    F500

;Begin Line: layer=0 line=14
G00 X34.9629 Y22.7071 Z3    F2100
G01 X34.9629 Y22.7071 Z-0 F210
G01 X32.6407 Y22.7994 Z-0 F720
G01 X32.2319 Y22.7825 Z-0 F720
G01 X31.8235 Y22.1285 Z-0 F720
G01 X31.5248 Y21.4276 Z-0 F720
G01 X31.4300 Y20.9829 Z-0 F720
G01 X32.7053 Y19.6654 Z-0 F720
G01 X34.1772 Y19.7803 Z-0 F720
G01 X34.8784 Y20.6927 Z-0 F720
G01 X35.0834 Y22.0360 Z-0 F720
G01 X34.9629 Y22.7071 Z-0 F720
G00 X34.9629 Y22.7071 Z3    F500

;Begin Line: layer=0 line=15
G00 X32.6954 Y16.3236 Z3    F2100
G01 X32.6954 Y16.3236 Z-0 F210
G01 X33.6640 Y16.0610 Z-0 F720
G01 X34.2272 Y17.3559 Z-0 F720
G01 X34.6080 Y18.7472 Z-0 F720
G01 X33.7657 Y19.1552 Z-0 F720
G01 X33.1398 Y19.2994 Z-0 F720
G01 X31.7922 Y17.8391 Z-0 F720
G01 X31.6704 Y17.4398 Z-0 F720
G01 X32.6954 Y16.3236 Z-0 F720
G00 X32.6954 Y16.3236 Z3    F500

;Begin Line: layer=0 line=16
G00 X31.3667 Y15.9183 Z3    F2100
G01 X31.3667 Y15.9183 Z-0 F210
G01 X31.5365 Y16.2521 Z-0 F720
G01 X31.0414 Y16.4976 Z-0 F720
G01 X31.0574 Y15.6628 Z-0 F720
G01 X31.3667 Y15.9183 Z-0 F720
G00 X31.3667 Y15.9183 Z3    F500

;Begin Line: layer=0 line=17
G00 X29.3111 Y14.7814 Z3    F2100
G01 X29.3111 Y14.7814 Z-0 F210
G01 X28.9279 Y15.3062 Z-0 F720
G01 X28.6497 Y14.7816 Z-0 F720
G01 X29.1259 Y14.6027 Z-0 F720
G01 X29.3111 Y14.7814 Z-0 F720
G00 X29.3111 Y14.7814 Z3    F500

;Begin Line: layer=0 line=18
G00 X26.3265 Y16.3533 Z3    F2100
G01 X26.3265 Y16.3533 Z-0 F210
G01 X26.7900 Y16.6668 Z-0 F720
G01 X26.5636 Y17.0015 Z-0 F720
G01 X26.1798 Y16.9329 Z-0 F720
G01 X26.3265 Y16.3533 Z-0 F720
G00 X26.3265 Y16.3533 Z3    F500

;Begin Line: layer=0 line=19
G00 X25.1840 Y15.6038 Z3    F2100
G01 X25.1840 Y15.6038 Z-0 F210
G01 X26.0212 Y16.3560 Z-0 F720
G01 X25.4350 Y16.9978 Z-0 F720
G01 X24.1934 Y16.7777 Z-0 F720
G01 X23.2098 Y16.4509 Z-0 F720
G01 X22.8936 Y16.0881 Z-0 F720
G01 X23.7151 Y14.7281 Z-0 F720
G01 X23.9714 Y14.7007 Z-0 F720
G01 X25.1840 Y15.6038 Z-0 F720
G00 X25.1840 Y15.6038 Z3    F500

;Begin Line: layer=0 line=20
G00 X22.0444 Y14.6744 Z3    F2100
G01 X22.0444 Y14.6744 Z-0 F210
G01 X22.2412 Y14.8241 Z-0 F720
G01 X22.0186 Y15.0055 Z-0 F720
G01 X22.0444 Y14.6744 Z-0 F720
G00 X22.0444 Y14.6744 Z3    F500

;Begin Line: layer=0 line=21
G00 X21.6030 Y15.1436 Z3    F2100
G01 X21.6030 Y15.1436 Z-0 F210
G01 X20.7814 Y15.2309 Z-0 F720
G01 X20.9456 Y14.8015 Z-0 F720
G01 X21.4698 Y14.9388 Z-0 F720
G01 X21.6030 Y15.1436 Z-0 F720
G00 X21.6030 Y15.1436 Z3    F500

;Begin Line: layer=0 line=22
G00 X21.7253 Y15.5157 Z3    F2100
G01 X21.7253 Y15.5157 Z-0 F210
G01 X21.8039 Y15.3734 Z-0 F720
G01 X22.2057 Y15.4485 Z-0 F720
G01 X21.7253 Y15.5157 Z-0 F720
G00 X21.7253 Y15.5157 Z3    F500

;Begin Line: layer=0 line=23
G00 X21.7510 Y16.2642 Z3    F2100
G01 X21.7510 Y16.2642 Z-0 F210
G01 X22.1778 Y16.0956 Z-0 F720
G01 X22.1630 Y17.1243 Z-0 F720
G01 X21.6209 Y17.0104 Z-0 F720
G01 X21.7510 Y16.2642 Z-0 F720
G00 X21.7510 Y16.2642 Z3    F500

;Begin Line: layer=0 line=24
G00 X20.6193 Y16.4568 Z3    F2100
G01 X20.6193 Y16.4568 Z-0 F210
G01 X20.2435 Y16.7670 Z-0 F720
G01 X20.1084 Y16.6589 Z-0 F720
G01 X20.1151 Y16.5093 Z-0 F720
G01 X20.5786 Y15.9997 Z-0 F720
G01 X20.6193 Y16.4568 Z-0 F720
G00 X20.6193 Y16.4568 Z3    F500

;Begin Line: layer=0 line=25
G00 X19.8637 Y15.9308 Z3    F2100
G01 X19.8637 Y15.9308 Z-0 F210
G01 X19.8094 Y16.2826 Z-0 F720
G01 X19.4698 Y15.9214 Z-0 F720
G01 X19.8637 Y15.9308 Z-0 F720
G00 X19.8637 Y15.9308 Z3    F500

;Begin Line: layer=0 line=26
G00 X19.2131 Y15.2743 Z3    F2100
G01 X19.2131 Y15.2743 Z-0 F210
G01 X18.6368 Y15.3867 Z-0 F720
G00 X18.6368 Y15.3867 Z3    F500

;Begin Line: layer=0 line=27
G00 X17.5125 Y14.6340 Z3    F2100
G01 X17.5125 Y14.6340 Z-0 F210
G01 X17.7836 Y13.9156 Z-0 F720
G01 X18.2625 Y14.6641 Z-0 F720
G01 X17.7649 Y14.8111 Z-0 F720
G01 X17.5125 Y14.6340 Z-0 F720
G00 X17.5125 Y14.6340 Z3    F500

;Begin Line: layer=0 line=28
G00 X19.5034 Y16.8703 Z3    F2100
G01 X19.5034 Y16.8703 Z-0 F210
G01 X20.2067 Y17.0612 Z-0 F720
G01 X20.3072 Y17.4727 Z-0 F720
G01 X19.4958 Y17.6459 Z-0 F720
G01 X19.5034 Y16.8703 Z-0 F720
G00 X19.5034 Y16.8703 Z3    F500

;Begin Line: layer=0 line=29
G00 X20.5498 Y18.5075 Z3    F2100
G01 X20.5498 Y18.5075 Z-0 F210
G01 X21.0704 Y18.5592 Z-0 F720
G01 X20.6449 Y18.7955 Z-0 F720
G01 X20.5498 Y18.5075 Z-0 F720
G00 X20.5498 Y18.5075 Z3    F500

;Begin Line: layer=0 line=30
G00 X21.5160 Y18.2458 Z3    F2100
G01 X21.5160 Y18.2458 Z-0 F210
G01 X21.4838 Y17.9557 Z-0 F720
G01 X21.8885 Y17.4484 Z-0 F720
G01 X21.5160 Y18.2458 Z-0 F720
G00 X21.5160 Y18.2458 Z3    F500

;Begin Line: layer=0 line=31
G00 X21.7235 Y18.4428 Z3    F2100
G01 X21.7235 Y18.4428 Z-0 F210
G01 X21.9806 Y18.3914 Z-0 F720
G01 X22.0418 Y19.1535 Z-0 F720
G01 X21.7235 Y18.4428 Z-0 F720
G00 X21.7235 Y18.4428 Z3    F500

;Begin Line: layer=0 line=32
G00 X22.2191 Y17.3996 Z3    F2100
G01 X22.2191 Y17.3996 Z-0 F210
G01 X23.2196 Y16.7980 Z-0 F720
G01 X23.6342 Y16.7136 Z-0 F720
G01 X25.9282 Y17.6338 Z-0 F720
G01 X25.2514 Y18.3249 Z-0 F720
G01 X23.0748 Y18.3621 Z-0 F720
G01 X22.4200 Y18.0172 Z-0 F720
G01 X22.2191 Y17.3996 Z-0 F720
G00 X22.2191 Y17.3996 Z3    F500

;Begin Line: layer=0 line=33
G00 X19.7408 Y19.1224 Z3    F2100
G01 X19.7408 Y19.1224 Z-0 F210
G01 X19.6248 Y19.0425 Z-0 F720
G01 X19.1702 Y17.9942 Z-0 F720
G01 X20.1129 Y18.3817 Z-0 F720
G01 X20.0288 Y18.7437 Z-0 F720
G01 X19.7408 Y19.1224 Z-0 F720
G00 X19.7408 Y19.1224 Z3    F500

;Begin Line: layer=0 line=34
G00 X18.8519 Y18.9835 Z3    F2100
G01 X18.8519 Y18.9835 Z-0 F210
G01 X17.9503 Y19.1090 Z-0 F720
G01 X16.6452 Y19.1085 Z-0 F720
G01 X16.4062 Y18.5272 Z-0 F720
G01 X16.5610 Y17.5369 Z-0 F720
G01 X16.8260 Y16.6519 Z-0 F720
G01 X17.5428 Y15.3719 Z-0 F720
G01 X18.3939 Y15.7900 Z-0 F720
G01 X18.7562 Y16.2681 Z-0 F720
G01 X19.0276 Y18.3354 Z-0 F720
G01 X18.8519 Y18.9835 Z-0 F720
G00 X18.8519 Y18.9835 Z3    F500

;Begin Line: layer=0 line=35
G00 X19.2659 Y21.9773 Z3    F2100
G01 X19.2659 Y21.9773 Z-0 F210
G01 X18.3721 Y22.1591 Z-0 F720
G01 X16.0884 Y21.2915 Z-0 F720
G01 X15.8930 Y20.7211 Z-0 F720
G01 X16.0493 Y20.1609 Z-0 F720
G01 X16.4108 Y19.6489 Z-0 F720
G01 X17.6609 Y19.5021 Z-0 F720
G01 X19.7406 Y20.1999 Z-0 F720
G01 X19.8756 Y21.0627 Z-0 F720
G01 X19.2659 Y21.9773 Z-0 F720
G00 X19.2659 Y21.9773 Z3    F500

;Begin Line: layer=0 line=36
G00 X18.0821 Y22.5685 Z3    F2100
G01 X18.0821 Y22.5685 Z-0 F210
G01 X18.7951 Y22.8217 Z-0 F720
G01 X18.1910 Y23.2688 Z-0 F720
G01 X18.0821 Y22.5685 Z-0 F720
G00 X18.0821 Y22.5685 Z3    F500

;Begin Line: layer=0 line=37
G00 X15.5841 Y23.5480 Z3    F2100
G01 X15.5841 Y23.5480 Z-0 F210
G01 X16.0586 Y23.5401 Z-0 F720
G01 X16.3709 Y24.0539 Z-0 F720
G01 X16.3456 Y24.5105 Z-0 F720
G01 X15.6022 Y24.2028 Z-0 F720
G01 X15.5841 Y23.5480 Z-0 F720
G00 X15.5841 Y23.5480 Z3    F500

;Begin Line: layer=0 line=38
G00 X15.8860 Y26.5725 Z3    F2100
G01 X15.8860 Y26.5725 Z-0 F210
G01 X15.4228 Y25.6866 Z-0 F720
G01 X16.3063 Y24.9958 Z-0 F720
G01 X16.7647 Y26.2203 Z-0 F720
G01 X15.8860 Y26.5725 Z-0 F720
G00 X15.8860 Y26.5725 Z3    F500

;Begin Line: layer=0 line=39
G00 X15.8634 Y26.9395 Z3    F2100
G01 X15.8634 Y26.9395 Z-0 F210
G01 X16.1683 Y26.9479 Z-0 F720
G01 X16.2433 Y28.2409 Z-0 F720
G01 X15.9230 Y27.9211 Z-0 F720
G01 X15.6729 Y27.3423 Z-0 F720
G01 X15.8634 Y26.9395 Z-0 F720
G00 X15.8634 Y26.9395 Z3    F500

;Begin Line: layer=0 line=40
G00 X16.8837 Y26.9889 Z3    F2100
G01 X16.8837 Y26.9889 Z-0 F210
G01 X17.2765 Y28.1707 Z-0 F720
G01 X16.6293 Y27.6730 Z-0 F720
G01 X16.8837 Y26.9889 Z-0 F720
G00 X16.8837 Y26.9889 Z3    F500

;Begin Line: layer=0 line=41
G00 X17.9431 Y26.0709 Z3    F2100
G01 X17.9431 Y26.0709 Z-0 F210
G01 X18.0724 Y26.3171 Z-0 F720
G01 X18.2514 Y27.0763 Z-0 F720
G01 X17.6187 Y26.5961 Z-0 F720
G01 X17.6633 Y26.0211 Z-0 F720
G01 X17.9431 Y26.0709 Z-0 F720
G00 X17.9431 Y26.0709 Z3    F500

;Begin Line: layer=0 line=42
G00 X15.8557 Y28.7193 Z3    F2100
G01 X15.8557 Y28.7193 Z-0 F210
G01 X16.8642 Y28.9597 Z-0 F720
G01 X16.8793 Y29.2913 Z-0 F720
G01 X16.3650 Y29.5497 Z-0 F720
G01 X15.7058 Y28.9993 Z-0 F720
G01 X15.8557 Y28.7193 Z-0 F720
G00 X15.8557 Y28.7193 Z3    F500

;Begin Line: layer=0 line=43
G00 X16.0711 Y31.3875 Z3    F2100
G01 X16.0711 Y31.3875 Z-0 F210
G01 X16.2391 Y30.1589 Z-0 F720
G01 X17.4523 Y29.5554 Z-0 F720
G01 X18.8054 Y29.0039 Z-0 F720
G01 X21.5255 Y31.2940 Z-0 F720
G01 X20.8151 Y32.2950 Z-0 F720
G01 X19.6600 Y33.4470 Z-0 F720
G01 X17.1496 Y33.6061 Z-0 F720
G01 X16.5814 Y32.9163 Z-0 F720
G01 X16.0711 Y31.3875 Z-0 F720
G00 X16.0711 Y31.3875 Z3    F500

;Begin Line: layer=0 line=44
G00 X17.1511 Y34.3295 Z3    F2100
G01 X17.1511 Y34.3295 Z-0 F210
G01 X16.7982 Y33.9580 Z-0 F720
G01 X17.0147 Y33.8343 Z-0 F720
G01 X18.1309 Y34.1601 Z-0 F720
G01 X17.1511 Y34.3295 Z-0 F720
G00 X17.1511 Y34.3295 Z3    F500

;Begin Line: layer=0 line=45
G00 X20.0343 Y33.7079 Z3    F2100
G01 X20.0343 Y33.7079 Z-0 F210
G01 X20.4161 Y33.6503 Z-0 F720
G01 X21.0114 Y34.5546 Z-0 F720
G01 X20.4522 Y35.0661 Z-0 F720
G01 X19.4160 Y35.4315 Z-0 F720
G01 X18.8935 Y34.5320 Z-0 F720
G01 X20.0343 Y33.7079 Z-0 F720
G00 X20.0343 Y33.7079 Z3    F500

;Begin Line: layer=0 line=46
G00 X22.2927 Y34.5740 Z3    F2100
G01 X22.2927 Y34.5740 Z-0 F210
G01 X21.2354 Y34.5742 Z-0 F720
G01 X21.2025 Y34.1178 Z-0 F720
G01 X22.0540 Y33.8798 Z-0 F720
G01 X22.3642 Y34.0151 Z-0 F720
G01 X22.2927 Y34.5740 Z-0 F720
G00 X22.2927 Y34.5740 Z3    F500

;Begin Line: layer=0 line=47
G00 X22.7727 Y34.5385 Z3    F2100
G01 X22.7727 Y34.5385 Z-0 F210
G01 X24.0301 Y34.7964 Z-0 F720
G01 X24.0173 Y35.3162 Z-0 F720
G01 X23.6771 Y35.5940 Z-0 F720
G01 X22.7727 Y34.5385 Z-0 F720
G00 X22.7727 Y34.5385 Z3    F500

;Begin Line: layer=0 line=48
G00 X23.5009 Y33.8802 Z3    F2100
G01 X23.5009 Y33.8802 Z-0 F210
G01 X23.2519 Y33.8448 Z-0 F720
G01 X22.8124 Y32.9937 Z-0 F720
G01 X23.6490 Y32.3039 Z-0 F720
G01 X24.3197 Y32.3609 Z-0 F720
G01 X24.2099 Y33.1179 Z-0 F720
G01 X23.7956 Y33.6923 Z-0 F720
G01 X23.5009 Y33.8802 Z-0 F720
G00 X23.5009 Y33.8802 Z3    F500

;Begin Line: layer=0 line=49
G00 X24.2949 Y33.5196 Z3    F2100
G01 X24.2949 Y33.5196 Z-0 F210
G01 X24.6179 Y32.9776 Z-0 F720
G01 X25.1658 Y32.7341 Z-0 F720
G01 X25.2917 Y33.7870 Z-0 F720
G01 X24.2949 Y33.5196 Z-0 F720
G00 X24.2949 Y33.5196 Z3    F500

;Begin Line: layer=0 line=50
G00 X25.2475 Y35.4233 Z3    F2100
G01 X25.2475 Y35.4233 Z-0 F210
G01 X25.2174 Y36.2739 Z-0 F720
G01 X24.3070 Y36.1447 Z-0 F720
G01 X24.4077 Y35.4056 Z-0 F720
G01 X25.2475 Y35.4233 Z-0 F720
G00 X25.2475 Y35.4233 Z3    F500

;Begin Line: layer=0 line=51
G00 X24.2276 Y36.8702 Z3    F2100
G01 X24.2276 Y36.8702 Z-0 F210
G01 X24.5492 Y36.4958 Z-0 F720
G01 X24.9613 Y37.0158 Z-0 F720
G01 X24.9019 Y37.5266 Z-0 F720
G01 X24.2276 Y36.8702 Z-0 F720
G00 X24.2276 Y36.8702 Z3    F500

;Begin Line: layer=0 line=52
G00 X25.8144 Y37.4037 Z3    F2100
G01 X25.8144 Y37.4037 Z-0 F210
G01 X26.1656 Y38.0087 Z-0 F720
G01 X25.5106 Y38.2303 Z-0 F720
G01 X25.0343 Y37.8781 Z-0 F720
G01 X25.1442 Y37.5423 Z-0 F720
G01 X25.8144 Y37.4037 Z-0 F720
G00 X25.8144 Y37.4037 Z3    F500

;Begin Line: layer=0 line=53
G00 X27.5954 Y37.9499 Z3    F2100
G01 X27.5954 Y37.9499 Z-0 F210
G01 X27.8143 Y38.2788 Z-0 F720
G01 X27.6420 Y38.5880 Z-0 F720
G01 X27.1869 Y39.0911 Z-0 F720
G01 X27.5954 Y37.9499 Z-0 F720
G00 X27.5954 Y37.9499 Z3    F500

;Begin Line: layer=0 line=54
G00 X27.7674 Y36.5338 Z3    F2100
G01 X27.7674 Y36.5338 Z-0 F210
G01 X27.8050 Y36.7157 Z-0 F720
G01 X27.0486 Y36.4016 Z-0 F720
G01 X27.3410 Y36.1908 Z-0 F720
G01 X27.7674 Y36.5338 Z-0 F720
G00 X27.7674 Y36.5338 Z3    F500

;Begin Line: layer=0 line=55
G00 X28.6570 Y39.5834 Z3    F2100
G01 X28.6570 Y39.5834 Z-0 F210
G01 X28.1615 Y39.9759 Z-0 F720
G01 X27.8880 Y39.6983 Z-0 F720
G01 X28.1183 Y39.4997 Z-0 F720
G01 X28.6570 Y39.5834 Z-0 F720
G00 X28.6570 Y39.5834 Z3    F500

;Begin Line: layer=0 line=56
G00 X29.1442 Y39.5928 Z3    F2100
G01 X29.1442 Y39.5928 Z-0 F210
G01 X29.6616 Y39.8413 Z-0 F720
G01 X29.1223 Y40.4974 Z-0 F720
G01 X28.8059 Y39.9470 Z-0 F720
G01 X29.1442 Y39.5928 Z-0 F720
G00 X29.1442 Y39.5928 Z3    F500

;Begin Line: layer=0 line=57
G00 X27.7307 Y39.7688 Z3    F2100
G01 X27.7307 Y39.7688 Z-0 F210
G01 X28.0786 Y40.0839 Z-0 F720
G01 X28.1607 Y40.4366 Z-0 F720
G01 X27.5783 Y40.2669 Z-0 F720
G01 X27.3477 Y39.9407 Z-0 F720
G01 X27.7307 Y39.7688 Z-0 F720
