;Generated with vpype gwrite fabian
;generation/stones/output/small_eye_3_2x2.svg.gcode
G90
G92 X0 Y0 Z0
G00 X0 Y0 Z0 F2100
G00 X0 Y0 Z5 F500

;Begin Line: layer=0 line=0
G00 X32.1701 Y14.1814 Z3    F2100
G01 X32.1701 Y14.1814 Z-0 F210
G01 X31.6983 Y14.5206 Z-0 F720
G01 X31.5022 Y13.8997 Z-0 F720
G01 X31.7235 Y13.8051 Z-0 F720
G01 X32.2884 Y13.8949 Z-0 F720
G01 X32.1701 Y14.1814 Z-0 F720
G00 X32.1701 Y14.1814 Z3    F500

;Begin Line: layer=0 line=1
G00 X32.7497 Y14.0614 Z3    F2100
G01 X32.7497 Y14.0614 Z-0 F210
G01 X32.6390 Y13.9267 Z-0 F720
G01 X32.5656 Y13.5195 Z-0 F720
G01 X32.7390 Y13.3741 Z-0 F720
G01 X32.8945 Y13.5708 Z-0 F720
G01 X32.7497 Y14.0614 Z-0 F720
G00 X32.7497 Y14.0614 Z3    F500

;Begin Line: layer=0 line=2
G00 X32.3442 Y12.7112 Z3    F2100
G01 X32.3442 Y12.7112 Z-0 F210
G01 X32.1249 Y12.4262 Z-0 F720
G00 X32.1249 Y12.4262 Z3    F500

;Begin Line: layer=0 line=3
G00 X30.9724 Y14.3712 Z3    F2100
G01 X30.9724 Y14.3712 Z-0 F210
G01 X30.8683 Y14.4820 Z-0 F720
G01 X30.8858 Y14.1848 Z-0 F720
G01 X30.9724 Y14.3712 Z-0 F720
G00 X30.9724 Y14.3712 Z3    F500

;Begin Line: layer=0 line=4
G00 X30.2397 Y15.5020 Z3    F2100
G01 X30.2397 Y15.5020 Z-0 F210
G01 X29.4934 Y15.8709 Z-0 F720
G01 X29.3937 Y15.2718 Z-0 F720
G01 X29.6399 Y14.9352 Z-0 F720
G01 X29.8473 Y14.9726 Z-0 F720
G01 X30.2397 Y15.5020 Z-0 F720
G00 X30.2397 Y15.5020 Z3    F500

;Begin Line: layer=0 line=5
G00 X30.3827 Y16.4220 Z3    F2100
G01 X30.3827 Y16.4220 Z-0 F210
G01 X29.7723 Y16.6102 Z-0 F720
G00 X29.7723 Y16.6102 Z3    F500

;Begin Line: layer=0 line=6
G00 X29.8223 Y17.1908 Z3    F2100
G01 X29.8223 Y17.1908 Z-0 F210
G01 X29.8017 Y17.3145 Z-0 F720
G00 X29.8017 Y17.3145 Z3    F500

;Begin Line: layer=0 line=7
G00 X29.2634 Y18.2648 Z3    F2100
G01 X29.2634 Y18.2648 Z-0 F210
G01 X29.4591 Y17.5698 Z-0 F720
G01 X29.7438 Y17.6618 Z-0 F720
G01 X30.1312 Y17.9789 Z-0 F720
G01 X30.4866 Y18.6965 Z-0 F720
G01 X29.2557 Y18.6016 Z-0 F720
G01 X29.2634 Y18.2648 Z-0 F720
G00 X29.2634 Y18.2648 Z3    F500

;Begin Line: layer=0 line=8
G00 X30.8105 Y18.3934 Z3    F2100
G01 X30.8105 Y18.3934 Z-0 F210
G01 X30.0800 Y17.5843 Z-0 F720
G01 X31.1336 Y17.3512 Z-0 F720
G01 X30.8105 Y18.3934 Z-0 F720
G00 X30.8105 Y18.3934 Z3    F500

;Begin Line: layer=0 line=9
G00 X31.3612 Y18.4007 Z3    F2100
G01 X31.3612 Y18.4007 Z-0 F210
G01 X31.7033 Y18.2446 Z-0 F720
G01 X31.7742 Y18.8380 Z-0 F720
G01 X31.3612 Y18.4007 Z-0 F720
G00 X31.3612 Y18.4007 Z3    F500

;Begin Line: layer=0 line=10
G00 X31.6329 Y19.8047 Z3    F2100
G01 X31.6329 Y19.8047 Z-0 F210
G01 X31.9121 Y19.3543 Z-0 F720
G01 X32.1099 Y19.2286 Z-0 F720
G01 X32.0984 Y19.5661 Z-0 F720
G01 X31.9107 Y19.9150 Z-0 F720
G01 X31.6329 Y19.8047 Z-0 F720
G00 X31.6329 Y19.8047 Z3    F500

;Begin Line: layer=0 line=11
G00 X30.6867 Y20.1092 Z3    F2100
G01 X30.6867 Y20.1092 Z-0 F210
G01 X31.3864 Y20.5168 Z-0 F720
G01 X31.3332 Y20.7185 Z-0 F720
G01 X31.0557 Y20.9123 Z-0 F720
G01 X30.6582 Y20.2748 Z-0 F720
G01 X30.6867 Y20.1092 Z-0 F720
G00 X30.6867 Y20.1092 Z3    F500

;Begin Line: layer=0 line=12
G00 X32.2471 Y23.7075 Z3    F2100
G01 X32.2471 Y23.7075 Z-0 F210
G01 X32.3260 Y23.4739 Z-0 F720
G01 X34.0629 Y22.9227 Z-0 F720
G01 X34.8348 Y23.0057 Z-0 F720
G01 X35.1838 Y24.2969 Z-0 F720
G01 X35.1837 Y25.2235 Z-0 F720
G01 X34.8007 Y25.7304 Z-0 F720
G01 X32.9531 Y25.6113 Z-0 F720
G01 X32.5495 Y25.5093 Z-0 F720
G01 X32.2471 Y23.7075 Z-0 F720
G00 X32.2471 Y23.7075 Z3    F500

;Begin Line: layer=0 line=13
G00 X32.9739 Y26.1338 Z3    F2100
G01 X32.9739 Y26.1338 Z-0 F210
G01 X34.4474 Y25.9839 Z-0 F720
G01 X34.9779 Y27.1684 Z-0 F720
G01 X35.0939 Y27.7990 Z-0 F720
G01 X34.8135 Y30.0244 Z-0 F720
G01 X34.6597 Y30.6336 Z-0 F720
G01 X32.0465 Y29.6909 Z-0 F720
G01 X31.4753 Y29.3232 Z-0 F720
G01 X32.3199 Y26.8087 Z-0 F720
G01 X32.9739 Y26.1338 Z-0 F720
G00 X32.9739 Y26.1338 Z3    F500

;Begin Line: layer=0 line=14
G00 X34.9629 Y22.7134 Z3    F2100
G01 X34.9629 Y22.7134 Z-0 F210
G01 X32.6407 Y22.8056 Z-0 F720
G01 X32.2319 Y22.7887 Z-0 F720
G01 X31.8235 Y22.1347 Z-0 F720
G01 X31.5248 Y21.4339 Z-0 F720
G01 X31.4300 Y20.9892 Z-0 F720
G01 X32.7053 Y19.6716 Z-0 F720
G01 X34.1772 Y19.7866 Z-0 F720
G01 X34.8784 Y20.6990 Z-0 F720
G01 X35.0834 Y22.0423 Z-0 F720
G01 X34.9629 Y22.7134 Z-0 F720
G00 X34.9629 Y22.7134 Z3    F500

;Begin Line: layer=0 line=15
G00 X32.6954 Y16.3299 Z3    F2100
G01 X32.6954 Y16.3299 Z-0 F210
G01 X33.6640 Y16.0673 Z-0 F720
G01 X34.2272 Y17.3621 Z-0 F720
G01 X34.6080 Y18.7535 Z-0 F720
G01 X33.7657 Y19.1614 Z-0 F720
G01 X33.1398 Y19.3057 Z-0 F720
G01 X31.7922 Y17.8453 Z-0 F720
G01 X31.6704 Y17.4461 Z-0 F720
G01 X32.6954 Y16.3299 Z-0 F720
G00 X32.6954 Y16.3299 Z3    F500

;Begin Line: layer=0 line=16
G00 X31.3667 Y15.9245 Z3    F2100
G01 X31.3667 Y15.9245 Z-0 F210
G01 X31.5365 Y16.2583 Z-0 F720
G01 X31.0414 Y16.5039 Z-0 F720
G01 X31.0574 Y15.6691 Z-0 F720
G01 X31.3667 Y15.9245 Z-0 F720
G00 X31.3667 Y15.9245 Z3    F500

;Begin Line: layer=0 line=17
G00 X29.3111 Y14.7877 Z3    F2100
G01 X29.3111 Y14.7877 Z-0 F210
G01 X28.9279 Y15.3124 Z-0 F720
G01 X28.6497 Y14.7878 Z-0 F720
G01 X29.1259 Y14.6089 Z-0 F720
G01 X29.3111 Y14.7877 Z-0 F720
G00 X29.3111 Y14.7877 Z3    F500

;Begin Line: layer=0 line=18
G00 X26.3265 Y16.3596 Z3    F2100
G01 X26.3265 Y16.3596 Z-0 F210
G01 X26.7900 Y16.6731 Z-0 F720
G01 X26.5636 Y17.0077 Z-0 F720
G01 X26.1798 Y16.9391 Z-0 F720
G01 X26.3265 Y16.3596 Z-0 F720
G00 X26.3265 Y16.3596 Z3    F500

;Begin Line: layer=0 line=19
G00 X25.1840 Y15.6101 Z3    F2100
G01 X25.1840 Y15.6101 Z-0 F210
G01 X26.0212 Y16.3622 Z-0 F720
G01 X25.4350 Y17.0040 Z-0 F720
G01 X24.1934 Y16.7840 Z-0 F720
G01 X23.2098 Y16.4572 Z-0 F720
G01 X22.8936 Y16.0944 Z-0 F720
G01 X23.7151 Y14.7344 Z-0 F720
G01 X23.9714 Y14.7069 Z-0 F720
G01 X25.1840 Y15.6101 Z-0 F720
G00 X25.1840 Y15.6101 Z3    F500

;Begin Line: layer=0 line=20
G00 X22.0444 Y14.6807 Z3    F2100
G01 X22.0444 Y14.6807 Z-0 F210
G01 X22.2412 Y14.8304 Z-0 F720
G01 X22.0186 Y15.0117 Z-0 F720
G01 X22.0444 Y14.6807 Z-0 F720
G00 X22.0444 Y14.6807 Z3    F500

;Begin Line: layer=0 line=21
G00 X21.6030 Y15.1499 Z3    F2100
G01 X21.6030 Y15.1499 Z-0 F210
G01 X20.7814 Y15.2372 Z-0 F720
G01 X20.9456 Y14.8078 Z-0 F720
G01 X21.4698 Y14.9451 Z-0 F720
G01 X21.6030 Y15.1499 Z-0 F720
G00 X21.6030 Y15.1499 Z3    F500

;Begin Line: layer=0 line=22
G00 X21.7253 Y15.5220 Z3    F2100
G01 X21.7253 Y15.5220 Z-0 F210
G01 X21.8039 Y15.3796 Z-0 F720
G01 X22.2057 Y15.4548 Z-0 F720
G01 X21.7253 Y15.5220 Z-0 F720
G00 X21.7253 Y15.5220 Z3    F500

;Begin Line: layer=0 line=23
G00 X21.7510 Y16.2705 Z3    F2100
G01 X21.7510 Y16.2705 Z-0 F210
G01 X22.1778 Y16.1018 Z-0 F720
G01 X22.1630 Y17.1306 Z-0 F720
G01 X21.6209 Y17.0167 Z-0 F720
G01 X21.7510 Y16.2705 Z-0 F720
G00 X21.7510 Y16.2705 Z3    F500

;Begin Line: layer=0 line=24
G00 X20.6193 Y16.4630 Z3    F2100
G01 X20.6193 Y16.4630 Z-0 F210
G01 X20.2435 Y16.7732 Z-0 F720
G01 X20.1084 Y16.6651 Z-0 F720
G01 X20.1151 Y16.5155 Z-0 F720
G01 X20.5786 Y16.0060 Z-0 F720
G01 X20.6193 Y16.4630 Z-0 F720
G00 X20.6193 Y16.4630 Z3    F500

;Begin Line: layer=0 line=25
G00 X19.8637 Y15.9371 Z3    F2100
G01 X19.8637 Y15.9371 Z-0 F210
G01 X19.8094 Y16.2889 Z-0 F720
G01 X19.4698 Y15.9276 Z-0 F720
G01 X19.8637 Y15.9371 Z-0 F720
G00 X19.8637 Y15.9371 Z3    F500

;Begin Line: layer=0 line=26
G00 X19.2131 Y15.2806 Z3    F2100
G01 X19.2131 Y15.2806 Z-0 F210
G01 X18.6368 Y15.3929 Z-0 F720
G00 X18.6368 Y15.3929 Z3    F500

;Begin Line: layer=0 line=27
G00 X17.5125 Y14.6403 Z3    F2100
G01 X17.5125 Y14.6403 Z-0 F210
G01 X17.7836 Y13.9218 Z-0 F720
G01 X18.2625 Y14.6704 Z-0 F720
G01 X17.7649 Y14.8173 Z-0 F720
G01 X17.5125 Y14.6403 Z-0 F720
G00 X17.5125 Y14.6403 Z3    F500

;Begin Line: layer=0 line=28
G00 X19.5034 Y16.8766 Z3    F2100
G01 X19.5034 Y16.8766 Z-0 F210
G01 X20.2067 Y17.0675 Z-0 F720
G01 X20.3072 Y17.4789 Z-0 F720
G01 X19.4958 Y17.6521 Z-0 F720
G01 X19.5034 Y16.8766 Z-0 F720
G00 X19.5034 Y16.8766 Z3    F500

;Begin Line: layer=0 line=29
G00 X20.5498 Y18.5138 Z3    F2100
G01 X20.5498 Y18.5138 Z-0 F210
G01 X21.0704 Y18.5654 Z-0 F720
G01 X20.6449 Y18.8018 Z-0 F720
G01 X20.5498 Y18.5138 Z-0 F720
G00 X20.5498 Y18.5138 Z3    F500

;Begin Line: layer=0 line=30
G00 X21.5160 Y18.2521 Z3    F2100
G01 X21.5160 Y18.2521 Z-0 F210
G01 X21.4838 Y17.9620 Z-0 F720
G01 X21.8885 Y17.4547 Z-0 F720
G01 X21.5160 Y18.2521 Z-0 F720
G00 X21.5160 Y18.2521 Z3    F500

;Begin Line: layer=0 line=31
G00 X21.7235 Y18.4490 Z3    F2100
G01 X21.7235 Y18.4490 Z-0 F210
G01 X21.9806 Y18.3977 Z-0 F720
G01 X22.0418 Y19.1598 Z-0 F720
G01 X21.7235 Y18.4490 Z-0 F720
G00 X21.7235 Y18.4490 Z3    F500

;Begin Line: layer=0 line=32
G00 X22.2191 Y17.4058 Z3    F2100
G01 X22.2191 Y17.4058 Z-0 F210
G01 X23.2196 Y16.8043 Z-0 F720
G01 X23.6342 Y16.7199 Z-0 F720
G01 X25.9282 Y17.6400 Z-0 F720
G01 X25.2514 Y18.3312 Z-0 F720
G01 X23.0748 Y18.3684 Z-0 F720
G01 X22.4200 Y18.0234 Z-0 F720
G01 X22.2191 Y17.4058 Z-0 F720
G00 X22.2191 Y17.4058 Z3    F500

;Begin Line: layer=0 line=33
G00 X19.7408 Y19.1287 Z3    F2100
G01 X19.7408 Y19.1287 Z-0 F210
G01 X19.6248 Y19.0487 Z-0 F720
G01 X19.1702 Y18.0004 Z-0 F720
G01 X20.1129 Y18.3880 Z-0 F720
G01 X20.0288 Y18.7500 Z-0 F720
G01 X19.7408 Y19.1287 Z-0 F720
G00 X19.7408 Y19.1287 Z3    F500

;Begin Line: layer=0 line=34
G00 X18.8519 Y18.9898 Z3    F2100
G01 X18.8519 Y18.9898 Z-0 F210
G01 X17.9503 Y19.1153 Z-0 F720
G01 X16.6452 Y19.1147 Z-0 F720
G01 X16.4062 Y18.5334 Z-0 F720
G01 X16.5610 Y17.5431 Z-0 F720
G01 X16.8260 Y16.6582 Z-0 F720
G01 X17.5428 Y15.3781 Z-0 F720
G01 X18.3939 Y15.7963 Z-0 F720
G01 X18.7562 Y16.2744 Z-0 F720
G01 X19.0276 Y18.3417 Z-0 F720
G01 X18.8519 Y18.9898 Z-0 F720
G00 X18.8519 Y18.9898 Z3    F500

;Begin Line: layer=0 line=35
G00 X19.2659 Y21.9836 Z3    F2100
G01 X19.2659 Y21.9836 Z-0 F210
G01 X18.3721 Y22.1654 Z-0 F720
G01 X16.0884 Y21.2978 Z-0 F720
G01 X15.8930 Y20.7273 Z-0 F720
G01 X16.0493 Y20.1672 Z-0 F720
G01 X16.4108 Y19.6552 Z-0 F720
G01 X17.6609 Y19.5084 Z-0 F720
G01 X19.7406 Y20.2062 Z-0 F720
G01 X19.8756 Y21.0690 Z-0 F720
G01 X19.2659 Y21.9836 Z-0 F720
G00 X19.2659 Y21.9836 Z3    F500

;Begin Line: layer=0 line=36
G00 X18.0821 Y22.5748 Z3    F2100
G01 X18.0821 Y22.5748 Z-0 F210
G01 X18.7951 Y22.8279 Z-0 F720
G01 X18.1910 Y23.2751 Z-0 F720
G01 X18.0821 Y22.5748 Z-0 F720
G00 X18.0821 Y22.5748 Z3    F500

;Begin Line: layer=0 line=37
G00 X15.5841 Y23.5543 Z3    F2100
G01 X15.5841 Y23.5543 Z-0 F210
G01 X16.0586 Y23.5463 Z-0 F720
G01 X16.3709 Y24.0601 Z-0 F720
G01 X16.3456 Y24.5168 Z-0 F720
G01 X15.6022 Y24.2091 Z-0 F720
G01 X15.5841 Y23.5543 Z-0 F720
G00 X15.5841 Y23.5543 Z3    F500

;Begin Line: layer=0 line=38
G00 X15.8860 Y26.5788 Z3    F2100
G01 X15.8860 Y26.5788 Z-0 F210
G01 X15.4228 Y25.6928 Z-0 F720
G01 X16.3063 Y25.0021 Z-0 F720
G01 X16.7647 Y26.2266 Z-0 F720
G01 X15.8860 Y26.5788 Z-0 F720
G00 X15.8860 Y26.5788 Z3    F500

;Begin Line: layer=0 line=39
G00 X15.8634 Y26.9457 Z3    F2100
G01 X15.8634 Y26.9457 Z-0 F210
G01 X16.1683 Y26.9542 Z-0 F720
G01 X16.2433 Y28.2472 Z-0 F720
G01 X15.9230 Y27.9273 Z-0 F720
G01 X15.6729 Y27.3486 Z-0 F720
G01 X15.8634 Y26.9457 Z-0 F720
G00 X15.8634 Y26.9457 Z3    F500

;Begin Line: layer=0 line=40
G00 X16.8837 Y26.9952 Z3    F2100
G01 X16.8837 Y26.9952 Z-0 F210
G01 X17.2765 Y28.1770 Z-0 F720
G01 X16.6293 Y27.6793 Z-0 F720
G01 X16.8837 Y26.9952 Z-0 F720
G00 X16.8837 Y26.9952 Z3    F500

;Begin Line: layer=0 line=41
G00 X17.9431 Y26.0771 Z3    F2100
G01 X17.9431 Y26.0771 Z-0 F210
G01 X18.0724 Y26.3234 Z-0 F720
G01 X18.2514 Y27.0826 Z-0 F720
G01 X17.6187 Y26.6023 Z-0 F720
G01 X17.6633 Y26.0273 Z-0 F720
G01 X17.9431 Y26.0771 Z-0 F720
G00 X17.9431 Y26.0771 Z3    F500

;Begin Line: layer=0 line=42
G00 X15.8557 Y28.7256 Z3    F2100
G01 X15.8557 Y28.7256 Z-0 F210
G01 X16.8642 Y28.9660 Z-0 F720
G01 X16.8793 Y29.2976 Z-0 F720
G01 X16.3650 Y29.5560 Z-0 F720
G01 X15.7058 Y29.0056 Z-0 F720
G01 X15.8557 Y28.7256 Z-0 F720
G00 X15.8557 Y28.7256 Z3    F500

;Begin Line: layer=0 line=43
G00 X16.0711 Y31.3938 Z3    F2100
G01 X16.0711 Y31.3938 Z-0 F210
G01 X16.2391 Y30.1651 Z-0 F720
G01 X17.4523 Y29.5616 Z-0 F720
G01 X18.8054 Y29.0101 Z-0 F720
G01 X21.5255 Y31.3003 Z-0 F720
G01 X20.8151 Y32.3013 Z-0 F720
G01 X19.6600 Y33.4532 Z-0 F720
G01 X17.1496 Y33.6124 Z-0 F720
G01 X16.5814 Y32.9226 Z-0 F720
G01 X16.0711 Y31.3938 Z-0 F720
G00 X16.0711 Y31.3938 Z3    F500

;Begin Line: layer=0 line=44
G00 X17.1511 Y34.3357 Z3    F2100
G01 X17.1511 Y34.3357 Z-0 F210
G01 X16.7982 Y33.9642 Z-0 F720
G01 X17.0147 Y33.8406 Z-0 F720
G01 X18.1309 Y34.1663 Z-0 F720
G01 X17.1511 Y34.3357 Z-0 F720
G00 X17.1511 Y34.3357 Z3    F500

;Begin Line: layer=0 line=45
G00 X20.0343 Y33.7141 Z3    F2100
G01 X20.0343 Y33.7141 Z-0 F210
G01 X20.4161 Y33.6566 Z-0 F720
G01 X21.0114 Y34.5608 Z-0 F720
G01 X20.4522 Y35.0723 Z-0 F720
G01 X19.4160 Y35.4377 Z-0 F720
G01 X18.8935 Y34.5383 Z-0 F720
G01 X20.0343 Y33.7141 Z-0 F720
G00 X20.0343 Y33.7141 Z3    F500

;Begin Line: layer=0 line=46
G00 X22.2927 Y34.5803 Z3    F2100
G01 X22.2927 Y34.5803 Z-0 F210
G01 X21.2354 Y34.5804 Z-0 F720
G01 X21.2025 Y34.1240 Z-0 F720
G01 X22.0540 Y33.8861 Z-0 F720
G01 X22.3642 Y34.0213 Z-0 F720
G01 X22.2927 Y34.5803 Z-0 F720
G00 X22.2927 Y34.5803 Z3    F500

;Begin Line: layer=0 line=47
G00 X22.7727 Y34.5448 Z3    F2100
G01 X22.7727 Y34.5448 Z-0 F210
G01 X24.0301 Y34.8026 Z-0 F720
G01 X24.0173 Y35.3225 Z-0 F720
G01 X23.6771 Y35.6002 Z-0 F720
G01 X22.7727 Y34.5448 Z-0 F720
G00 X22.7727 Y34.5448 Z3    F500

;Begin Line: layer=0 line=48
G00 X23.5009 Y33.8864 Z3    F2100
G01 X23.5009 Y33.8864 Z-0 F210
G01 X23.2519 Y33.8510 Z-0 F720
G01 X22.8124 Y33.0000 Z-0 F720
G01 X23.6490 Y32.3102 Z-0 F720
G01 X24.3197 Y32.3672 Z-0 F720
G01 X24.2099 Y33.1242 Z-0 F720
G01 X23.7956 Y33.6985 Z-0 F720
G01 X23.5009 Y33.8864 Z-0 F720
G00 X23.5009 Y33.8864 Z3    F500

;Begin Line: layer=0 line=49
G00 X24.2949 Y33.5259 Z3    F2100
G01 X24.2949 Y33.5259 Z-0 F210
G01 X24.6179 Y32.9839 Z-0 F720
G01 X25.1658 Y32.7403 Z-0 F720
G01 X25.2917 Y33.7933 Z-0 F720
G01 X24.2949 Y33.5259 Z-0 F720
G00 X24.2949 Y33.5259 Z3    F500

;Begin Line: layer=0 line=50
G00 X25.2475 Y35.4295 Z3    F2100
G01 X25.2475 Y35.4295 Z-0 F210
G01 X25.2174 Y36.2802 Z-0 F720
G01 X24.3070 Y36.1509 Z-0 F720
G01 X24.4077 Y35.4118 Z-0 F720
G01 X25.2475 Y35.4295 Z-0 F720
G00 X25.2475 Y35.4295 Z3    F500

;Begin Line: layer=0 line=51
G00 X24.2276 Y36.8764 Z3    F2100
G01 X24.2276 Y36.8764 Z-0 F210
G01 X24.5492 Y36.5021 Z-0 F720
G01 X24.9613 Y37.0220 Z-0 F720
G01 X24.9019 Y37.5328 Z-0 F720
G01 X24.2276 Y36.8764 Z-0 F720
G00 X24.2276 Y36.8764 Z3    F500

;Begin Line: layer=0 line=52
G00 X25.8144 Y37.4100 Z3    F2100
G01 X25.8144 Y37.4100 Z-0 F210
G01 X26.1656 Y38.0150 Z-0 F720
G01 X25.5106 Y38.2366 Z-0 F720
G01 X25.0343 Y37.8843 Z-0 F720
G01 X25.1442 Y37.5486 Z-0 F720
G01 X25.8144 Y37.4100 Z-0 F720
G00 X25.8144 Y37.4100 Z3    F500

;Begin Line: layer=0 line=53
G00 X27.5954 Y37.9562 Z3    F2100
G01 X27.5954 Y37.9562 Z-0 F210
G01 X27.8143 Y38.2851 Z-0 F720
G01 X27.6420 Y38.5943 Z-0 F720
G01 X27.1869 Y39.0974 Z-0 F720
G01 X27.5954 Y37.9562 Z-0 F720
G00 X27.5954 Y37.9562 Z3    F500

;Begin Line: layer=0 line=54
G00 X27.7674 Y36.5401 Z3    F2100
G01 X27.7674 Y36.5401 Z-0 F210
G01 X27.8050 Y36.7219 Z-0 F720
G01 X27.0486 Y36.4079 Z-0 F720
G01 X27.3410 Y36.1971 Z-0 F720
G01 X27.7674 Y36.5401 Z-0 F720
G00 X27.7674 Y36.5401 Z3    F500

;Begin Line: layer=0 line=55
G00 X28.6570 Y39.5897 Z3    F2100
G01 X28.6570 Y39.5897 Z-0 F210
G01 X28.1615 Y39.9821 Z-0 F720
G01 X27.8880 Y39.7046 Z-0 F720
G01 X28.1183 Y39.5059 Z-0 F720
G01 X28.6570 Y39.5897 Z-0 F720
G00 X28.6570 Y39.5897 Z3    F500

;Begin Line: layer=0 line=56
G00 X29.1442 Y39.5990 Z3    F2100
G01 X29.1442 Y39.5990 Z-0 F210
G01 X29.6616 Y39.8476 Z-0 F720
G01 X29.1223 Y40.5036 Z-0 F720
G01 X28.8059 Y39.9532 Z-0 F720
G01 X29.1442 Y39.5990 Z-0 F720
G00 X29.1442 Y39.5990 Z3    F500

;Begin Line: layer=0 line=57
G00 X27.7307 Y39.7751 Z3    F2100
G01 X27.7307 Y39.7751 Z-0 F210
G01 X28.0786 Y40.0902 Z-0 F720
G01 X28.1607 Y40.4429 Z-0 F720
G01 X27.5783 Y40.2731 Z-0 F720
G01 X27.3477 Y39.9469 Z-0 F720
G01 X27.7307 Y39.7751 Z-0 F720
