;Generated with vpype gwrite fabian
G90 ; Use absolute position
G92 X0 Y0 Z0 ; Set the current position as (0,0,0)
G00 X0 Y0 Z3 F500

;Begin Line: layer=0 line=0
G00 X9.6542 Y26.2703 Z3    F2100
G01 X9.6542 Y26.2703 Z0 F210
G01 X10.1279 Y24.3493 Z0 F720
G01 X11.6865 Y24.7896 Z0 F720
G01 X12.3324 Y25.5892 Z0 F720
G01 X12.8075 Y26.6979 Z0 F720
G01 X10.3167 Y27.2813 Z0 F720
G01 X9.6542 Y26.2703 Z0 F720
G00 X9.6542 Y26.2703 Z3    F500

;Begin Line: layer=0 line=1
G00 X9.6777 Y28.5778 Z3    F2100
G01 X9.6777 Y28.5778 Z0 F210
G01 X9.6672 Y27.8932 Z0 F720
G01 X9.7577 Y27.5536 Z0 F720
G01 X10.3465 Y28.4789 Z0 F720
G01 X9.6777 Y28.5778 Z0 F720
G00 X9.6777 Y28.5778 Z3    F500

;Begin Line: layer=0 line=2
G00 X10.8687 Y28.6548 Z3    F2100
G01 X10.8687 Y28.6548 Z0 F210
G01 X10.8272 Y29.2793 Z0 F720
G01 X10.5536 Y29.0619 Z0 F720
G01 X10.8687 Y28.6548 Z0 F720
G00 X10.8687 Y28.6548 Z3    F500

;Begin Line: layer=0 line=3
G00 X11.9410 Y28.7283 Z3    F2100
G01 X11.9410 Y28.7283 Z0 F210
G01 X11.4471 Y28.4370 Z0 F720
G01 X12.0088 Y28.2863 Z0 F720
G01 X12.1981 Y28.6379 Z0 F720
G01 X11.9410 Y28.7283 Z0 F720
G00 X11.9410 Y28.7283 Z3    F500

;Begin Line: layer=0 line=4
G00 X12.7999 Y28.4367 Z3    F2100
G01 X12.7999 Y28.4367 Z0 F210
G01 X12.3928 Y28.5953 Z0 F720
G01 X12.2297 Y28.3295 Z0 F720
G01 X12.3737 Y27.9140 Z0 F720
G01 X12.9022 Y28.2982 Z0 F720
G01 X12.7999 Y28.4367 Z0 F720
G00 X12.7999 Y28.4367 Z3    F500

;Begin Line: layer=0 line=5
G00 X14.1020 Y25.2976 Z3    F2100
G01 X14.1020 Y25.2976 Z0 F210
G01 X13.8719 Y24.8126 Z0 F720
G01 X13.8781 Y24.5399 Z0 F720
G01 X14.5741 Y24.8878 Z0 F720
G01 X14.1020 Y25.2976 Z0 F720
G00 X14.1020 Y25.2976 Z3    F500

;Begin Line: layer=0 line=6
G00 X13.2568 Y24.5154 Z3    F2100
G01 X13.2568 Y24.5154 Z0 F210
G01 X12.8239 Y25.0946 Z0 F720
G01 X13.2716 Y24.3522 Z0 F720
G01 X13.2568 Y24.5154 Z0 F720
G00 X13.2568 Y24.5154 Z3    F500

;Begin Line: layer=0 line=7
G00 X14.5971 Y24.1824 Z3    F2100
G01 X14.5971 Y24.1824 Z0 F210
G01 X14.8338 Y24.7250 Z0 F720
G01 X14.1853 Y24.4867 Z0 F720
G01 X14.0295 Y24.0410 Z0 F720
G01 X14.1514 Y23.7122 Z0 F720
G01 X14.5971 Y24.1824 Z0 F720
G00 X14.5971 Y24.1824 Z3    F500

;Begin Line: layer=0 line=8
G00 X15.0338 Y24.1290 Z3    F2100
G01 X15.0338 Y24.1290 Z0 F210
G01 X14.6133 Y23.4254 Z0 F720
G01 X14.9671 Y23.5218 Z0 F720
G01 X15.5450 Y23.9567 Z0 F720
G01 X15.0338 Y24.1290 Z0 F720
G00 X15.0338 Y24.1290 Z3    F500

;Begin Line: layer=0 line=9
G00 X15.2843 Y25.1537 Z3    F2100
G01 X15.2843 Y25.1537 Z0 F210
G01 X15.9186 Y25.5581 Z0 F720
G01 X15.5709 Y25.6779 Z0 F720
G01 X15.2843 Y25.1537 Z0 F720
G00 X15.2843 Y25.1537 Z3    F500

;Begin Line: layer=0 line=10
G00 X15.9687 Y22.4236 Z3    F2100
G01 X15.9687 Y22.4236 Z0 F210
G01 X15.7534 Y22.5849 Z0 F720
G01 X15.4529 Y22.0640 Z0 F720
G01 X15.9010 Y21.8696 Z0 F720
G01 X16.0026 Y22.2393 Z0 F720
G01 X15.9687 Y22.4236 Z0 F720
G00 X15.9687 Y22.4236 Z3    F500

;Begin Line: layer=0 line=11
G00 X15.8622 Y21.6596 Z3    F2100
G01 X15.8622 Y21.6596 Z0 F210
G01 X16.1636 Y20.7835 Z0 F720
G01 X16.2427 Y21.2453 Z0 F720
G01 X15.8622 Y21.6596 Z0 F720
G00 X15.8622 Y21.6596 Z3    F500

;Begin Line: layer=0 line=12
G00 X13.4811 Y20.9588 Z3    F2100
G01 X13.4811 Y20.9588 Z0 F210
G01 X12.8191 Y21.4839 Z0 F720
G01 X12.3954 Y21.5761 Z0 F720
G01 X11.0867 Y21.4448 Z0 F720
G01 X12.1301 Y18.7788 Z0 F720
G01 X12.7918 Y18.3465 Z0 F720
G01 X13.5856 Y19.1656 Z0 F720
G01 X13.8805 Y20.3033 Z0 F720
G01 X13.4811 Y20.9588 Z0 F720
G00 X13.4811 Y20.9588 Z3    F500

;Begin Line: layer=0 line=13
G00 X20.2882 Y24.2521 Z3    F2100
G01 X20.2882 Y24.2521 Z0 F210
G01 X19.0653 Y24.7404 Z0 F720
G01 X18.7253 Y24.1327 Z0 F720
G01 X18.6778 Y22.4998 Z0 F720
G01 X19.0976 Y22.0579 Z0 F720
G01 X20.4977 Y20.9706 Z0 F720
G01 X21.4795 Y22.9044 Z0 F720
G01 X20.6278 Y23.9557 Z0 F720
G01 X20.2882 Y24.2521 Z0 F720
G00 X20.2882 Y24.2521 Z3    F500

;Begin Line: layer=0 line=14
G00 X23.6728 Y25.8668 Z3    F2100
G01 X23.6728 Y25.8668 Z0 F210
G01 X23.7401 Y25.5023 Z0 F720
G01 X24.0398 Y25.2416 Z0 F720
G01 X24.3837 Y25.6523 Z0 F720
G01 X23.6728 Y25.8668 Z0 F720
G00 X23.6728 Y25.8668 Z3    F500

;Begin Line: layer=0 line=15
G00 X23.8465 Y26.3930 Z3    F2100
G01 X23.8465 Y26.3930 Z0 F210
G01 X24.4847 Y26.1632 Z0 F720
G01 X24.6228 Y26.4170 Z0 F720
G01 X24.3925 Y26.8933 Z0 F720
G01 X23.8256 Y26.4883 Z0 F720
G01 X23.8465 Y26.3930 Z0 F720
G00 X23.8465 Y26.3930 Z3    F500

;Begin Line: layer=0 line=16
G00 X24.8612 Y25.4308 Z3    F2100
G01 X24.8612 Y25.4308 Z0 F210
G01 X24.7262 Y25.7093 Z0 F720
G01 X24.5451 Y25.3515 Z0 F720
G01 X24.8025 Y24.7908 Z0 F720
G01 X24.8612 Y25.4308 Z0 F720
G00 X24.8612 Y25.4308 Z3    F500

;Begin Line: layer=0 line=17
G00 X25.1353 Y24.2715 Z3    F2100
G01 X25.1353 Y24.2715 Z0 F210
G01 X25.2801 Y23.9477 Z0 F720
G01 X26.1476 Y23.7494 Z0 F720
G01 X25.3752 Y24.7736 Z0 F720
G01 X25.1353 Y24.2715 Z0 F720
G00 X25.1353 Y24.2715 Z3    F500

;Begin Line: layer=0 line=18
G00 X24.5921 Y23.1249 Z3    F2100
G01 X24.5921 Y23.1249 Z0 F210
G01 X24.6993 Y22.0197 Z0 F720
G01 X25.1533 Y21.5623 Z0 F720
G01 X26.2626 Y21.1041 Z0 F720
G01 X27.2067 Y21.9395 Z0 F720
G01 X27.4101 Y22.2625 Z0 F720
G01 X27.4651 Y22.5738 Z0 F720
G01 X26.7058 Y23.1195 Z0 F720
G01 X25.2399 Y23.6687 Z0 F720
G01 X24.5921 Y23.1249 Z0 F720
G00 X24.5921 Y23.1249 Z3    F500

;Begin Line: layer=0 line=19
G00 X24.0215 Y23.4158 Z3    F2100
G01 X24.0215 Y23.4158 Z0 F210
G01 X21.5537 Y22.7569 Z0 F720
G01 X21.3767 Y22.2824 Z0 F720
G01 X21.2565 Y21.4151 Z0 F720
G01 X21.7084 Y20.2536 Z0 F720
G01 X22.2276 Y19.9612 Z0 F720
G01 X23.6996 Y20.6899 Z0 F720
G01 X24.1638 Y21.6733 Z0 F720
G01 X24.1465 Y22.7087 Z0 F720
G01 X24.0215 Y23.4158 Z0 F720
G00 X24.0215 Y23.4158 Z3    F500

;Begin Line: layer=0 line=20
G00 X24.7705 Y21.1476 Z3    F2100
G01 X24.7705 Y21.1476 Z0 F210
G01 X24.3848 Y20.8412 Z0 F720
G01 X23.4108 Y19.2178 Z0 F720
G01 X23.5876 Y19.0061 Z0 F720
G01 X25.1711 Y17.8652 Z0 F720
G01 X26.3329 Y19.4823 Z0 F720
G01 X26.4594 Y20.5648 Z0 F720
G01 X24.7705 Y21.1476 Z0 F720
G00 X24.7705 Y21.1476 Z3    F500

;Begin Line: layer=0 line=21
G00 X23.6799 Y17.8939 Z3    F2100
G01 X23.6799 Y17.8939 Z0 F210
G01 X23.2957 Y18.7507 Z0 F720
G01 X22.7807 Y18.4419 Z0 F720
G01 X22.6546 Y17.2657 Z0 F720
G01 X23.1584 Y17.0887 Z0 F720
G01 X23.5911 Y17.1513 Z0 F720
G01 X23.6799 Y17.8939 Z0 F720
G00 X23.6799 Y17.8939 Z3    F500

;Begin Line: layer=0 line=22
G00 X23.3662 Y15.2123 Z3    F2100
G01 X23.3662 Y15.2123 Z0 F210
G01 X23.8697 Y15.9975 Z0 F720
G01 X22.2326 Y16.4892 Z0 F720
G01 X22.1548 Y15.6776 Z0 F720
G01 X22.8777 Y15.0923 Z0 F720
G01 X23.3662 Y15.2123 Z0 F720
G00 X23.3662 Y15.2123 Z3    F500

;Begin Line: layer=0 line=23
G00 X20.8358 Y16.1274 Z3    F2100
G01 X20.8358 Y16.1274 Z0 F210
G01 X20.3429 Y15.1684 Z0 F720
G01 X21.5297 Y14.9499 Z0 F720
G01 X21.2953 Y15.9218 Z0 F720
G01 X20.8358 Y16.1274 Z0 F720
G00 X20.8358 Y16.1274 Z3    F500

;Begin Line: layer=0 line=24
G00 X19.4485 Y16.0889 Z3    F2100
G01 X19.4485 Y16.0889 Z0 F210
G01 X19.9954 Y16.4934 Z0 F720
G01 X21.4980 Y18.4034 Z0 F720
G01 X21.9653 Y19.5080 Z0 F720
G01 X21.4947 Y20.1461 Z0 F720
G01 X19.0329 Y21.7509 Z0 F720
G01 X18.5092 Y22.0140 Z0 F720
G01 X17.8144 Y21.3266 Z0 F720
G01 X17.0750 Y20.1130 Z0 F720
G01 X17.4856 Y18.3522 Z0 F720
G01 X17.8172 Y17.4180 Z0 F720
G01 X18.6207 Y15.9565 Z0 F720
G01 X19.4485 Y16.0889 Z0 F720
G00 X19.4485 Y16.0889 Z3    F500

;Begin Line: layer=0 line=25
G00 X15.9827 Y13.4517 Z3    F2100
G01 X15.9827 Y13.4517 Z0 F210
G01 X16.0644 Y13.2026 Z0 F720
G01 X17.2501 Y11.6067 Z0 F720
G01 X18.3231 Y10.6092 Z0 F720
G01 X19.1589 Y10.0616 Z0 F720
G01 X19.5966 Y10.0604 Z0 F720
G01 X21.6210 Y12.3952 Z0 F720
G01 X22.0635 Y13.0305 Z0 F720
G01 X20.7141 Y14.4905 Z0 F720
G01 X20.0169 Y14.9491 Z0 F720
G01 X18.9020 Y15.1711 Z0 F720
G01 X17.9046 Y14.9224 Z0 F720
G01 X17.4371 Y14.7209 Z0 F720
G01 X16.7668 Y14.2285 Z0 F720
G01 X15.9827 Y13.4517 Z0 F720
G00 X15.9827 Y13.4517 Z3    F500

;Begin Line: layer=0 line=26
G00 X26.5144 Y24.6120 Z3    F2100
G01 X26.5144 Y24.6120 Z0 F210
G01 X26.4321 Y25.1788 Z0 F720
G01 X26.0378 Y25.2347 Z0 F720
G01 X25.9886 Y24.8061 Z0 F720
G01 X26.3999 Y24.0738 Z0 F720
G01 X26.5144 Y24.6120 Z0 F720
G00 X26.5144 Y24.6120 Z3    F500

;Begin Line: layer=0 line=27
G00 X26.1363 Y25.8763 Z3    F2100
G01 X26.1363 Y25.8763 Z0 F210
G01 X27.3636 Y25.2806 Z0 F720
G01 X27.1162 Y26.0494 Z0 F720
G01 X26.1363 Y25.8763 Z0 F720
G00 X26.1363 Y25.8763 Z3    F500

;Begin Line: layer=0 line=28
G00 X25.2696 Y27.1883 Z3    F2100
G01 X25.2696 Y27.1883 Z0 F210
G01 X25.2074 Y26.8886 Z0 F720
G01 X25.6752 Y27.1596 Z0 F720
G01 X25.2696 Y27.1883 Z0 F720
G00 X25.2696 Y27.1883 Z3    F500

;Begin Line: layer=0 line=29
G00 X28.1199 Y26.9298 Z3    F2100
G01 X28.1199 Y26.9298 Z0 F210
G01 X28.6212 Y27.1859 Z0 F720
G01 X28.8943 Y30.1373 Z0 F720
G01 X25.9932 Y30.3688 Z0 F720
G01 X25.8757 Y30.1481 Z0 F720
G01 X25.4709 Y28.5797 Z0 F720
G01 X26.2576 Y27.6422 Z0 F720
G01 X28.1199 Y26.9298 Z0 F720
G00 X28.1199 Y26.9298 Z3    F500

;Begin Line: layer=0 line=30
G00 X26.4706 Y32.6041 Z3    F2100
G01 X26.4706 Y32.6041 Z0 F210
G01 X26.1237 Y31.8041 Z0 F720
G01 X26.2650 Y31.0393 Z0 F720
G01 X26.4224 Y30.8254 Z0 F720
G01 X28.5856 Y30.5536 Z0 F720
G01 X28.7366 Y31.6412 Z0 F720
G01 X28.4886 Y32.1246 Z0 F720
G01 X26.4706 Y32.6041 Z0 F720
G00 X26.4706 Y32.6041 Z3    F500

;Begin Line: layer=0 line=31
G00 X26.4692 Y32.8905 Z3    F2100
G01 X26.4692 Y32.8905 Z0 F210
G01 X26.9736 Y33.4215 Z0 F720
G01 X26.8342 Y33.7281 Z0 F720
G01 X26.2940 Y33.8563 Z0 F720
G01 X25.9558 Y33.8008 Z0 F720
G01 X26.4692 Y32.8905 Z0 F720
G00 X26.4692 Y32.8905 Z3    F500

;Begin Line: layer=0 line=32
G00 X28.2807 Y33.7631 Z3    F2100
G01 X28.2807 Y33.7631 Z0 F210
G01 X28.2450 Y34.5093 Z0 F720
G01 X27.9814 Y34.4600 Z0 F720
G01 X27.2259 Y33.9233 Z0 F720
G01 X27.4823 Y33.6217 Z0 F720
G01 X27.8083 Y33.4648 Z0 F720
G01 X28.0218 Y33.4529 Z0 F720
G01 X28.2807 Y33.7631 Z0 F720
G00 X28.2807 Y33.7631 Z3    F500

;Begin Line: layer=0 line=33
G00 X26.3657 Y35.3920 Z3    F2100
G01 X26.3657 Y35.3920 Z0 F210
G01 X26.6288 Y35.3725 Z0 F720
G01 X28.3655 Y35.7573 Z0 F720
G01 X28.5428 Y35.8772 Z0 F720
G01 X28.3497 Y38.1323 Z0 F720
G01 X28.2389 Y38.5981 Z0 F720
G01 X26.8482 Y38.1743 Z0 F720
G01 X25.4531 Y37.0314 Z0 F720
G01 X25.3366 Y35.7477 Z0 F720
G01 X26.3657 Y35.3920 Z0 F720
G00 X26.3657 Y35.3920 Z3    F500

;Begin Line: layer=0 line=34
G00 X24.6761 Y38.8558 Z3    F2100
G01 X24.6761 Y38.8558 Z0 F210
G01 X23.3808 Y39.3628 Z0 F720
G01 X22.6488 Y38.9420 Z0 F720
G01 X22.7002 Y38.2144 Z0 F720
G01 X22.8725 Y37.9123 Z0 F720
G01 X24.2291 Y36.7135 Z0 F720
G01 X25.1527 Y37.2004 Z0 F720
G01 X25.3242 Y37.6336 Z0 F720
G01 X24.6761 Y38.8558 Z0 F720
G00 X24.6761 Y38.8558 Z3    F500

;Begin Line: layer=0 line=35
G00 X23.0652 Y40.0649 Z3    F2100
G01 X23.0652 Y40.0649 Z0 F210
G01 X24.2281 Y40.2054 Z0 F720
G01 X24.3110 Y42.2098 Z0 F720
G01 X24.0293 Y42.9213 Z0 F720
G01 X22.3445 Y42.2295 Z0 F720
G01 X21.8294 Y41.5931 Z0 F720
G01 X22.6160 Y40.5090 Z0 F720
G01 X23.0652 Y40.0649 Z0 F720
G00 X23.0652 Y40.0649 Z3    F500

;Begin Line: layer=0 line=36
G00 X25.3855 Y41.2149 Z3    F2100
G01 X25.3855 Y41.2149 Z0 F210
G01 X24.6570 Y40.5100 Z0 F720
G01 X24.5687 Y40.1629 Z0 F720
G01 X25.0325 Y39.4653 Z0 F720
G01 X26.0623 Y38.5361 Z0 F720
G01 X26.6244 Y38.4562 Z0 F720
G01 X27.4982 Y38.8672 Z0 F720
G01 X27.5668 Y39.1648 Z0 F720
G01 X27.3370 Y39.6191 Z0 F720
G01 X26.0523 Y41.1848 Z0 F720
G01 X25.3855 Y41.2149 Z0 F720
G00 X25.3855 Y41.2149 Z3    F500

;Begin Line: layer=0 line=37
G00 X26.9920 Y42.1140 Z3    F2100
G01 X26.9920 Y42.1140 Z0 F210
G01 X26.8707 Y42.5691 Z0 F720
G01 X25.9493 Y44.7160 Z0 F720
G01 X25.3619 Y44.3298 Z0 F720
G01 X24.8686 Y43.7757 Z0 F720
G01 X24.6353 Y43.2868 Z0 F720
G01 X24.5499 Y42.8952 Z0 F720
G01 X24.9710 Y41.5777 Z0 F720
G01 X26.6653 Y41.4697 Z0 F720
G01 X26.9920 Y42.1140 Z0 F720
G00 X26.9920 Y42.1140 Z3    F500

;Begin Line: layer=0 line=38
G00 X25.4194 Y46.1575 Z3    F2100
G01 X25.4194 Y46.1575 Z0 F210
G01 X24.4668 Y45.2700 Z0 F720
G01 X25.5002 Y44.7345 Z0 F720
G01 X25.8661 Y45.2402 Z0 F720
G01 X25.4194 Y46.1575 Z0 F720
G00 X25.4194 Y46.1575 Z3    F500

;Begin Line: layer=0 line=39
G00 X22.7833 Y45.7915 Z3    F2100
G01 X22.7833 Y45.7915 Z0 F210
G01 X22.9172 Y46.3814 Z0 F720
G01 X22.5158 Y46.5077 Z0 F720
G01 X21.8843 Y46.5347 Z0 F720
G01 X21.9275 Y46.0858 Z0 F720
G01 X22.7833 Y45.7915 Z0 F720
G00 X22.7833 Y45.7915 Z3    F500

;Begin Line: layer=0 line=40
G00 X19.9761 Y40.7149 Z3    F2100
G01 X19.9761 Y40.7149 Z0 F210
G01 X21.4207 Y41.8551 Z0 F720
G01 X21.4485 Y42.7427 Z0 F720
G01 X19.8277 Y45.9260 Z0 F720
G01 X19.3917 Y46.1537 Z0 F720
G01 X18.6830 Y46.0803 Z0 F720
G01 X18.3171 Y45.8611 Z0 F720
G01 X16.5725 Y43.9643 Z0 F720
G01 X16.3503 Y43.2768 Z0 F720
G01 X19.6066 Y40.5384 Z0 F720
G01 X19.9761 Y40.7149 Z0 F720
G00 X19.9761 Y40.7149 Z3    F500

;Begin Line: layer=0 line=41
G00 X20.0216 Y38.8041 Z3    F2100
G01 X20.0216 Y38.8041 Z0 F210
G01 X22.1436 Y38.9128 Z0 F720
G01 X22.3483 Y39.0546 Z0 F720
G01 X22.3047 Y40.2877 Z0 F720
G01 X21.1009 Y41.2653 Z0 F720
G01 X19.9796 Y40.5351 Z0 F720
G01 X20.0216 Y38.8041 Z0 F720
G00 X20.0216 Y38.8041 Z3    F500

;Begin Line: layer=0 line=42
G00 X15.8939 Y38.1215 Z3    F2100
G01 X15.8939 Y38.1215 Z0 F210
G01 X16.0122 Y38.5171 Z0 F720
G01 X15.8406 Y39.2222 Z0 F720
G01 X15.1754 Y39.9845 Z0 F720
G01 X13.7652 Y39.9535 Z0 F720
G01 X12.8498 Y39.4340 Z0 F720
G01 X13.0624 Y37.7726 Z0 F720
G01 X13.3942 Y36.6796 Z0 F720
G01 X14.2322 Y37.0739 Z0 F720
G01 X15.8939 Y38.1215 Z0 F720
G00 X15.8939 Y38.1215 Z3    F500

;Begin Line: layer=0 line=43
G00 X14.8493 Y40.5244 Z3    F2100
G01 X14.8493 Y40.5244 Z0 F210
G01 X15.3447 Y40.4210 Z0 F720
G01 X15.4274 Y41.4055 Z0 F720
G01 X15.1354 Y41.3328 Z0 F720
G01 X14.8785 Y40.7601 Z0 F720
G01 X14.8493 Y40.5244 Z0 F720
G00 X14.8493 Y40.5244 Z3    F500

;Begin Line: layer=0 line=44
G00 X14.2864 Y42.0485 Z3    F2100
G01 X14.2864 Y42.0485 Z0 F210
G01 X13.9115 Y41.8520 Z0 F720
G01 X14.1897 Y41.3104 Z0 F720
G01 X14.5309 Y41.2764 Z0 F720
G01 X14.2864 Y42.0485 Z0 F720
G00 X14.2864 Y42.0485 Z3    F500

;Begin Line: layer=0 line=45
G00 X13.3602 Y41.8264 Z3    F2100
G01 X13.3602 Y41.8264 Z0 F210
G01 X13.0010 Y42.2600 Z0 F720
G01 X12.3431 Y42.4853 Z0 F720
G01 X11.2997 Y42.2957 Z0 F720
G01 X10.9247 Y41.5612 Z0 F720
G01 X10.5844 Y39.8092 Z0 F720
G01 X12.0478 Y39.3225 Z0 F720
G01 X13.4129 Y40.1263 Z0 F720
G01 X13.7068 Y40.6506 Z0 F720
G01 X13.3602 Y41.8264 Z0 F720
G00 X13.3602 Y41.8264 Z3    F500

;Begin Line: layer=0 line=46
G00 X12.5369 Y44.1581 Z3    F2100
G01 X12.5369 Y44.1581 Z0 F210
G01 X13.0977 Y44.0986 Z0 F720
G01 X13.2733 Y44.5376 Z0 F720
G01 X13.3023 Y44.9988 Z0 F720
G01 X12.6356 Y45.0177 Z0 F720
G01 X12.4539 Y44.8813 Z0 F720
G01 X12.3370 Y44.5019 Z0 F720
G01 X12.5369 Y44.1581 Z0 F720
G00 X12.5369 Y44.1581 Z3    F500

;Begin Line: layer=0 line=47
G00 X12.0377 Y44.1751 Z3    F2100
G01 X12.0377 Y44.1751 Z0 F210
G01 X11.8279 Y44.3454 Z0 F720
G01 X11.4806 Y43.6319 Z0 F720
G01 X12.0947 Y43.2036 Z0 F720
G01 X12.3915 Y43.3344 Z0 F720
G01 X12.0377 Y44.1751 Z0 F720
G00 X12.0377 Y44.1751 Z3    F500

;Begin Line: layer=0 line=48
G00 X12.6311 Y38.7625 Z3    F2100
G01 X12.6311 Y38.7625 Z0 F210
G01 X10.3737 Y39.5562 Z0 F720
G01 X9.6644 Y36.9131 Z0 F720
G01 X10.4054 Y36.0411 Z0 F720
G01 X13.0559 Y35.7349 Z0 F720
G01 X12.6311 Y38.7625 Z0 F720
G00 X12.6311 Y38.7625 Z3    F500

;Begin Line: layer=0 line=49
G00 X9.4529 Y34.8064 Z3    F2100
G01 X9.4529 Y34.8064 Z0 F210
G01 X9.1851 Y34.3325 Z0 F720
G01 X9.6512 Y32.2766 Z0 F720
G01 X11.9803 Y32.4648 Z0 F720
G01 X12.5894 Y35.4556 Z0 F720
G01 X10.4449 Y35.1939 Z0 F720
G01 X9.4529 Y34.8064 Z0 F720
G00 X9.4529 Y34.8064 Z3    F500

;Begin Line: layer=0 line=50
G00 X21.2900 Y51.9319 Z3    F2100
G01 X21.2900 Y51.9319 Z0 F210
G01 X20.8656 Y52.3570 Z0 F720
G01 X19.0629 Y53.7711 Z0 F720
G01 X16.3460 Y51.3935 Z0 F720
G01 X16.1590 Y50.9023 Z0 F720
G01 X16.2567 Y50.0167 Z0 F720
G01 X16.7270 Y49.4457 Z0 F720
G01 X17.9122 Y48.6199 Z0 F720
G01 X18.7510 Y48.4754 Z0 F720
G01 X20.2459 Y49.8885 Z0 F720
G01 X21.3616 Y51.3537 Z0 F720
G01 X21.2900 Y51.9319 Z0 F720
