;Generated with vpype gwrite fabian
;generation/stones/output/stones_liked_13.svg.gcode
G90
G92 X0 Y0 Z0
G00 X0 Y0 Z0 F2100
G00 X0 Y0 Z5 F500

;Begin Line: layer=0 line=0
G00 X51.4275 Y87.4895 Z3    F2100
G01 X51.4275 Y87.4895 Z-0 F210
G01 X51.2914 Y88.8857 Z-0 F720
G01 X51.0700 Y89.6958 Z-0 F720
G01 X50.3865 Y88.7945 Z-0 F720
G01 X51.3396 Y86.9647 Z-0 F720
G01 X51.4275 Y87.4895 Z-0 F720
G00 X51.4275 Y87.4895 Z3    F500

;Begin Line: layer=0 line=1
G00 X50.5184 Y86.4563 Z3    F2100
G01 X50.5184 Y86.4563 Z-0 F210
G01 X50.3247 Y86.7317 Z-0 F720
G01 X49.1999 Y85.7048 Z-0 F720
G01 X49.0529 Y84.6512 Z-0 F720
G01 X49.3064 Y84.5961 Z-0 F720
G01 X50.5184 Y86.4563 Z-0 F720
G00 X50.5184 Y86.4563 Z3    F500

;Begin Line: layer=0 line=2
G00 X53.3715 Y86.4899 Z3    F2100
G01 X53.3715 Y86.4899 Z-0 F210
G01 X52.0641 Y87.2588 Z-0 F720
G01 X51.1246 Y84.5245 Z-0 F720
G01 X52.0854 Y84.2059 Z-0 F720
G01 X53.6413 Y85.3515 Z-0 F720
G01 X53.6639 Y85.7995 Z-0 F720
G01 X53.3715 Y86.4899 Z-0 F720
G00 X53.3715 Y86.4899 Z3    F500

;Begin Line: layer=0 line=3
G00 X55.0504 Y83.3993 Z3    F2100
G01 X55.0504 Y83.3993 Z-0 F210
G01 X54.2361 Y84.4442 Z-0 F720
G01 X54.7003 Y82.3632 Z-0 F720
G01 X55.0504 Y83.3993 Z-0 F720
G00 X55.0504 Y83.3993 Z3    F500

;Begin Line: layer=0 line=4
G00 X53.4304 Y82.0919 Z3    F2100
G01 X53.4304 Y82.0919 Z-0 F210
G01 X52.4192 Y83.4674 Z-0 F720
G01 X51.3666 Y83.1089 Z-0 F720
G01 X50.8607 Y81.4794 Z-0 F720
G01 X52.2013 Y80.8606 Z-0 F720
G01 X53.0854 Y81.4310 Z-0 F720
G01 X53.4304 Y82.0919 Z-0 F720
G00 X53.4304 Y82.0919 Z3    F500

;Begin Line: layer=0 line=5
G00 X52.8130 Y79.5755 Z3    F2100
G01 X52.8130 Y79.5755 Z-0 F210
G01 X51.4512 Y79.9915 Z-0 F720
G01 X51.2428 Y79.8116 Z-0 F720
G01 X51.1333 Y78.5403 Z-0 F720
G01 X52.1330 Y78.6824 Z-0 F720
G01 X52.8130 Y79.5755 Z-0 F720
G00 X52.8130 Y79.5755 Z3    F500

;Begin Line: layer=0 line=6
G00 X50.8374 Y76.9013 Z3    F2100
G01 X50.8374 Y76.9013 Z-0 F210
G01 X50.6847 Y76.2572 Z-0 F720
G01 X50.8405 Y75.7189 Z-0 F720
G01 X51.3526 Y77.9358 Z-0 F720
G01 X50.8374 Y76.9013 Z-0 F720
G00 X50.8374 Y76.9013 Z3    F500

;Begin Line: layer=0 line=7
G00 X48.5412 Y75.4294 Z3    F2100
G01 X48.5412 Y75.4294 Z-0 F210
G01 X49.1142 Y74.0969 Z-0 F720
G01 X50.1136 Y75.2623 Z-0 F720
G01 X48.8165 Y75.9643 Z-0 F720
G01 X48.5412 Y75.4294 Z-0 F720
G00 X48.5412 Y75.4294 Z3    F500

;Begin Line: layer=0 line=8
G00 X47.2560 Y74.4023 Z3    F2100
G01 X47.2560 Y74.4023 Z-0 F210
G01 X46.8147 Y74.9439 Z-0 F720
G01 X45.8972 Y75.2582 Z-0 F720
G01 X45.3238 Y73.7186 Z-0 F720
G01 X47.2987 Y72.8007 Z-0 F720
G01 X47.2560 Y74.4023 Z-0 F720
G00 X47.2560 Y74.4023 Z3    F500

;Begin Line: layer=0 line=9
G00 X43.8558 Y72.0015 Z3    F2100
G01 X43.8558 Y72.0015 Z-0 F210
G01 X44.4424 Y70.8149 Z-0 F720
G01 X44.9214 Y71.1001 Z-0 F720
G01 X45.1946 Y73.3991 Z-0 F720
G01 X43.4363 Y73.5759 Z-0 F720
G01 X43.8558 Y72.0015 Z-0 F720
G00 X43.8558 Y72.0015 Z3    F500

;Begin Line: layer=0 line=10
G00 X45.1988 Y78.3598 Z3    F2100
G01 X45.1988 Y78.3598 Z-0 F210
G01 X45.4551 Y77.6855 Z-0 F720
G01 X47.4214 Y78.0674 Z-0 F720
G01 X47.0716 Y79.2074 Z-0 F720
G01 X45.9093 Y79.2102 Z-0 F720
G01 X45.1988 Y78.3598 Z-0 F720
G00 X45.1988 Y78.3598 Z3    F500

;Begin Line: layer=0 line=11
G00 X48.0207 Y78.7272 Z3    F2100
G01 X48.0207 Y78.7272 Z-0 F210
G01 X47.9447 Y76.6360 Z-0 F720
G01 X49.4779 Y77.1245 Z-0 F720
G01 X49.6623 Y77.4909 Z-0 F720
G01 X49.1439 Y79.3351 Z-0 F720
G01 X48.6565 Y79.1661 Z-0 F720
G01 X48.0207 Y78.7272 Z-0 F720
G00 X48.0207 Y78.7272 Z3    F500

;Begin Line: layer=0 line=12
G00 X45.7486 Y82.9532 Z3    F2100
G01 X45.7486 Y82.9532 Z-0 F210
G01 X47.0505 Y82.9054 Z-0 F720
G01 X47.5260 Y83.4269 Z-0 F720
G01 X47.7479 Y83.9136 Z-0 F720
G01 X46.8626 Y84.6051 Z-0 F720
G01 X45.4051 Y83.4800 Z-0 F720
G01 X45.7486 Y82.9532 Z-0 F720
G00 X45.7486 Y82.9532 Z3    F500

;Begin Line: layer=0 line=13
G00 X46.0314 Y89.9652 Z3    F2100
G01 X46.0314 Y89.9652 Z-0 F210
G01 X46.5903 Y90.1243 Z-0 F720
G01 X47.4977 Y90.5687 Z-0 F720
G01 X46.0314 Y89.9652 Z-0 F720
G00 X46.0314 Y89.9652 Z3    F500

;Begin Line: layer=0 line=14
G00 X48.7937 Y90.5922 Z3    F2100
G01 X48.7937 Y90.5922 Z-0 F210
G01 X50.4474 Y90.7283 Z-0 F720
G01 X52.7674 Y92.5950 Z-0 F720
G01 X57.2537 Y98.0448 Z-0 F720
G01 X57.4780 Y103.3126 Z-0 F720
G01 X53.1735 Y105.7078 Z-0 F720
G01 X48.4335 Y107.1705 Z-0 F720
G01 X45.5258 Y106.2599 Z-0 F720
G01 X41.7407 Y102.2981 Z-0 F720
G01 X41.9558 Y101.2776 Z-0 F720
G01 X42.6528 Y99.5516 Z-0 F720
G01 X46.2253 Y92.6367 Z-0 F720
G01 X48.7937 Y90.5922 Z-0 F720
G00 X48.7937 Y90.5922 Z3    F500

;Begin Line: layer=0 line=15
G00 X61.8474 Y96.7466 Z3    F2100
G01 X61.8474 Y96.7466 Z-0 F210
G01 X58.6345 Y98.5244 Z-0 F720
G01 X56.0444 Y96.0870 Z-0 F720
G01 X53.8247 Y93.5916 Z-0 F720
G01 X51.5418 Y90.5991 Z-0 F720
G01 X53.1146 Y87.8769 Z-0 F720
G01 X57.2081 Y81.5895 Z-0 F720
G01 X57.7751 Y81.2497 Z-0 F720
G01 X70.5454 Y90.6186 Z-0 F720
G01 X70.5096 Y91.0305 Z-0 F720
G01 X61.8474 Y96.7466 Z-0 F720
G00 X61.8474 Y96.7466 Z3    F500

;Begin Line: layer=0 line=16
G00 X58.2676 Y103.3861 Z3    F2100
G01 X58.2676 Y103.3861 Z-0 F210
G01 X58.6073 Y99.2181 Z-0 F720
G01 X63.8254 Y95.6339 Z-0 F720
G01 X71.4391 Y91.4429 Z-0 F720
G01 X73.7497 Y93.4508 Z-0 F720
G01 X74.4935 Y97.2406 Z-0 F720
G01 X74.9544 Y100.3149 Z-0 F720
G01 X74.8998 Y103.3754 Z-0 F720
G01 X74.3998 Y104.4938 Z-0 F720
G01 X66.5403 Y110.8338 Z-0 F720
G01 X64.3918 Y110.1825 Z-0 F720
G01 X63.2164 Y109.4244 Z-0 F720
G01 X60.3586 Y106.4075 Z-0 F720
G01 X58.4855 Y104.2608 Z-0 F720
G01 X58.2676 Y103.3861 Z-0 F720
G00 X58.2676 Y103.3861 Z3    F500

;Begin Line: layer=0 line=17
G00 X58.7084 Y111.4882 Z3    F2100
G01 X58.7084 Y111.4882 Z-0 F210
G01 X59.5741 Y111.8064 Z-0 F720
G00 X59.5741 Y111.8064 Z3    F500

;Begin Line: layer=0 line=18
G00 X60.0775 Y111.4719 Z3    F2100
G01 X60.0775 Y111.4719 Z-0 F210
G01 X60.5863 Y110.7909 Z-0 F720
G01 X60.7384 Y112.2125 Z-0 F720
G01 X60.1875 Y111.7882 Z-0 F720
G01 X60.0775 Y111.4719 Z-0 F720
G00 X60.0775 Y111.4719 Z3    F500

;Begin Line: layer=0 line=19
G00 X56.9595 Y111.8061 Z3    F2100
G01 X56.9595 Y111.8061 Z-0 F210
G01 X56.8838 Y111.8810 Z-0 F720
G01 X56.8095 Y111.8047 Z-0 F720
G01 X56.8865 Y111.7311 Z-0 F720
G01 X56.9595 Y111.8061 Z-0 F720
G00 X56.9595 Y111.8061 Z3    F500

;Begin Line: layer=0 line=20
G00 X57.0443 Y112.7053 Z3    F2100
G01 X57.0443 Y112.7053 Z-0 F210
G01 X58.1248 Y112.5238 Z-0 F720
G01 X58.8005 Y112.9532 Z-0 F720
G01 X60.4792 Y115.3803 Z-0 F720
G01 X57.0060 Y118.1934 Z-0 F720
G01 X56.6268 Y118.3965 Z-0 F720
G01 X54.6939 Y116.9133 Z-0 F720
G01 X54.8987 Y115.5621 Z-0 F720
G01 X56.8264 Y112.9080 Z-0 F720
G01 X57.0443 Y112.7053 Z-0 F720
G00 X57.0443 Y112.7053 Z3    F500

;Begin Line: layer=0 line=21
G00 X54.7237 Y113.7514 Z3    F2100
G01 X54.7237 Y113.7514 Z-0 F210
G01 X54.6388 Y114.7505 Z-0 F720
G01 X54.2194 Y115.4287 Z-0 F720
G01 X52.9053 Y116.2376 Z-0 F720
G01 X50.9593 Y115.4092 Z-0 F720
G01 X50.2806 Y114.9865 Z-0 F720
G01 X50.2029 Y113.0272 Z-0 F720
G01 X50.9330 Y112.2297 Z-0 F720
G01 X54.4551 Y113.2506 Z-0 F720
G01 X54.7237 Y113.7514 Z-0 F720
G00 X54.7237 Y113.7514 Z3    F500

;Begin Line: layer=0 line=22
G00 X52.6972 Y111.7399 Z3    F2100
G01 X52.6972 Y111.7399 Z-0 F210
G01 X53.5190 Y111.1671 Z-0 F720
G01 X53.8976 Y111.7166 Z-0 F720
G01 X52.6972 Y111.7399 Z-0 F720
G00 X52.6972 Y111.7399 Z3    F500

;Begin Line: layer=0 line=23
G00 X51.2775 Y110.8931 Z3    F2100
G01 X51.2775 Y110.8931 Z-0 F210
G01 X51.3518 Y110.8168 Z-0 F720
G01 X51.4275 Y110.8918 Z-0 F720
G01 X51.3518 Y110.9668 Z-0 F720
G01 X51.2775 Y110.8931 Z-0 F720
G00 X51.2775 Y110.8931 Z3    F500

;Begin Line: layer=0 line=24
G00 X49.9224 Y109.2999 Z3    F2100
G01 X49.9224 Y109.2999 Z-0 F210
G01 X50.0335 Y108.4948 Z-0 F720
G00 X50.0335 Y108.4948 Z3    F500

;Begin Line: layer=0 line=25
G00 X47.7304 Y108.1838 Z3    F2100
G01 X47.7304 Y108.1838 Z-0 F210
G01 X47.6560 Y108.1101 Z-0 F720
G01 X47.7304 Y108.0338 Z-0 F720
G01 X47.8060 Y108.1088 Z-0 F720
G01 X47.7304 Y108.1838 Z-0 F720
G00 X47.7304 Y108.1838 Z3    F500

;Begin Line: layer=0 line=26
G00 X41.0737 Y113.6563 Z3    F2100
G01 X41.0737 Y113.6563 Z-0 F210
G01 X41.8466 Y112.6012 Z-0 F720
G01 X43.0163 Y113.0572 Z-0 F720
G01 X42.5998 Y113.4592 Z-0 F720
G01 X41.2243 Y113.6685 Z-0 F720
G01 X41.0737 Y113.6563 Z-0 F720
G00 X41.0737 Y113.6563 Z3    F500

;Begin Line: layer=0 line=27
G00 X39.9635 Y115.0651 Z3    F2100
G01 X39.9635 Y115.0651 Z-0 F210
G01 X39.0657 Y114.4037 Z-0 F720
G01 X40.0670 Y113.5612 Z-0 F720
G01 X40.1915 Y114.0181 Z-0 F720
G01 X40.1333 Y114.9448 Z-0 F720
G01 X39.9635 Y115.0651 Z-0 F720
G00 X39.9635 Y115.0651 Z3    F500

;Begin Line: layer=0 line=28
G00 X39.4468 Y117.2520 Z3    F2100
G01 X39.4468 Y117.2520 Z-0 F210
G01 X42.6188 Y117.9545 Z-0 F720
G01 X42.5334 Y118.3185 Z-0 F720
G01 X41.1708 Y118.2506 Z-0 F720
G01 X40.1819 Y117.9848 Z-0 F720
G01 X39.4468 Y117.2520 Z-0 F720
G00 X39.4468 Y117.2520 Z3    F500

;Begin Line: layer=0 line=29
G00 X43.3049 Y116.5331 Z3    F2100
G01 X43.3049 Y116.5331 Z-0 F210
G01 X44.0532 Y116.2738 Z-0 F720
G01 X45.0974 Y116.6380 Z-0 F720
G01 X43.8492 Y117.4725 Z-0 F720
G01 X43.3049 Y116.5331 Z-0 F720
G00 X43.3049 Y116.5331 Z3    F500

;Begin Line: layer=0 line=30
G00 X46.0642 Y118.0242 Z3    F2100
G01 X46.0642 Y118.0242 Z-0 F210
G01 X46.9331 Y118.7808 Z-0 F720
G01 X46.8165 Y118.8952 Z-0 F720
G01 X46.0642 Y118.0242 Z-0 F720
G00 X46.0642 Y118.0242 Z3    F500

;Begin Line: layer=0 line=31
G00 X47.5154 Y118.4888 Z3    F2100
G01 X47.5154 Y118.4888 Z-0 F210
G01 X47.5606 Y118.0380 Z-0 F720
G01 X47.7582 Y118.0111 Z-0 F720
G01 X47.5154 Y118.4888 Z-0 F720
G00 X47.5154 Y118.4888 Z3    F500

;Begin Line: layer=0 line=32
G00 X49.0536 Y117.8624 Z3    F2100
G01 X49.0536 Y117.8624 Z-0 F210
G01 X49.4913 Y116.7114 Z-0 F720
G00 X49.4913 Y116.7114 Z3    F500

;Begin Line: layer=0 line=33
G00 X50.6995 Y117.1472 Z3    F2100
G01 X50.6995 Y117.1472 Z-0 F210
G01 X51.9994 Y116.3686 Z-0 F720
G01 X53.9867 Y117.2991 Z-0 F720
G01 X54.3346 Y118.4780 Z-0 F720
G01 X52.9806 Y119.8298 Z-0 F720
G01 X52.4880 Y119.9511 Z-0 F720
G01 X51.9318 Y119.7900 Z-0 F720
G01 X49.7910 Y118.6789 Z-0 F720
G01 X50.0651 Y117.8624 Z-0 F720
G01 X50.6995 Y117.1472 Z-0 F720
G00 X50.6995 Y117.1472 Z3    F500

;Begin Line: layer=0 line=34
G00 X57.4313 Y118.6686 Z3    F2100
G01 X57.4313 Y118.6686 Z-0 F210
G01 X57.8369 Y118.1983 Z-0 F720
G00 X57.8369 Y118.1983 Z3    F500

;Begin Line: layer=0 line=35
G00 X59.2221 Y119.8974 Z3    F2100
G01 X59.2221 Y119.8974 Z-0 F210
G01 X58.2015 Y119.4596 Z-0 F720
G01 X59.1024 Y118.9460 Z-0 F720
G01 X59.8902 Y119.7753 Z-0 F720
G01 X59.2221 Y119.8974 Z-0 F720
G00 X59.2221 Y119.8974 Z3    F500

;Begin Line: layer=0 line=36
G00 X61.9551 Y118.2160 Z3    F2100
G01 X61.9551 Y118.2160 Z-0 F210
G01 X61.7729 Y117.9092 Z-0 F720
G01 X62.8384 Y118.0639 Z-0 F720
G01 X61.9551 Y118.2160 Z-0 F720
G00 X61.9551 Y118.2160 Z3    F500

;Begin Line: layer=0 line=37
G00 X64.1725 Y118.5425 Z3    F2100
G01 X64.1725 Y118.5425 Z-0 F210
G01 X63.7372 Y119.4921 Z-0 F720
G01 X63.3741 Y118.4556 Z-0 F720
G01 X63.8425 Y117.3130 Z-0 F720
G01 X64.1725 Y118.5425 Z-0 F720
G00 X64.1725 Y118.5425 Z3    F500

;Begin Line: layer=0 line=38
G00 X65.1824 Y119.0818 Z3    F2100
G01 X65.1824 Y119.0818 Z-0 F210
G01 X66.1589 Y118.1851 Z-0 F720
G01 X66.7166 Y119.9374 Z-0 F720
G01 X65.1824 Y119.0818 Z-0 F720
G00 X65.1824 Y119.0818 Z3    F500

;Begin Line: layer=0 line=39
G00 X63.3580 Y121.1617 Z3    F2100
G01 X63.3580 Y121.1617 Z-0 F210
G01 X61.8462 Y121.7104 Z-0 F720
G01 X61.6468 Y120.1943 Z-0 F720
G01 X61.8421 Y119.8385 Z-0 F720
G01 X62.9422 Y120.3950 Z-0 F720
G01 X63.3580 Y121.1617 Z-0 F720
G00 X63.3580 Y121.1617 Z3    F500

;Begin Line: layer=0 line=40
G00 X62.8905 Y123.4433 Z3    F2100
G01 X62.8905 Y123.4433 Z-0 F210
G01 X63.8339 Y124.8488 Z-0 F720
G01 X62.5826 Y124.5646 Z-0 F720
G01 X62.8905 Y123.4433 Z-0 F720
G00 X62.8905 Y123.4433 Z3    F500

;Begin Line: layer=0 line=41
G00 X65.9668 Y122.6995 Z3    F2100
G01 X65.9668 Y122.6995 Z-0 F210
G01 X66.3313 Y123.5241 Z-0 F720
G01 X64.9666 Y123.8792 Z-0 F720
G01 X65.2430 Y123.2949 Z-0 F720
G01 X65.9668 Y122.6995 Z-0 F720
G00 X65.9668 Y122.6995 Z3    F500

;Begin Line: layer=0 line=42
G00 X63.6652 Y127.4230 Z3    F2100
G01 X63.6652 Y127.4230 Z-0 F210
G01 X62.9391 Y125.9571 Z-0 F720
G01 X63.1807 Y126.2631 Z-0 F720
G01 X63.6652 Y127.4230 Z-0 F720
G00 X63.6652 Y127.4230 Z3    F500

;Begin Line: layer=0 line=43
G00 X61.0670 Y129.2649 Z3    F2100
G01 X61.0670 Y129.2649 Z-0 F210
G01 X71.5762 Y125.3361 Z-0 F720
G01 X73.4074 Y124.9239 Z-0 F720
G01 X76.4273 Y127.5360 Z-0 F720
G01 X77.7417 Y130.0749 Z-0 F720
G01 X78.0069 Y130.8918 Z-0 F720
G01 X76.3262 Y135.9180 Z-0 F720
G01 X75.2902 Y137.5581 Z-0 F720
G01 X74.1161 Y138.1338 Z-0 F720
G01 X64.7644 Y140.9212 Z-0 F720
G01 X61.9902 Y138.7596 Z-0 F720
G01 X61.0484 Y136.6343 Z-0 F720
G01 X59.1931 Y131.4160 Z-0 F720
G01 X59.5940 Y130.4995 Z-0 F720
G01 X61.0670 Y129.2649 Z-0 F720
G00 X61.0670 Y129.2649 Z3    F500

;Begin Line: layer=0 line=44
G00 X55.5137 Y122.5227 Z3    F2100
G01 X55.5137 Y122.5227 Z-0 F210
G01 X60.1338 Y135.4451 Z-0 F720
G01 X65.0750 Y150.1268 Z-0 F720
G01 X65.1756 Y150.7645 Z-0 F720
G01 X46.2698 Y161.9194 Z-0 F720
G01 X37.7029 Y166.7240 Z-0 F720
G01 X36.1073 Y163.6664 Z-0 F720
G01 X34.4188 Y159.0218 Z-0 F720
G01 X32.4095 Y152.9071 Z-0 F720
G01 X30.4294 Y145.3255 Z-0 F720
G01 X29.0386 Y136.7494 Z-0 F720
G01 X28.7859 Y134.7204 Z-0 F720
G01 X28.3394 Y124.8631 Z-0 F720
G01 X28.3786 Y122.8327 Z-0 F720
G01 X28.5620 Y119.2758 Z-0 F720
G01 X28.7437 Y117.9744 Z-0 F720
G01 X29.9648 Y116.8211 Z-0 F720
G01 X47.0692 Y119.3250 Z-0 F720
G01 X54.3069 Y120.8571 Z-0 F720
G01 X54.8450 Y121.4279 Z-0 F720
G01 X55.5137 Y122.5227 Z-0 F720
G00 X55.5137 Y122.5227 Z3    F500

;Begin Line: layer=0 line=45
G00 X62.3870 Y115.7489 Z3    F2100
G01 X62.3870 Y115.7489 Z-0 F210
G01 X62.1892 Y114.9987 Z-0 F720
G00 X62.1892 Y114.9987 Z3    F500

;Begin Line: layer=0 line=46
G00 X63.8899 Y114.9039 Z3    F2100
G01 X63.8899 Y114.9039 Z-0 F210
G01 X63.5048 Y113.3454 Z-0 F720
G01 X64.6140 Y113.2144 Z-0 F720
G01 X65.0944 Y113.5374 Z-0 F720
G01 X65.0040 Y113.9204 Z-0 F720
G01 X63.8899 Y114.9039 Z-0 F720
G00 X63.8899 Y114.9039 Z3    F500

;Begin Line: layer=0 line=47
G00 X64.7793 Y116.1845 Z3    F2100
G01 X64.7793 Y116.1845 Z-0 F210
G01 X65.1374 Y115.7518 Z-0 F720
G01 X65.5961 Y116.0206 Z-0 F720
G01 X65.1366 Y116.7671 Z-0 F720
G01 X64.7793 Y116.1845 Z-0 F720
G00 X64.7793 Y116.1845 Z3    F500

;Begin Line: layer=0 line=48
G00 X66.2029 Y112.2376 Z3    F2100
G01 X66.2029 Y112.2376 Z-0 F210
G01 X65.9297 Y113.1780 Z-0 F720
G01 X64.8188 Y112.2807 Z-0 F720
G01 X65.3469 Y112.1470 Z-0 F720
G01 X66.2029 Y112.2376 Z-0 F720
G00 X66.2029 Y112.2376 Z3    F500

;Begin Line: layer=0 line=49
G00 X77.2649 Y105.8468 Z3    F2100
G01 X77.2649 Y105.8468 Z-0 F210
G01 X81.4093 Y107.6624 Z-0 F720
G01 X85.6909 Y110.3291 Z-0 F720
G01 X85.9950 Y111.1915 Z-0 F720
G01 X84.2935 Y113.6931 Z-0 F720
G01 X77.0506 Y119.9732 Z-0 F720
G01 X75.0470 Y121.2337 Z-0 F720
G01 X73.6209 Y121.3059 Z-0 F720
G01 X72.4248 Y119.9023 Z-0 F720
G01 X69.0809 Y115.4165 Z-0 F720
G01 X68.2733 Y113.9567 Z-0 F720
G01 X66.9145 Y110.9319 Z-0 F720
G01 X67.1073 Y110.6335 Z-0 F720
G01 X74.3212 Y104.9324 Z-0 F720
G01 X75.1505 Y105.0801 Z-0 F720
G01 X77.2649 Y105.8468 Z-0 F720
G00 X77.2649 Y105.8468 Z3    F500

;Begin Line: layer=0 line=50
G00 X88.0566 Y108.8304 Z3    F2100
G01 X88.0566 Y108.8304 Z-0 F210
G01 X88.8405 Y108.7536 Z-0 F720
G00 X88.8405 Y108.7536 Z3    F500

;Begin Line: layer=0 line=51
G00 X90.4893 Y108.2351 Z3    F2100
G01 X90.4893 Y108.2351 Z-0 F210
G01 X90.6310 Y107.8175 Z-0 F720
G01 X91.7884 Y108.3893 Z-0 F720
G01 X90.8847 Y109.2126 Z-0 F720
G01 X90.4893 Y108.2351 Z-0 F720
G00 X90.4893 Y108.2351 Z3    F500

;Begin Line: layer=0 line=52
G00 X91.3724 Y110.5203 Z3    F2100
G01 X91.3724 Y110.5203 Z-0 F210
G01 X91.2416 Y110.7157 Z-0 F720
G00 X91.2416 Y110.7157 Z3    F500

;Begin Line: layer=0 line=53
G00 X89.6144 Y112.3559 Z3    F2100
G01 X89.6144 Y112.3559 Z-0 F210
G01 X89.6901 Y112.4309 Z-0 F720
G01 X89.6144 Y112.5059 Z-0 F720
G01 X89.5401 Y112.4322 Z-0 F720
