;Generated with vpypy gwrite.fabian
G90          ; set all axes to absolute positioning
G92 X0 Y0 Z0 ; set current pos to value specified
G00 X0 Y0 Z2 ; pick pen up 2mm

;Begin line layer=0 lines_idx=0
G00 X21.4796 Y17.1316 Z2 F2100 ; pen is up, move pen to start of line segment at 2100 mm/min
G01 X21.4796 Y17.1316 Z0 F210  ; lower pen slowly
G01 X21.2358 Y16.8269 Z0 F720  ; pen is down, draw line segment
G01 X20.9810 Y16.5645 Z0 F720  ; pen is down, draw line segment
G01 X20.7029 Y16.3269 Z0 F720  ; pen is down, draw line segment
G01 X20.3834 Y16.1030 Z0 F720  ; pen is down, draw line segment
G01 X20.0633 Y15.9239 Z0 F720  ; pen is down, draw line segment
G01 X19.7060 Y15.7636 Z0 F720  ; pen is down, draw line segment
G01 X19.3360 Y15.6354 Z0 F720  ; pen is down, draw line segment
G01 X18.9561 Y15.5402 Z0 F720  ; pen is down, draw line segment
G01 X18.5468 Y15.4749 Z0 F720  ; pen is down, draw line segment
G01 X18.1115 Y15.4338 Z0 F720  ; pen is down, draw line segment
G01 X17.6501 Y15.4188 Z0 F720  ; pen is down, draw line segment
G01 X17.2130 Y15.4314 Z0 F720  ; pen is down, draw line segment
G01 X16.1696 Y15.5285 Z0 F720  ; pen is down, draw line segment
G01 X14.3991 Y15.7940 Z0 F720  ; pen is down, draw line segment
G01 X13.6257 Y15.8914 Z0 F720  ; pen is down, draw line segment
G01 X12.9165 Y15.9340 Z0 F720  ; pen is down, draw line segment
G01 X12.2554 Y15.9206 Z0 F720  ; pen is down, draw line segment
G01 X11.9153 Y15.8784 Z0 F720  ; pen is down, draw line segment
G01 X11.5797 Y15.8083 Z0 F720  ; pen is down, draw line segment
G01 X11.2279 Y15.7028 Z0 F720  ; pen is down, draw line segment
G01 X10.9327 Y15.5842 Z0 F720  ; pen is down, draw line segment
G01 X10.6290 Y15.4258 Z0 F720  ; pen is down, draw line segment
G01 X10.3417 Y15.2406 Z0 F720  ; pen is down, draw line segment
G01 X10.0732 Y15.0327 Z0 F720  ; pen is down, draw line segment
G01 X9.7806 Y14.7701 Z0 F720  ; pen is down, draw line segment
G01 X9.9848 Y15.0755 Z0 F720  ; pen is down, draw line segment
G01 X10.2211 Y15.3567 Z0 F720  ; pen is down, draw line segment
G01 X10.4682 Y15.5944 Z0 F720  ; pen is down, draw line segment
G01 X10.7583 Y15.8197 Z0 F720  ; pen is down, draw line segment
G01 X11.0502 Y15.9969 Z0 F720  ; pen is down, draw line segment
G01 X11.4021 Y16.1626 Z0 F720  ; pen is down, draw line segment
G01 X11.7453 Y16.2857 Z0 F720  ; pen is down, draw line segment
G01 X12.1222 Y16.3817 Z0 F720  ; pen is down, draw line segment
G01 X12.4583 Y16.4349 Z0 F720  ; pen is down, draw line segment
G01 X12.9174 Y16.4742 Z0 F720  ; pen is down, draw line segment
G01 X13.3538 Y16.4855 Z0 F720  ; pen is down, draw line segment
G01 X13.7659 Y16.4731 Z0 F720  ; pen is down, draw line segment
G01 X14.8729 Y16.3607 Z0 F720  ; pen is down, draw line segment
G01 X16.5445 Y16.1166 Z0 F720  ; pen is down, draw line segment
G01 X17.3553 Y16.0229 Z0 F720  ; pen is down, draw line segment
G01 X18.0633 Y15.9863 Z0 F720  ; pen is down, draw line segment
G01 X18.7714 Y16.0086 Z0 F720  ; pen is down, draw line segment
G01 X19.1327 Y16.0514 Z0 F720  ; pen is down, draw line segment
G01 X19.4899 Y16.1215 Z0 F720  ; pen is down, draw line segment
G01 X19.8638 Y16.2257 Z0 F720  ; pen is down, draw line segment
G01 X20.2062 Y16.3512 Z0 F720  ; pen is down, draw line segment
G01 X20.5640 Y16.5186 Z0 F720  ; pen is down, draw line segment
G01 X20.9260 Y16.7265 Z0 F720  ; pen is down, draw line segment
G01 X21.4796 Y17.1316 Z0 F720  ; pen is down, draw line segment
G00 X21.4796 Y17.1316 Z2 F500 ; lift up pen

;Begin line layer=0 lines_idx=1
G00 X10.4178 Y15.4132 Z2 F2100 ; pen is up, move pen to start of line segment at 2100 mm/min
G01 X10.4178 Y15.4132 Z0 F210  ; lower pen slowly
G01 X10.6660 Y15.5615 Z0 F720  ; pen is down, draw line segment
G01 X10.9138 Y15.6856 Z0 F720  ; pen is down, draw line segment
G01 X11.4097 Y15.8658 Z0 F720  ; pen is down, draw line segment
G01 X11.9729 Y15.9887 Z0 F720  ; pen is down, draw line segment
G01 X12.5470 Y16.0346 Z0 F720  ; pen is down, draw line segment
G01 X13.1415 Y16.0265 Z0 F720  ; pen is down, draw line segment
G01 X13.7342 Y15.9806 Z0 F720  ; pen is down, draw line segment
G01 X14.4374 Y15.8895 Z0 F720  ; pen is down, draw line segment
G01 X16.0601 Y15.6438 Z0 F720  ; pen is down, draw line segment
G01 X16.9051 Y15.5524 Z0 F720  ; pen is down, draw line segment
G01 X17.6740 Y15.5189 Z0 F720  ; pen is down, draw line segment
G01 X18.4154 Y15.5603 Z0 F720  ; pen is down, draw line segment
G01 X18.7714 Y15.6078 Z0 F720  ; pen is down, draw line segment
G01 X19.0762 Y15.6692 Z0 F720  ; pen is down, draw line segment
G01 X19.3989 Y15.7596 Z0 F720  ; pen is down, draw line segment
G01 X19.7135 Y15.8745 Z0 F720  ; pen is down, draw line segment
G01 X19.9970 Y16.0026 Z0 F720  ; pen is down, draw line segment
G01 X20.2694 Y16.1502 Z0 F720  ; pen is down, draw line segment
G01 X20.5466 Y16.3344 Z0 F720  ; pen is down, draw line segment
G01 X20.7955 Y16.5321 Z0 F720  ; pen is down, draw line segment
G01 X20.5200 Y16.3841 Z0 F720  ; pen is down, draw line segment
G01 X20.2217 Y16.2494 Z0 F720  ; pen is down, draw line segment
G01 X19.6332 Y16.0542 Z0 F720  ; pen is down, draw line segment
G01 X19.0254 Y15.9349 Z0 F720  ; pen is down, draw line segment
G01 X18.3590 Y15.8883 Z0 F720  ; pen is down, draw line segment
G01 X17.7901 Y15.8934 Z0 F720  ; pen is down, draw line segment
G01 X17.2231 Y15.9357 Z0 F720  ; pen is down, draw line segment
G01 X16.5059 Y16.0209 Z0 F720  ; pen is down, draw line segment
G01 X14.8596 Y16.2615 Z0 F720  ; pen is down, draw line segment
G01 X13.9034 Y16.3636 Z0 F720  ; pen is down, draw line segment
G01 X13.2099 Y16.3846 Z0 F720  ; pen is down, draw line segment
G01 X12.5174 Y16.3410 Z0 F720  ; pen is down, draw line segment
G01 X12.2119 Y16.2972 Z0 F720  ; pen is down, draw line segment
G01 X11.9343 Y16.2355 Z0 F720  ; pen is down, draw line segment
G01 X11.6396 Y16.1458 Z0 F720  ; pen is down, draw line segment
G01 X11.3530 Y16.0329 Z0 F720  ; pen is down, draw line segment
G01 X11.0972 Y15.9087 Z0 F720  ; pen is down, draw line segment
G01 X10.8743 Y15.7775 Z0 F720  ; pen is down, draw line segment
G01 X10.6435 Y15.6101 Z0 F720  ; pen is down, draw line segment
G01 X10.4178 Y15.4132 Z0 F720  ; pen is down, draw line segment
G00 X10.4178 Y15.4132 Z2 F500 ; lift up pen

;Begin line layer=0 lines_idx=2
G00 X11.5552 Y16.0083 Z2 F2100 ; pen is up, move pen to start of line segment at 2100 mm/min
G01 X11.5552 Y16.0083 Z0 F210  ; lower pen slowly
G01 X11.9338 Y16.0839 Z0 F720  ; pen is down, draw line segment
G01 X12.3408 Y16.1272 Z0 F720  ; pen is down, draw line segment
G01 X12.8205 Y16.1356 Z0 F720  ; pen is down, draw line segment
G01 X13.3212 Y16.1168 Z0 F720  ; pen is down, draw line segment
G01 X14.2819 Y16.0122 Z0 F720  ; pen is down, draw line segment
G01 X16.3162 Y15.7121 Z0 F720  ; pen is down, draw line segment
G01 X16.9845 Y15.6465 Z0 F720  ; pen is down, draw line segment
G01 X17.5789 Y15.6191 Z0 F720  ; pen is down, draw line segment
G01 X18.1694 Y15.6383 Z0 F720  ; pen is down, draw line segment
G01 X18.7551 Y15.7065 Z0 F720  ; pen is down, draw line segment
G01 X19.2114 Y15.8076 Z0 F720  ; pen is down, draw line segment
G01 X19.6395 Y15.9524 Z0 F720  ; pen is down, draw line segment
G01 X19.2138 Y15.8620 Z0 F720  ; pen is down, draw line segment
G01 X18.7870 Y15.8093 Z0 F720  ; pen is down, draw line segment
G01 X18.2366 Y15.7863 Z0 F720  ; pen is down, draw line segment
G01 X17.6860 Y15.7982 Z0 F720  ; pen is down, draw line segment
G01 X16.6676 Y15.8986 Z0 F720  ; pen is down, draw line segment
G01 X14.4310 Y16.2127 Z0 F720  ; pen is down, draw line segment
G01 X13.8486 Y16.2674 Z0 F720  ; pen is down, draw line segment
G01 X13.3769 Y16.2854 Z0 F720  ; pen is down, draw line segment
G01 X12.8577 Y16.2703 Z0 F720  ; pen is down, draw line segment
G01 X12.3439 Y16.2179 Z0 F720  ; pen is down, draw line segment
G01 X11.9373 Y16.1329 Z0 F720  ; pen is down, draw line segment
G01 X11.5552 Y16.0083 Z0 F720  ; pen is down, draw line segment
G00 X11.5552 Y16.0083 Z2 F500 ; lift up pen

;Begin line layer=0 lines_idx=3
G00 X13.8848 Y16.1644 Z2 F2100 ; pen is up, move pen to start of line segment at 2100 mm/min
G01 X13.8848 Y16.1644 Z0 F210  ; lower pen slowly
G01 X16.2077 Y15.8261 Z0 F720  ; pen is down, draw line segment
G01 X16.8030 Y15.7618 Z0 F720  ; pen is down, draw line segment
G01 X17.2926 Y15.7275 Z0 F720  ; pen is down, draw line segment
G01 X16.5040 Y15.8193 Z0 F720  ; pen is down, draw line segment
G01 X14.8329 Y16.0633 Z0 F720  ; pen is down, draw line segment
G01 X13.8848 Y16.1644 Z0 F720  ; pen is down, draw line segment
G00 X13.8848 Y16.1644 Z2 F500 ; lift up pen

;Begin line layer=0 lines_idx=4
G00 X24.8341 Y25.0682 Z2 F2100 ; pen is up, move pen to start of line segment at 2100 mm/min
G01 X24.8341 Y25.0682 Z0 F210  ; lower pen slowly
G01 X24.4732 Y24.7138 Z0 F720  ; pen is down, draw line segment
G01 X24.0555 Y24.3835 Z0 F720  ; pen is down, draw line segment
G01 X23.5836 Y24.0820 Z0 F720  ; pen is down, draw line segment
G01 X23.0624 Y23.8138 Z0 F720  ; pen is down, draw line segment
G01 X22.4716 Y23.5793 Z0 F720  ; pen is down, draw line segment
G01 X21.8648 Y23.3896 Z0 F720  ; pen is down, draw line segment
G01 X21.2455 Y23.2459 Z0 F720  ; pen is down, draw line segment
G01 X20.5718 Y23.1389 Z0 F720  ; pen is down, draw line segment
G01 X19.8956 Y23.0656 Z0 F720  ; pen is down, draw line segment
G01 X19.2166 Y23.0246 Z0 F720  ; pen is down, draw line segment
G01 X18.4081 Y23.0136 Z0 F720  ; pen is down, draw line segment
G01 X17.6168 Y23.0324 Z0 F720  ; pen is down, draw line segment
G01 X15.9516 Y23.1405 Z0 F720  ; pen is down, draw line segment
G01 X12.1160 Y23.5092 Z0 F720  ; pen is down, draw line segment
G01 X11.4362 Y23.5439 Z0 F720  ; pen is down, draw line segment
G01 X10.7555 Y23.5458 Z0 F720  ; pen is down, draw line segment
G01 X9.9536 Y23.4994 Z0 F720  ; pen is down, draw line segment
G01 X9.5917 Y23.4427 Z0 F720  ; pen is down, draw line segment
G01 X9.2348 Y23.3600 Z0 F720  ; pen is down, draw line segment
G01 X8.9731 Y23.2745 Z0 F720  ; pen is down, draw line segment
G01 X8.6959 Y23.1549 Z0 F720  ; pen is down, draw line segment
G01 X8.4542 Y23.0176 Z0 F720  ; pen is down, draw line segment
G01 X8.2477 Y22.8719 Z0 F720  ; pen is down, draw line segment
G01 X8.4756 Y23.0992 Z0 F720  ; pen is down, draw line segment
G01 X8.7123 Y23.2799 Z0 F720  ; pen is down, draw line segment
G01 X9.0603 Y23.4779 Z0 F720  ; pen is down, draw line segment
G01 X9.4072 Y23.6246 Z0 F720  ; pen is down, draw line segment
G01 X9.7908 Y23.7438 Z0 F720  ; pen is down, draw line segment
G01 X10.2055 Y23.8388 Z0 F720  ; pen is down, draw line segment
G01 X10.7126 Y23.9161 Z0 F720  ; pen is down, draw line segment
G01 X11.2457 Y23.9651 Z0 F720  ; pen is down, draw line segment
G01 X12.1656 Y23.9930 Z0 F720  ; pen is down, draw line segment
G01 X13.2602 Y23.9660 Z0 F720  ; pen is down, draw line segment
G01 X14.3992 Y23.8987 Z0 F720  ; pen is down, draw line segment
G01 X17.2385 Y23.6858 Z0 F720  ; pen is down, draw line segment
G01 X18.8325 Y23.6186 Z0 F720  ; pen is down, draw line segment
G01 X19.4647 Y23.6155 Z0 F720  ; pen is down, draw line segment
G01 X20.0966 Y23.6348 Z0 F720  ; pen is down, draw line segment
G01 X20.7274 Y23.6765 Z0 F720  ; pen is down, draw line segment
G01 X21.3101 Y23.7375 Z0 F720  ; pen is down, draw line segment
G01 X21.8173 Y23.8187 Z0 F720  ; pen is down, draw line segment
G01 X22.3194 Y23.9265 Z0 F720  ; pen is down, draw line segment
G01 X22.8386 Y24.0678 Z0 F720  ; pen is down, draw line segment
G01 X23.2547 Y24.2083 Z0 F720  ; pen is down, draw line segment
G01 X23.6599 Y24.3766 Z0 F720  ; pen is down, draw line segment
G01 X24.0742 Y24.5835 Z0 F720  ; pen is down, draw line segment
G01 X24.4523 Y24.8061 Z0 F720  ; pen is down, draw line segment
G01 X24.8341 Y25.0682 Z0 F720  ; pen is down, draw line segment
G00 X24.8341 Y25.0682 Z2 F500 ; lift up pen

;Begin line layer=0 lines_idx=5
G00 X9.3276 Y23.4872 Z2 F2100 ; pen is up, move pen to start of line segment at 2100 mm/min
G01 X9.3276 Y23.4872 Z0 F210  ; lower pen slowly
G01 X9.7445 Y23.5712 Z0 F720  ; pen is down, draw line segment
G01 X10.1898 Y23.6225 Z0 F720  ; pen is down, draw line segment
G01 X10.8757 Y23.6479 Z0 F720  ; pen is down, draw line segment
G01 X11.5369 Y23.6409 Z0 F720  ; pen is down, draw line segment
G01 X12.7268 Y23.5588 Z0 F720  ; pen is down, draw line segment
G01 X15.5967 Y23.2728 Z0 F720  ; pen is down, draw line segment
G01 X16.8849 Y23.1712 Z0 F720  ; pen is down, draw line segment
G01 X18.2608 Y23.1149 Z0 F720  ; pen is down, draw line segment
G01 X18.9718 Y23.1178 Z0 F720  ; pen is down, draw line segment
G01 X19.5262 Y23.1394 Z0 F720  ; pen is down, draw line segment
G01 X20.1754 Y23.1925 Z0 F720  ; pen is down, draw line segment
G01 X20.8214 Y23.2754 Z0 F720  ; pen is down, draw line segment
G01 X21.3687 Y23.3728 Z0 F720  ; pen is down, draw line segment
G01 X21.8852 Y23.4989 Z0 F720  ; pen is down, draw line segment
G01 X22.4381 Y23.6735 Z0 F720  ; pen is down, draw line segment
G01 X22.9778 Y23.8859 Z0 F720  ; pen is down, draw line segment
G01 X23.4080 Y24.0984 Z0 F720  ; pen is down, draw line segment
G01 X23.8033 Y24.3331 Z0 F720  ; pen is down, draw line segment
G01 X23.4286 Y24.1687 Z0 F720  ; pen is down, draw line segment
G01 X23.0566 Y24.0318 Z0 F720  ; pen is down, draw line segment
G01 X22.6300 Y23.9036 Z0 F720  ; pen is down, draw line segment
G01 X22.1745 Y23.7900 Z0 F720  ; pen is down, draw line segment
G01 X21.7387 Y23.7027 Z0 F720  ; pen is down, draw line segment
G01 X21.2987 Y23.6351 Z0 F720  ; pen is down, draw line segment
G01 X20.2724 Y23.5440 Z0 F720  ; pen is down, draw line segment
G01 X19.2459 Y23.5140 Z0 F720  ; pen is down, draw line segment
G01 X18.0641 Y23.5432 Z0 F720  ; pen is down, draw line segment
G01 X16.9414 Y23.6052 Z0 F720  ; pen is down, draw line segment
G01 X13.7641 Y23.8397 Z0 F720  ; pen is down, draw line segment
G01 X12.8676 Y23.8810 Z0 F720  ; pen is down, draw line segment
G01 X12.0937 Y23.8928 Z0 F720  ; pen is down, draw line segment
G01 X11.2522 Y23.8653 Z0 F720  ; pen is down, draw line segment
G01 X10.5095 Y23.7881 Z0 F720  ; pen is down, draw line segment
G01 X9.8881 Y23.6658 Z0 F720  ; pen is down, draw line segment
G01 X9.3276 Y23.4872 Z0 F720  ; pen is down, draw line segment
G00 X9.3276 Y23.4872 Z2 F500 ; lift up pen

;Begin line layer=0 lines_idx=6
G00 X11.0411 Y23.7490 Z2 F2100 ; pen is up, move pen to start of line segment at 2100 mm/min
G01 X11.0411 Y23.7490 Z0 F210  ; lower pen slowly
G01 X11.6387 Y23.7372 Z0 F720  ; pen is down, draw line segment
G01 X12.2295 Y23.7009 Z0 F720  ; pen is down, draw line segment
G01 X16.5015 Y23.2971 Z0 F720  ; pen is down, draw line segment
G01 X17.5271 Y23.2365 Z0 F720  ; pen is down, draw line segment
G01 X18.3846 Y23.2138 Z0 F720  ; pen is down, draw line segment
G01 X19.4486 Y23.2352 Z0 F720  ; pen is down, draw line segment
G01 X20.4267 Y23.3219 Z0 F720  ; pen is down, draw line segment
G01 X21.3481 Y23.4706 Z0 F720  ; pen is down, draw line segment
G01 X21.7432 Y23.5641 Z0 F720  ; pen is down, draw line segment
G01 X22.1505 Y23.6823 Z0 F720  ; pen is down, draw line segment
G01 X21.4851 Y23.5602 Z0 F720  ; pen is down, draw line segment
G01 X20.8177 Y23.4835 Z0 F720  ; pen is down, draw line segment
G01 X19.9832 Y23.4295 Z0 F720  ; pen is down, draw line segment
G01 X19.1231 Y23.4144 Z0 F720  ; pen is down, draw line segment
G01 X18.2586 Y23.4354 Z0 F720  ; pen is down, draw line segment
G01 X17.3233 Y23.4803 Z0 F720  ; pen is down, draw line segment
G01 X14.3129 Y23.7042 Z0 F720  ; pen is down, draw line segment
G01 X13.1787 Y23.7693 Z0 F720  ; pen is down, draw line segment
G01 X12.0226 Y23.7923 Z0 F720  ; pen is down, draw line segment
G01 X11.0411 Y23.7490 Z0 F720  ; pen is down, draw line segment
G00 X11.0411 Y23.7490 Z2 F500 ; lift up pen

;Begin line layer=0 lines_idx=7
