;Generated with vpype gwrite fabian
;signature/fabian_signature_small_0_5x0_5.svg.gcode
G90
G92 X0 Y0 Z0
G00 X0 Y0 Z0 F2100
G00 X0 Y0 Z5 F500

;Begin Line: layer=0 line=0
G00 X10.7398 Y8.5630 Z3    F2100
G01 X10.7398 Y8.5630 Z-0 F210
G01 X10.4905 Y8.2795 Z-0 F720
G01 X10.1917 Y8.0487 Z-0 F720
G01 X9.8530 Y7.8790 Z-0 F720
G01 X9.4781 Y7.7673 Z-0 F720
G01 X9.0557 Y7.7141 Z-0 F720
G01 X8.6186 Y7.7122 Z-0 F720
G01 X8.0848 Y7.7615 Z-0 F720
G01 X6.8128 Y7.9429 Z-0 F720
G01 X6.4582 Y7.9642 Z-0 F720
G01 X6.1277 Y7.9575 Z-0 F720
G01 X5.7899 Y7.9014 Z-0 F720
G01 X5.4664 Y7.7893 Z-0 F720
G01 X5.1708 Y7.6175 Z-0 F720
G01 X4.8903 Y7.3823 Z-0 F720
G01 X5.1022 Y7.6666 Z-0 F720
G01 X5.2341 Y7.7944 Z-0 F720
G01 X5.3791 Y7.9071 Z-0 F720
G01 X5.7011 Y8.0785 Z-0 F720
G01 X6.0611 Y8.1881 Z-0 F720
G01 X6.4587 Y8.2343 Z-0 F720
G01 X6.8829 Y8.2338 Z-0 F720
G01 X7.4365 Y8.1775 Z-0 F720
G01 X8.6777 Y8.0087 Z-0 F720
G01 X9.0317 Y7.9904 Z-0 F720
G01 X9.3857 Y8.0015 Z-0 F720
G01 X9.7567 Y8.0608 Z-0 F720
G01 X10.1031 Y8.1728 Z-0 F720
G01 X10.4630 Y8.3605 Z-0 F720
G01 X10.7398 Y8.5630 Z-0 F720
G00 X10.7398 Y8.5630 Z3    F500

;Begin Line: layer=0 line=1
G00 X12.4171 Y12.5313 Z3    F2100
G01 X12.4171 Y12.5313 Z-0 F210
G01 X12.2366 Y12.3541 Z-0 F720
G01 X12.0277 Y12.1890 Z-0 F720
G01 X11.7918 Y12.0382 Z-0 F720
G01 X11.5312 Y11.9041 Z-0 F720
G01 X11.2358 Y11.7868 Z-0 F720
G01 X10.9324 Y11.6920 Z-0 F720
G01 X10.6228 Y11.6202 Z-0 F720
G01 X10.2859 Y11.5667 Z-0 F720
G01 X9.6083 Y11.5095 Z-0 F720
G01 X8.8084 Y11.5134 Z-0 F720
G01 X7.9636 Y11.5685 Z-0 F720
G01 X6.0580 Y11.7518 Z-0 F720
G01 X5.3778 Y11.7701 Z-0 F720
G01 X4.9768 Y11.7469 Z-0 F720
G01 X4.6174 Y11.6772 Z-0 F720
G01 X4.3479 Y11.5747 Z-0 F720
G01 X4.1238 Y11.4332 Z-0 F720
G01 X4.2378 Y11.5468 Z-0 F720
G01 X4.3561 Y11.6372 Z-0 F720
G01 X4.5302 Y11.7362 Z-0 F720
G01 X4.7036 Y11.8095 Z-0 F720
G01 X5.1027 Y11.9166 Z-0 F720
G01 X5.6228 Y11.9798 Z-0 F720
G01 X6.0949 Y11.9937 Z-0 F720
G01 X6.6422 Y11.9796 Z-0 F720
G01 X8.6193 Y11.8401 Z-0 F720
G01 X9.4163 Y11.8065 Z-0 F720
G01 X10.0483 Y11.8146 Z-0 F720
G01 X10.6551 Y11.8660 Z-0 F720
G01 X11.1597 Y11.9605 Z-0 F720
G01 X11.6273 Y12.1014 Z-0 F720
G01 X12.0371 Y12.2889 Z-0 F720
G01 X12.4171 Y12.5313 Z-0 F720
G00 X12.4171 Y12.5313 Z3    F500

;Begin Line: layer=0 line=2
G00 X7.7793 Y10.9917 Z3    F2100
G01 X7.7793 Y10.9917 Z-0 F210
G01 X7.7287 Y10.5917 Z-0 F720
G01 X7.7142 Y10.1527 Z-0 F720
G01 X7.7363 Y9.6652 Z-0 F720
G01 X7.7944 Y9.0823 Z-0 F720
G01 X7.9682 Y7.9975 Z-0 F720
G01 X8.3438 Y6.0778 Z-0 F720
G01 X8.5198 Y5.0988 Z-0 F720
G01 X8.6351 Y4.2814 Z-0 F720
G01 X8.6984 Y3.5426 Z-0 F720
G01 X8.7012 Y2.8616 Z-0 F720
G01 X8.6389 Y2.2322 Z-0 F720
G01 X8.5811 Y1.9580 Z-0 F720
G01 X8.5066 Y1.7010 Z-0 F720
G01 X8.4172 Y1.4752 Z-0 F720
G01 X8.3012 Y1.2482 Z-0 F720
G01 X8.4790 Y1.6848 Z-0 F720
G01 X8.5894 Y2.1739 Z-0 F720
G01 X8.6413 Y2.7584 Z-0 F720
G01 X8.6367 Y3.3916 Z-0 F720
G01 X8.5758 Y4.0713 Z-0 F720
G01 X8.4739 Y4.8086 Z-0 F720
G01 X7.9203 Y7.7855 Z-0 F720
G01 X7.7462 Y8.9498 Z-0 F720
G01 X7.6905 Y9.6031 Z-0 F720
G01 X7.6795 Y10.0888 Z-0 F720
G01 X7.7071 Y10.5614 Z-0 F720
G01 X7.7793 Y10.9917 Z-0 F720
G00 X7.7793 Y10.9917 Z3    F500

;Begin Line: layer=0 line=3
G00 X6.6332 Y11.1486 Z3    F2100
G01 X6.6332 Y11.1486 Z-0 F210
G01 X6.5017 Y10.7040 Z-0 F720
G01 X6.4225 Y10.2595 Z-0 F720
G01 X6.3836 Y9.7125 Z-0 F720
G01 X6.3902 Y9.1522 Z-0 F720
G01 X6.4448 Y8.5231 Z-0 F720
G01 X6.5417 Y7.8262 Z-0 F720
G01 X7.0292 Y5.2650 Z-0 F720
G01 X7.1860 Y4.2089 Z-0 F720
G01 X7.2265 Y3.6760 Z-0 F720
G01 X7.2320 Y3.2267 Z-0 F720
G01 X7.1969 Y2.7886 Z-0 F720
G01 X7.1061 Y2.3517 Z-0 F720
G01 X7.1679 Y2.7373 Z-0 F720
G01 X7.1938 Y3.1391 Z-0 F720
G01 X7.1797 Y3.5903 Z-0 F720
G01 X7.1351 Y4.0885 Z-0 F720
G01 X6.9769 Y5.0767 Z-0 F720
G01 X6.4875 Y7.5906 Z-0 F720
G01 X6.3856 Y8.2996 Z-0 F720
G01 X6.3319 Y8.9165 Z-0 F720
G01 X6.3212 Y9.5485 Z-0 F720
G01 X6.3683 Y10.1664 Z-0 F720
G01 X6.4689 Y10.6661 Z-0 F720
G01 X6.6332 Y11.1486 Z-0 F720
G00 X6.6332 Y11.1486 Z3    F500

;Begin Line: layer=0 line=4
G00 X7.4794 Y0.9501 Z3    F2100
G01 X7.4794 Y0.9501 Z-0 F210
G01 X7.5811 Y1.1357 Z-0 F720
G01 X7.6679 Y1.3417 Z-0 F720
G01 X7.7378 Y1.5654 Z-0 F720
G01 X7.7929 Y1.8304 Z-0 F720
G01 X7.8279 Y2.0986 Z-0 F720
G01 X7.8445 Y2.3935 Z-0 F720
G01 X7.8299 Y3.0323 Z-0 F720
G01 X7.7737 Y3.6245 Z-0 F720
G01 X7.6597 Y4.3959 Z-0 F720
G01 X7.1554 Y7.0826 Z-0 F720
G01 X7.0142 Y7.9569 Z-0 F720
G01 X6.9109 Y8.8529 Z-0 F720
G01 X6.8765 Y9.6577 Z-0 F720
G01 X6.9150 Y10.3553 Z-0 F720
G01 X6.9603 Y10.6712 Z-0 F720
G01 X7.0247 Y10.9589 Z-0 F720
G01 X7.1164 Y11.2519 Z-0 F720
G01 X7.2064 Y11.4656 Z-0 F720
G01 X7.3275 Y11.6908 Z-0 F720
G01 X7.4730 Y11.9006 Z-0 F720
G01 X7.3608 Y11.6779 Z-0 F720
G01 X7.2664 Y11.4352 Z-0 F720
G01 X7.1960 Y11.1857 Z-0 F720
G01 X7.1413 Y10.9079 Z-0 F720
G01 X7.0882 Y10.2877 Z-0 F720
G01 X7.1051 Y9.5978 Z-0 F720
G01 X7.1653 Y8.9713 Z-0 F720
G01 X7.2754 Y8.2064 Z-0 F720
G01 X7.7582 Y5.5846 Z-0 F720
G01 X7.9119 Y4.6392 Z-0 F720
G01 X8.0090 Y3.7927 Z-0 F720
G01 X8.0427 Y3.0284 Z-0 F720
G01 X8.0084 Y2.3617 Z-0 F720
G01 X7.9677 Y2.0828 Z-0 F720
G01 X7.9075 Y1.8191 Z-0 F720
G01 X7.8226 Y1.5495 Z-0 F720
G01 X7.7367 Y1.3479 Z-0 F720
G01 X7.6230 Y1.1466 Z-0 F720
G01 X7.4794 Y0.9501 Z-0 F720
G00 X7.4794 Y0.9501 Z3    F500

;Begin Line: layer=0 line=5
G00 X5.5185 Y11.8664 Z3    F2100
G01 X5.5185 Y11.8664 Z-0 F210
G01 X6.0607 Y11.8518 Z-0 F720
G01 X6.0676 Y11.8514 Z-0 F720
G01 X7.3058 Y11.7323 Z-0 F720
G01 X7.3155 Y11.7308 Z-0 F720
G01 X7.3251 Y11.7285 Z-0 F720
G01 X7.3282 Y11.7273 Z-0 F720
G01 X7.3312 Y11.7278 Z-0 F720
G01 X7.3411 Y11.7283 Z-0 F720
G01 X7.3511 Y11.7279 Z-0 F720
G01 X7.9717 Y11.6682 Z-0 F720
G01 X8.8119 Y11.6134 Z-0 F720
G01 X9.6043 Y11.6095 Z-0 F720
G01 X10.2739 Y11.6660 Z-0 F720
G01 X10.6036 Y11.7184 Z-0 F720
G01 X10.9061 Y11.7886 Z-0 F720
G01 X11.0872 Y11.8452 Z-0 F720
G01 X10.6735 Y11.7677 Z-0 F720
G01 X10.6635 Y11.7663 Z-0 F720
G01 X10.0567 Y11.7150 Z-0 F720
G01 X10.0496 Y11.7146 Z-0 F720
G01 X9.4175 Y11.7065 Z-0 F720
G01 X9.4120 Y11.7066 Z-0 F720
G01 X8.6151 Y11.7402 Z-0 F720
G01 X8.6122 Y11.7404 Z-0 F720
G01 X6.6374 Y11.8797 Z-0 F720
G01 X6.0951 Y11.8937 Z-0 F720
G01 X5.6304 Y11.8800 Z-0 F720
G01 X5.5185 Y11.8664 Z-0 F720
G00 X5.5185 Y11.8664 Z3    F500

;Begin Line: layer=0 line=6
G00 X6.9953 Y9.9961 Z3    F2100
G01 X6.9953 Y9.9961 Z-0 F210
G01 X6.9766 Y9.6570 Z-0 F720
G01 X7.0106 Y8.8608 Z-0 F720
G01 X7.0828 Y8.2350 Z-0 F720
G01 X7.0834 Y8.2251 Z-0 F720
G01 X7.0831 Y8.2152 Z-0 F720
G01 X7.0818 Y8.2053 Z-0 F720
G01 X7.0795 Y8.1957 Z-0 F720
G01 X7.0762 Y8.1863 Z-0 F720
G01 X7.0721 Y8.1773 Z-0 F720
G01 X7.0671 Y8.1687 Z-0 F720
G01 X7.0612 Y8.1607 Z-0 F720
G01 X7.0546 Y8.1533 Z-0 F720
G01 X7.0473 Y8.1466 Z-0 F720
G01 X7.0394 Y8.1407 Z-0 F720
G01 X7.0309 Y8.1355 Z-0 F720
G01 X7.0219 Y8.1313 Z-0 F720
G01 X7.0126 Y8.1279 Z-0 F720
G01 X7.0030 Y8.1255 Z-0 F720
G01 X6.9931 Y8.1240 Z-0 F720
G01 X6.9832 Y8.1236 Z-0 F720
G01 X6.9733 Y8.1241 Z-0 F720
G01 X6.8778 Y8.1338 Z-0 F720
G01 X6.4849 Y8.1343 Z-0 F720
G01 X6.4753 Y8.1348 Z-0 F720
G01 X6.4659 Y8.1361 Z-0 F720
G01 X6.4566 Y8.1384 Z-0 F720
G01 X6.4477 Y8.1415 Z-0 F720
G01 X6.4453 Y8.1400 Z-0 F720
G01 X6.4364 Y8.1355 Z-0 F720
G01 X6.4271 Y8.1320 Z-0 F720
G01 X6.4175 Y8.1294 Z-0 F720
G01 X6.4076 Y8.1277 Z-0 F720
G01 X6.0816 Y8.0898 Z-0 F720
G01 X5.8025 Y8.0048 Z-0 F720
G01 X6.1113 Y8.0562 Z-0 F720
G01 X6.1257 Y8.0575 Z-0 F720
G01 X6.4319 Y8.0637 Z-0 F720
G01 X6.4415 Y8.0634 Z-0 F720
G01 X6.4511 Y8.0622 Z-0 F720
G01 X6.4605 Y8.0601 Z-0 F720
G01 X6.4697 Y8.0571 Z-0 F720
G01 X6.4785 Y8.0532 Z-0 F720
G01 X6.4818 Y8.0514 Z-0 F720
G01 X6.4904 Y8.0548 Z-0 F720
G01 X6.4998 Y8.0576 Z-0 F720
G01 X6.5095 Y8.0594 Z-0 F720
G01 X6.5193 Y8.0602 Z-0 F720
G01 X6.5291 Y8.0601 Z-0 F720
G01 X6.8188 Y8.0427 Z-0 F720
G01 X6.8269 Y8.0419 Z-0 F720
G01 X7.0353 Y8.0122 Z-0 F720
G01 X7.0449 Y8.0103 Z-0 F720
G01 X7.0543 Y8.0076 Z-0 F720
G01 X7.0633 Y8.0039 Z-0 F720
G01 X7.0720 Y7.9994 Z-0 F720
G01 X7.0801 Y7.9940 Z-0 F720
G01 X7.0877 Y7.9879 Z-0 F720
G01 X7.0947 Y7.9810 Z-0 F720
G01 X7.1009 Y7.9736 Z-0 F720
G01 X7.1065 Y7.9655 Z-0 F720
G01 X7.1111 Y7.9569 Z-0 F720
G01 X7.1150 Y7.9480 Z-0 F720
G01 X7.1179 Y7.9387 Z-0 F720
G01 X7.1199 Y7.9291 Z-0 F720
G01 X7.2539 Y7.0998 Z-0 F720
G01 X7.7579 Y4.4144 Z-0 F720
G01 X7.7586 Y4.4106 Z-0 F720
G01 X7.8727 Y3.6392 Z-0 F720
G01 X7.8733 Y3.6340 Z-0 F720
G01 X7.9294 Y3.0417 Z-0 F720
G01 X7.9299 Y3.0346 Z-0 F720
G01 X7.9339 Y2.8597 Z-0 F720
G01 X7.9426 Y3.0288 Z-0 F720
G01 X7.9093 Y3.7848 Z-0 F720
G01 X7.8128 Y4.6255 Z-0 F720
G01 X7.6597 Y5.5675 Z-0 F720
G01 X7.2394 Y7.8499 Z-0 F720
G01 X7.2381 Y7.8598 Z-0 F720
G01 X7.2377 Y7.8698 Z-0 F720
G01 X7.2384 Y7.8797 Z-0 F720
G01 X7.2401 Y7.8895 Z-0 F720
G01 X7.2427 Y7.8992 Z-0 F720
G01 X7.2463 Y7.9085 Z-0 F720
G01 X7.2507 Y7.9174 Z-0 F720
G01 X7.2561 Y7.9258 Z-0 F720
G01 X7.2622 Y7.9336 Z-0 F720
G01 X7.2691 Y7.9408 Z-0 F720
G01 X7.2767 Y7.9473 Z-0 F720
G01 X7.2849 Y7.9530 Z-0 F720
G01 X7.2936 Y7.9578 Z-0 F720
G01 X7.3028 Y7.9617 Z-0 F720
G01 X7.3123 Y7.9648 Z-0 F720
G01 X7.3220 Y7.9668 Z-0 F720
G01 X7.3320 Y7.9679 Z-0 F720
G01 X7.3419 Y7.9680 Z-0 F720
G01 X7.3518 Y7.9670 Z-0 F720
G01 X7.9345 Y7.8839 Z-0 F720
G01 X7.9439 Y7.8821 Z-0 F720
G01 X7.9531 Y7.8794 Z-0 F720
G01 X7.9620 Y7.8759 Z-0 F720
G01 X7.9705 Y7.8715 Z-0 F720
G01 X7.9786 Y7.8663 Z-0 F720
G01 X7.9790 Y7.8660 Z-0 F720
G01 X7.9867 Y7.8685 Z-0 F720
G01 X7.9965 Y7.8705 Z-0 F720
G01 X8.0065 Y7.8716 Z-0 F720
G01 X8.0165 Y7.8717 Z-0 F720
G01 X8.0265 Y7.8708 Z-0 F720
G01 X8.0965 Y7.8608 Z-0 F720
G01 X8.6230 Y7.8123 Z-0 F720
G01 X9.0492 Y7.8141 Z-0 F720
G01 X9.4574 Y7.8655 Z-0 F720
G01 X9.8160 Y7.9724 Z-0 F720
G01 X9.8300 Y7.9794 Z-0 F720
G01 X9.7875 Y7.9656 Z-0 F720
G01 X9.7801 Y7.9635 Z-0 F720
G01 X9.7725 Y7.9620 Z-0 F720
G01 X9.4014 Y7.9028 Z-0 F720
G01 X9.3888 Y7.9016 Z-0 F720
G01 X9.0348 Y7.8904 Z-0 F720
G01 X9.0265 Y7.8905 Z-0 F720
G01 X8.6725 Y7.9088 Z-0 F720
G01 X8.6642 Y7.9096 Z-0 F720
G01 X7.9371 Y8.0085 Z-0 F720
G01 X7.9274 Y8.0103 Z-0 F720
G01 X7.9180 Y8.0130 Z-0 F720
G01 X7.9089 Y8.0167 Z-0 F720
G01 X7.9002 Y8.0212 Z-0 F720
G01 X7.8982 Y8.0225 Z-0 F720
G01 X7.8958 Y8.0217 Z-0 F720
G01 X7.8862 Y8.0197 Z-0 F720
G01 X7.8765 Y8.0187 Z-0 F720
G01 X7.8667 Y8.0186 Z-0 F720
G01 X7.8570 Y8.0194 Z-0 F720
G01 X7.4247 Y8.0782 Z-0 F720
G01 X7.2677 Y8.0942 Z-0 F720
G01 X7.2579 Y8.0957 Z-0 F720
G01 X7.2483 Y8.0981 Z-0 F720
G01 X7.2390 Y8.1015 Z-0 F720
G01 X7.2301 Y8.1058 Z-0 F720
G01 X7.2216 Y8.1109 Z-0 F720
G01 X7.2137 Y8.1169 Z-0 F720
G01 X7.2064 Y8.1236 Z-0 F720
G01 X7.1998 Y8.1310 Z-0 F720
G01 X7.1940 Y8.1390 Z-0 F720
G01 X7.1890 Y8.1476 Z-0 F720
G01 X7.1849 Y8.1566 Z-0 F720
G01 X7.1817 Y8.1659 Z-0 F720
G01 X7.1794 Y8.1756 Z-0 F720
G01 X7.1771 Y8.1883 Z-0 F720
G01 X7.1764 Y8.1921 Z-0 F720
G01 X7.0663 Y8.9570 Z-0 F720
G01 X7.0657 Y8.9617 Z-0 F720
G01 X7.0056 Y9.5883 Z-0 F720
G01 X7.0051 Y9.5954 Z-0 F720
G01 X6.9953 Y9.9961 Z-0 F720
G00 X6.9953 Y9.9961 Z3    F500

;Begin Line: layer=0 line=7
G00 X7.1952 Y8.0116 Z3    F2100
G01 X7.1952 Y8.0116 Z-0 F210
G01 X7.1964 Y8.0094 Z-0 F720
G01 X7.1970 Y8.0101 Z-0 F720
G01 X7.1975 Y8.0106 Z-0 F720
G01 X7.1957 Y8.0114 Z-0 F720
G01 X7.1952 Y8.0116 Z-0 F720
G00 X7.1952 Y8.0116 Z3    F500

;New Layer: layer=0

;Begin Line: layer=1 line=0
G00 X4.4181 Y11.6429 Z3    F2100
G01 X4.4181 Y11.6429 Z-0 F210
G01 X4.1295 Y11.4707 Z-0 F720
G01 X3.9442 Y11.3397 Z-0 F720
G01 X3.7760 Y11.1887 Z-0 F720
G01 X3.6307 Y11.0185 Z-0 F720
G01 X3.4961 Y10.8085 Z-0 F720
G01 X3.3832 Y10.5672 Z-0 F720
G01 X3.2983 Y10.3127 Z-0 F720
G01 X3.2733 Y10.1073 Z-0 F720
G01 X3.2869 Y9.8749 Z-0 F720
G01 X3.3429 Y9.6602 Z-0 F720
G01 X3.4388 Y9.4759 Z-0 F720
G01 X3.5645 Y9.3320 Z-0 F720
G01 X3.7265 Y9.2183 Z-0 F720
G01 X3.9308 Y9.1400 Z-0 F720
G01 X4.1653 Y9.1106 Z-0 F720
G01 X4.3429 Y9.1380 Z-0 F720
G01 X4.5479 Y9.2179 Z-0 F720
G01 X4.7410 Y9.3469 Z-0 F720
G01 X4.8975 Y9.5113 Z-0 F720
G01 X5.0075 Y9.7019 Z-0 F720
G01 X5.0862 Y9.9404 Z-0 F720
G01 X5.1278 Y10.2107 Z-0 F720
G01 X5.1313 Y10.5159 Z-0 F720
G01 X5.0959 Y10.8231 Z-0 F720
G01 X5.0255 Y11.1223 Z-0 F720
G01 X4.9192 Y11.4177 Z-0 F720
G01 X4.7831 Y11.6896 Z-0 F720
G01 X4.6131 Y11.9436 Z-0 F720
G01 X4.4281 Y12.1539 Z-0 F720
G01 X4.2141 Y12.3381 Z-0 F720
G01 X3.9814 Y12.4853 Z-0 F720
G01 X3.7302 Y12.5953 Z-0 F720
G01 X3.4930 Y12.6605 Z-0 F720
G01 X3.2412 Y12.6948 Z-0 F720
G01 X2.9787 Y12.6971 Z-0 F720
G01 X2.6962 Y12.6658 Z-0 F720
G01 X2.4035 Y12.6001 Z-0 F720
G01 X2.1152 Y12.5045 Z-0 F720
G01 X1.8233 Y12.3772 Z-0 F720
G01 X1.5476 Y12.2259 Z-0 F720
G01 X1.3455 Y12.0827 Z-0 F720
G01 X1.1455 Y11.9072 Z-0 F720
G01 X0.9670 Y11.7151 Z-0 F720
G01 X0.8097 Y11.5084 Z-0 F720
G01 X0.6675 Y11.2785 Z-0 F720
G01 X0.5481 Y11.0371 Z-0 F720
G01 X0.4512 Y10.7866 Z-0 F720
G01 X0.3736 Y10.5175 Z-0 F720
G01 X0.3041 Y10.1239 Z-0 F720
G01 X0.2831 Y9.7166 Z-0 F720
G01 X0.3125 Y9.3162 Z-0 F720
G01 X0.3883 Y8.9422 Z-0 F720
G01 X0.5230 Y8.5544 Z-0 F720
G01 X0.7107 Y8.1724 Z-0 F720
G01 X0.9352 Y7.8250 Z-0 F720
G01 X1.1892 Y7.5246 Z-0 F720
G01 X1.4429 Y7.3005 Z-0 F720
G01 X1.7143 Y7.1315 Z-0 F720
G01 X1.9873 Y7.0274 Z-0 F720
G01 X2.2682 Y6.9838 Z-0 F720
G01 X2.5614 Y7.0026 Z-0 F720
G01 X2.8464 Y7.0837 Z-0 F720
G01 X3.1310 Y7.2281 Z-0 F720
G01 X3.4051 Y7.4306 Z-0 F720
G00 X3.4051 Y7.4306 Z3    F500

;Begin Line: layer=1 line=1
G00 X2.6614 Y7.0247 Z3    F2100
G01 X2.6614 Y7.0247 Z-0 F210
G01 X2.8401 Y7.0850 Z-0 F720
G01 X3.0776 Y7.1963 Z-0 F720
G01 X3.2604 Y7.3029 Z-0 F720
G01 X3.3757 Y7.3943 Z-0 F720
G01 X3.4452 Y7.5006 Z-0 F720
G01 X3.4902 Y7.6396 Z-0 F720
G01 X3.4896 Y7.7570 Z-0 F720
G01 X3.4495 Y7.8298 Z-0 F720
G01 X3.3438 Y7.8782 Z-0 F720
G01 X3.2876 Y7.8763 Z-0 F720
G01 X3.2479 Y7.8539 Z-0 F720
G01 X3.2370 Y7.5545 Z-0 F720
G01 X3.1630 Y7.3861 Z-0 F720
G01 X3.0840 Y7.2922 Z-0 F720
G01 X2.9697 Y7.1974 Z-0 F720
G01 X2.6614 Y7.0247 Z-0 F720
G00 X2.6614 Y7.0247 Z3    F500

;Begin Line: layer=1 line=2
G00 X5.7989 Y4.2525 Z3    F2100
G01 X5.7989 Y4.2525 Z-0 F210
G01 X5.9958 Y4.0806 Z-0 F720
G01 X6.1625 Y3.8592 Z-0 F720
G01 X6.2436 Y3.6813 Z-0 F720
G01 X6.2373 Y3.6299 Z-0 F720
G01 X6.2031 Y3.5977 Z-0 F720
G01 X6.1136 Y3.5830 Z-0 F720
G01 X6.0392 Y3.6425 Z-0 F720
G01 X6.0076 Y3.7380 Z-0 F720
G01 X6.0216 Y3.8696 Z-0 F720
G01 X5.9978 Y3.9820 Z-0 F720
G01 X5.9345 Y4.0900 Z-0 F720
G01 X5.7989 Y4.2525 Z-0 F720
G00 X5.7989 Y4.2525 Z3    F500

;Begin Line: layer=1 line=3
G00 X3.3160 Y7.4858 Z3    F2100
G01 X3.3160 Y7.4858 Z-0 F210
G01 X3.3542 Y7.5442 Z-0 F720
G01 X3.3901 Y7.6551 Z-0 F720
G01 X3.3898 Y7.7311 Z-0 F720
G01 X3.3779 Y7.7526 Z-0 F720
G01 X3.3448 Y7.7677 Z-0 F720
G01 X3.3369 Y7.5509 Z-0 F720
G01 X3.3362 Y7.5415 Z-0 F720
G01 X3.3345 Y7.5322 Z-0 F720
G01 X3.3320 Y7.5231 Z-0 F720
G01 X3.3286 Y7.5143 Z-0 F720
G01 X3.3160 Y7.4858 Z-0 F720
G00 X3.3160 Y7.4858 Z3    F500

;New Layer: layer=1

;Begin Line: layer=2 line=0
G00 X7.6971 Y1.3343 Z3    F2100
G01 X7.6971 Y1.3343 Z-0 F210
G01 X7.5728 Y1.0399 Z-0 F720
G01 X7.4101 Y0.7703 Z-0 F720
G01 X7.2145 Y0.5363 Z-0 F720
G01 X6.9835 Y0.3375 Z-0 F720
G01 X6.7350 Y0.1876 Z-0 F720
G01 X6.4604 Y0.0797 Z-0 F720
G01 X6.1691 Y0.0177 Z-0 F720
G01 X5.8681 Y0.0001 Z-0 F720
G01 X5.5392 Y0.0265 Z-0 F720
G01 X5.1917 Y0.0998 Z-0 F720
G01 X4.8333 Y0.2213 Z-0 F720
G01 X4.5198 Y0.3725 Z-0 F720
G01 X4.2278 Y0.5696 Z-0 F720
G01 X3.9558 Y0.8084 Z-0 F720
G01 X3.7112 Y1.0826 Z-0 F720
G01 X3.5073 Y1.3758 Z-0 F720
G01 X3.3227 Y1.7359 Z-0 F720
G01 X3.1976 Y2.1164 Z-0 F720
G01 X3.1427 Y2.4853 Z-0 F720
G01 X3.1550 Y2.8464 Z-0 F720
G01 X3.2343 Y3.1919 Z-0 F720
G01 X3.3858 Y3.5359 Z-0 F720
G01 X3.6062 Y3.8703 Z-0 F720
G01 X3.8768 Y4.1612 Z-0 F720
G01 X4.1628 Y4.3764 Z-0 F720
G01 X4.4695 Y4.5236 Z-0 F720
G01 X4.7759 Y4.5931 Z-0 F720
G01 X5.0897 Y4.5863 Z-0 F720
G01 X5.3964 Y4.5005 Z-0 F720
G01 X5.6789 Y4.3435 Z-0 F720
G01 X5.9535 Y4.1043 Z-0 F720
G01 X6.1898 Y3.8052 Z-0 F720
G00 X6.1898 Y3.8052 Z3    F500

G00 X0 Y0 Z3 F2100
G00 X0 Y0 Z5 F500
