;Generated with vpype gwrite fabian
;signature/fabian_signature_4_5x6_25.svg.gcode
G90
G92 X0 Y0 Z0
G00 X0 Y0 Z0 F2100
G00 X0 Y0 Z5 F500

;Begin Line: layer=0 line=0
G00 X80.4120 Y96.1020 Z3    F2100
G01 X80.4120 Y96.1020 Z-0 F210
G01 X80.0990 Y95.6904 Z-0 F720
G01 X79.7662 Y95.2948 Z-0 F720
G01 X79.4141 Y94.9162 Z-0 F720
G01 X79.0909 Y94.5995 Z-0 F720
G01 X78.7052 Y94.2552 Z-0 F720
G01 X78.3030 Y93.9304 Z-0 F720
G01 X77.8851 Y93.6259 Z-0 F720
G01 X77.5075 Y93.3767 Z-0 F720
G01 X77.1179 Y93.1454 Z-0 F720
G01 X76.6595 Y92.9022 Z-0 F720
G01 X76.1908 Y92.6795 Z-0 F720
G01 X75.7127 Y92.4776 Z-0 F720
G01 X75.2263 Y92.2969 Z-0 F720
G01 X74.7323 Y92.1378 Z-0 F720
G01 X74.2319 Y92.0006 Z-0 F720
G01 X73.7259 Y91.8856 Z-0 F720
G01 X73.2153 Y91.7929 Z-0 F720
G01 X72.6415 Y91.7126 Z-0 F720
G01 X71.4880 Y91.6038 Z-0 F720
G01 X70.3300 Y91.5641 Z-0 F720
G01 X69.1717 Y91.5937 Z-0 F720
G01 X67.8853 Y91.6870 Z-0 F720
G01 X66.3430 Y91.8546 Z-0 F720
G01 X64.7208 Y92.0830 Z-0 F720
G01 X61.6518 Y92.5580 Z-0 F720
G01 X59.6026 Y92.8160 Z-0 F720
G01 X58.6966 Y92.8886 Z-0 F720
G01 X57.7236 Y92.9289 Z-0 F720
G01 X56.6849 Y92.9293 Z-0 F720
G01 X55.9721 Y92.8936 Z-0 F720
G01 X55.0707 Y92.7816 Z-0 F720
G01 X54.1817 Y92.5959 Z-0 F720
G01 X53.6816 Y92.4570 Z-0 F720
G01 X53.2497 Y92.3163 Z-0 F720
G01 X52.7638 Y92.1339 Z-0 F720
G01 X52.4675 Y92.0021 Z-0 F720
G01 X52.0603 Y91.8015 Z-0 F720
G01 X51.6628 Y91.5824 Z-0 F720
G01 X51.2757 Y91.3453 Z-0 F720
G01 X50.9016 Y91.0919 Z-0 F720
G01 X50.1901 Y90.5408 Z-0 F720
G01 X49.4148 Y89.8453 Z-0 F720
G01 X49.6563 Y90.2302 Z-0 F720
G01 X49.9171 Y90.6022 Z-0 F720
G01 X50.1965 Y90.9605 Z-0 F720
G01 X50.5378 Y91.3519 Z-0 F720
G01 X50.9013 Y91.7227 Z-0 F720
G01 X51.2367 Y92.0293 Z-0 F720
G01 X51.6385 Y92.3581 Z-0 F720
G01 X52.0054 Y92.6262 Z-0 F720
G01 X52.3854 Y92.8753 Z-0 F720
G01 X52.7789 Y93.0957 Z-0 F720
G01 X53.2396 Y93.3266 Z-0 F720
G01 X53.7112 Y93.5345 Z-0 F720
G01 X54.1924 Y93.7190 Z-0 F720
G01 X54.6821 Y93.8797 Z-0 F720
G01 X55.1166 Y94.0003 Z-0 F720
G01 X55.6191 Y94.1151 Z-0 F720
G01 X56.5097 Y94.2562 Z-0 F720
G01 X57.7261 Y94.3603 Z-0 F720
G01 X58.8823 Y94.3903 Z-0 F720
G01 X59.9741 Y94.3573 Z-0 F720
G01 X61.3358 Y94.2434 Z-0 F720
G01 X62.9073 Y94.0594 Z-0 F720
G01 X67.3361 Y93.4127 Z-0 F720
G01 X69.4845 Y93.1645 Z-0 F720
G01 X70.3891 Y93.0983 Z-0 F720
G01 X71.3604 Y93.0675 Z-0 F720
G01 X72.3321 Y93.0784 Z-0 F720
G01 X73.2364 Y93.1267 Z-0 F720
G01 X73.7481 Y93.1782 Z-0 F720
G01 X74.2574 Y93.2502 Z-0 F720
G01 X75.2026 Y93.4406 Z-0 F720
G01 X76.1307 Y93.7019 Z-0 F720
G01 X77.0382 Y94.0344 Z-0 F720
G01 X77.5169 Y94.2460 Z-0 F720
G01 X77.9860 Y94.4780 Z-0 F720
G01 X78.9453 Y95.0288 Z-0 F720
G01 X79.8978 Y95.6987 Z-0 F720
G01 X80.4120 Y96.1020 Z-0 F720
G00 X80.4120 Y96.1020 Z3    F500

;Begin Line: layer=0 line=1
G00 X89.3000 Y117.1304 Z3    F2100
G01 X89.3000 Y117.1304 Z-0 F210
G01 X88.8580 Y116.6705 Z-0 F720
G01 X88.3437 Y116.1914 Z-0 F720
G01 X87.8025 Y115.7401 Z-0 F720
G01 X87.2369 Y115.3163 Z-0 F720
G01 X86.6495 Y114.9196 Z-0 F720
G01 X85.9868 Y114.5174 Z-0 F720
G01 X85.3045 Y114.1467 Z-0 F720
G01 X84.6058 Y113.8069 Z-0 F720
G01 X83.8288 Y113.4815 Z-0 F720
G01 X83.0403 Y113.1854 Z-0 F720
G01 X82.2411 Y112.9191 Z-0 F720
G01 X81.4326 Y112.6829 Z-0 F720
G01 X80.6158 Y112.4771 Z-0 F720
G01 X79.7918 Y112.3021 Z-0 F720
G01 X78.9623 Y112.1579 Z-0 F720
G01 X78.0069 Y112.0187 Z-0 F720
G01 X77.1122 Y111.9109 Z-0 F720
G01 X76.2151 Y111.8244 Z-0 F720
G01 X75.3163 Y111.7593 Z-0 F720
G01 X74.4161 Y111.7158 Z-0 F720
G01 X72.2740 Y111.6868 Z-0 F720
G01 X70.1773 Y111.7366 Z-0 F720
G01 X67.8966 Y111.8606 Z-0 F720
G01 X65.7652 Y112.0229 Z-0 F720
G01 X63.6449 Y112.2215 Z-0 F720
G01 X58.4068 Y112.7562 Z-0 F720
G01 X55.6028 Y112.9998 Z-0 F720
G01 X54.7027 Y113.0566 Z-0 F720
G01 X53.8016 Y113.0918 Z-0 F720
G01 X52.8998 Y113.1052 Z-0 F720
G01 X51.9980 Y113.0969 Z-0 F720
G01 X50.6464 Y113.0438 Z-0 F720
G01 X49.8732 Y112.9740 Z-0 F720
G01 X48.9143 Y112.8236 Z-0 F720
G01 X47.9687 Y112.6045 Z-0 F720
G01 X47.2755 Y112.3778 Z-0 F720
G01 X46.5409 Y112.0612 Z-0 F720
G01 X45.9573 Y111.7330 Z-0 F720
G01 X45.3534 Y111.3114 Z-0 F720
G01 X45.6687 Y111.6454 Z-0 F720
G01 X45.9571 Y111.9135 Z-0 F720
G01 X46.3133 Y112.2036 Z-0 F720
G01 X46.5843 Y112.3923 Z-0 F720
G01 X47.0374 Y112.6686 Z-0 F720
G01 X47.5065 Y112.9170 Z-0 F720
G01 X47.9298 Y113.1103 Z-0 F720
G01 X48.4254 Y113.3055 Z-0 F720
G01 X48.8672 Y113.4543 Z-0 F720
G01 X49.4420 Y113.6215 Z-0 F720
G01 X50.5407 Y113.8732 Z-0 F720
G01 X51.1797 Y113.9816 Z-0 F720
G01 X51.8843 Y114.0779 Z-0 F720
G01 X53.2967 Y114.2078 Z-0 F720
G01 X54.5168 Y114.2643 Z-0 F720
G01 X55.8619 Y114.2818 Z-0 F720
G01 X57.2150 Y114.2612 Z-0 F720
G01 X58.7630 Y114.2042 Z-0 F720
G01 X61.6522 Y114.0317 Z-0 F720
G01 X66.7498 Y113.6391 Z-0 F720
G01 X69.1751 Y113.4678 Z-0 F720
G01 X71.3738 Y113.3546 Z-0 F720
G01 X73.3984 Y113.2898 Z-0 F720
G01 X75.0734 Y113.2815 Z-0 F720
G01 X76.7476 Y113.3326 Z-0 F720
G01 X78.4831 Y113.4485 Z-0 F720
G01 X79.9630 Y113.6048 Z-0 F720
G01 X81.3067 Y113.8199 Z-0 F720
G01 X82.6373 Y114.1056 Z-0 F720
G01 X84.0128 Y114.4798 Z-0 F720
G01 X84.5678 Y114.6565 Z-0 F720
G01 X85.1152 Y114.8521 Z-0 F720
G01 X85.6558 Y115.0661 Z-0 F720
G01 X86.2475 Y115.3250 Z-0 F720
G01 X87.2866 Y115.8462 Z-0 F720
G01 X87.8481 Y116.1656 Z-0 F720
G01 X88.3428 Y116.4708 Z-0 F720
G01 X89.3000 Y117.1304 Z-0 F720
G00 X89.3000 Y117.1304 Z3    F500

;Begin Line: layer=0 line=2
G00 X64.7242 Y108.9719 Z3    F2100
G01 X64.7242 Y108.9719 Z-0 F210
G01 X64.5681 Y107.9467 Z-0 F720
G01 X64.4561 Y106.8524 Z-0 F720
G01 X64.3923 Y105.6900 Z-0 F720
G01 X64.3788 Y104.5260 Z-0 F720
G01 X64.4122 Y103.2977 Z-0 F720
G01 X64.4964 Y101.9428 Z-0 F720
G01 X64.6316 Y100.3966 Z-0 F720
G01 X64.8039 Y98.8540 Z-0 F720
G01 X64.9574 Y97.7001 Z-0 F720
G01 X65.1316 Y96.5491 Z-0 F720
G01 X65.7251 Y93.1054 Z-0 F720
G01 X66.2424 Y90.3695 Z-0 F720
G01 X67.7396 Y82.8066 Z-0 F720
G01 X68.2557 Y80.0266 Z-0 F720
G01 X68.6480 Y77.7450 Z-0 F720
G01 X68.9972 Y75.4557 Z-0 F720
G01 X69.2589 Y73.4134 Z-0 F720
G01 X69.4584 Y71.4275 Z-0 F720
G01 X69.5945 Y69.4985 Z-0 F720
G01 X69.6318 Y68.5967 Z-0 F720
G01 X69.6467 Y67.6943 Z-0 F720
G01 X69.6392 Y66.7918 Z-0 F720
G01 X69.6095 Y65.8898 Z-0 F720
G01 X69.5528 Y64.9245 Z-0 F720
G01 X69.4705 Y63.9610 Z-0 F720
G01 X69.3973 Y63.3201 Z-0 F720
G01 X69.2791 Y62.5544 Z-0 F720
G01 X69.1324 Y61.7935 Z-0 F720
G01 X68.9729 Y61.1013 Z-0 F720
G01 X68.7722 Y60.3529 Z-0 F720
G01 X68.5779 Y59.7394 Z-0 F720
G01 X68.3551 Y59.1356 Z-0 F720
G01 X68.1045 Y58.5429 Z-0 F720
G01 X67.7971 Y57.9052 Z-0 F720
G01 X67.4896 Y57.3399 Z-0 F720
G01 X67.7410 Y57.8594 Z-0 F720
G01 X67.9967 Y58.4475 Z-0 F720
G01 X68.2272 Y59.0460 Z-0 F720
G01 X68.4319 Y59.6537 Z-0 F720
G01 X68.6106 Y60.2696 Z-0 F720
G01 X68.7486 Y60.8374 Z-0 F720
G01 X68.8948 Y61.5391 Z-0 F720
G01 X69.0169 Y62.2454 Z-0 F720
G01 X69.1069 Y62.8908 Z-0 F720
G01 X69.1827 Y63.6035 Z-0 F720
G01 X69.2497 Y64.5047 Z-0 F720
G01 X69.2918 Y65.3428 Z-0 F720
G01 X69.3182 Y67.0209 Z-0 F720
G01 X69.2673 Y68.6984 Z-0 F720
G01 X69.1416 Y70.3721 Z-0 F720
G01 X68.9449 Y72.3002 Z-0 F720
G01 X68.7013 Y74.2241 Z-0 F720
G01 X68.4051 Y76.2072 Z-0 F720
G01 X68.0296 Y78.4407 Z-0 F720
G01 X67.6045 Y80.7982 Z-0 F720
G01 X66.0415 Y88.8856 Z-0 F720
G01 X65.4713 Y91.9820 Z-0 F720
G01 X65.1807 Y93.6933 Z-0 F720
G01 X64.9419 Y95.2184 Z-0 F720
G01 X64.7138 Y96.8108 Z-0 F720
G01 X64.5484 Y98.1518 Z-0 F720
G01 X64.3774 Y99.8806 Z-0 F720
G01 X64.2533 Y101.6134 Z-0 F720
G01 X64.2018 Y102.7706 Z-0 F720
G01 X64.1954 Y104.1873 Z-0 F720
G01 X64.2390 Y105.4101 Z-0 F720
G01 X64.3416 Y106.6918 Z-0 F720
G01 X64.5003 Y107.8373 Z-0 F720
G01 X64.7242 Y108.9719 Z-0 F720
G00 X64.7242 Y108.9719 Z3    F500

;Begin Line: layer=0 line=3
G00 X58.6507 Y109.8031 Z3    F2100
G01 X58.6507 Y109.8031 Z-0 F210
G01 X58.2693 Y108.6349 Z-0 F720
G01 X57.9542 Y107.4471 Z-0 F720
G01 X57.7176 Y106.3072 Z-0 F720
G01 X57.5340 Y105.0920 Z-0 F720
G01 X57.4030 Y103.6759 Z-0 F720
G01 X57.3282 Y102.1930 Z-0 F720
G01 X57.3148 Y100.7084 Z-0 F720
G01 X57.3629 Y99.2244 Z-0 F720
G01 X57.4849 Y97.5532 Z-0 F720
G01 X57.6526 Y95.8907 Z-0 F720
G01 X57.8791 Y94.1054 Z-0 F720
G01 X58.1661 Y92.1975 Z-0 F720
G01 X58.4562 Y90.4843 Z-0 F720
G01 X58.8294 Y88.4577 Z-0 F720
G01 X60.2408 Y81.3398 Z-0 F720
G01 X60.7492 Y78.6254 Z-0 F720
G01 X61.0099 Y77.1056 Z-0 F720
G01 X61.2387 Y75.6449 Z-0 F720
G01 X61.4367 Y74.2434 Z-0 F720
G01 X61.5801 Y73.0289 Z-0 F720
G01 X61.7079 Y71.6188 Z-0 F720
G01 X61.7947 Y70.2054 Z-0 F720
G01 X61.8351 Y69.0476 Z-0 F720
G01 X61.8237 Y67.8241 Z-0 F720
G01 X61.7670 Y66.7615 Z-0 F720
G01 X61.6378 Y65.5026 Z-0 F720
G01 X61.4410 Y64.3359 Z-0 F720
G01 X61.1565 Y63.1878 Z-0 F720
G01 X61.3542 Y64.2693 Z-0 F720
G01 X61.4912 Y65.2950 Z-0 F720
G01 X61.5803 Y66.3259 Z-0 F720
G01 X61.6215 Y67.3599 Z-0 F720
G01 X61.6145 Y68.3947 Z-0 F720
G01 X61.5468 Y69.7510 Z-0 F720
G01 X61.4437 Y71.1050 Z-0 F720
G01 X61.3102 Y72.3912 Z-0 F720
G01 X61.1786 Y73.4174 Z-0 F720
G01 X61.0354 Y74.3767 Z-0 F720
G01 X60.4720 Y77.6277 Z-0 F720
G01 X60.0679 Y79.7264 Z-0 F720
G01 X58.6999 Y86.4624 Z-0 F720
G01 X58.2337 Y88.9232 Z-0 F720
G01 X57.8788 Y90.9492 Z-0 F720
G01 X57.5728 Y92.9197 Z-0 F720
G01 X57.3388 Y94.7060 Z-0 F720
G01 X57.1677 Y96.3702 Z-0 F720
G01 X57.0540 Y97.9754 Z-0 F720
G01 X56.9876 Y99.6491 Z-0 F720
G01 X56.9974 Y101.3241 Z-0 F720
G01 X57.0853 Y102.9968 Z-0 F720
G01 X57.1649 Y103.8953 Z-0 F720
G01 X57.2472 Y104.5986 Z-0 F720
G01 X57.3428 Y105.2349 Z-0 F720
G01 X57.4707 Y105.9312 Z-0 F720
G01 X57.6073 Y106.5600 Z-0 F720
G01 X57.7800 Y107.2464 Z-0 F720
G01 X57.9758 Y107.9266 Z-0 F720
G01 X58.1739 Y108.5389 Z-0 F720
G01 X58.4134 Y109.2050 Z-0 F720
G01 X58.6507 Y109.8031 Z-0 F720
G00 X58.6507 Y109.8031 Z3    F500

;Begin Line: layer=0 line=4
G00 X63.1346 Y55.7604 Z3    F2100
G01 X63.1346 Y55.7604 Z-0 F210
G01 X63.4008 Y56.2164 Z-0 F720
G01 X63.6736 Y56.7440 Z-0 F720
G01 X63.8918 Y57.2249 Z-0 F720
G01 X64.1338 Y57.8353 Z-0 F720
G01 X64.2865 Y58.2679 Z-0 F720
G01 X64.5043 Y59.0212 Z-0 F720
G01 X64.6629 Y59.7207 Z-0 F720
G01 X64.7959 Y60.4252 Z-0 F720
G01 X64.9021 Y61.1341 Z-0 F720
G01 X64.9814 Y61.8466 Z-0 F720
G01 X65.0300 Y62.4965 Z-0 F720
G01 X65.0696 Y63.4090 Z-0 F720
G01 X65.0838 Y64.2573 Z-0 F720
G01 X65.0753 Y65.1056 Z-0 F720
G01 X65.0440 Y65.9534 Z-0 F720
G01 X64.9921 Y66.7942 Z-0 F720
G01 X64.8557 Y68.4604 Z-0 F720
G01 X64.6865 Y69.9965 Z-0 F720
G01 X64.4310 Y71.8495 Z-0 F720
G01 X64.0795 Y74.0841 Z-0 F720
G01 X63.7460 Y75.9963 Z-0 F720
G01 X63.1757 Y79.0535 Z-0 F720
G01 X62.0963 Y84.6030 Z-0 F720
G01 X61.4177 Y88.2573 Z-0 F720
G01 X60.9789 Y90.8551 Z-0 F720
G01 X60.6603 Y92.9541 Z-0 F720
G01 X60.3681 Y95.1901 Z-0 F720
G01 X60.1222 Y97.6382 Z-0 F720
G01 X60.0359 Y98.9081 Z-0 F720
G01 X59.9876 Y99.8939 Z-0 F720
G01 X59.9526 Y100.9301 Z-0 F720
G01 X59.9401 Y101.9026 Z-0 F720
G01 X59.9516 Y102.8112 Z-0 F720
G01 X59.9909 Y103.7855 Z-0 F720
G01 X60.0541 Y104.6937 Z-0 F720
G01 X60.1440 Y105.5997 Z-0 F720
G01 X60.2604 Y106.5027 Z-0 F720
G01 X60.3842 Y107.2736 Z-0 F720
G01 X60.5392 Y108.0393 Z-0 F720
G01 X60.7253 Y108.7980 Z-0 F720
G01 X60.9422 Y109.5486 Z-0 F720
G01 X61.1895 Y110.2896 Z-0 F720
G01 X61.4240 Y110.8937 Z-0 F720
G01 X61.6879 Y111.4834 Z-0 F720
G01 X62.0091 Y112.1174 Z-0 F720
G01 X62.3297 Y112.6768 Z-0 F720
G01 X62.7174 Y113.2702 Z-0 F720
G01 X63.1007 Y113.7883 Z-0 F720
G01 X62.7889 Y113.2055 Z-0 F720
G01 X62.5063 Y112.6081 Z-0 F720
G01 X62.2292 Y111.9379 Z-0 F720
G01 X62.0063 Y111.3218 Z-0 F720
G01 X61.8124 Y110.6961 Z-0 F720
G01 X61.6480 Y110.0633 Z-0 F720
G01 X61.4807 Y109.2986 Z-0 F720
G01 X61.3433 Y108.5279 Z-0 F720
G01 X61.2439 Y107.8172 Z-0 F720
G01 X61.1698 Y107.1035 Z-0 F720
G01 X61.1007 Y106.1385 Z-0 F720
G01 X61.0619 Y105.2415 Z-0 F720
G01 X61.0497 Y104.4720 Z-0 F720
G01 X61.0584 Y103.6384 Z-0 F720
G01 X61.1515 Y101.5857 Z-0 F720
G01 X61.2791 Y99.9836 Z-0 F720
G01 X61.4702 Y98.2654 Z-0 F720
G01 X61.7421 Y96.2374 Z-0 F720
G01 X62.0642 Y94.1490 Z-0 F720
G01 X62.6941 Y90.5453 Z-0 F720
G01 X63.7640 Y84.9152 Z-0 F720
G01 X64.6010 Y80.3823 Z-0 F720
G01 X65.0158 Y77.9786 Z-0 F720
G01 X65.4268 Y75.3096 Z-0 F720
G01 X65.7329 Y72.9455 Z-0 F720
G01 X65.9413 Y70.8235 Z-0 F720
G01 X66.0744 Y68.7014 Z-0 F720
G01 X66.1075 Y67.7376 Z-0 F720
G01 X66.1197 Y66.7735 Z-0 F720
G01 X66.1096 Y65.8735 Z-0 F720
G01 X66.0764 Y64.9738 Z-0 F720
G01 X66.0176 Y64.0747 Z-0 F720
G01 X65.9380 Y63.2405 Z-0 F720
G01 X65.8404 Y62.4700 Z-0 F720
G01 X65.7225 Y61.7629 Z-0 F720
G01 X65.5769 Y61.0610 Z-0 F720
G01 X65.4036 Y60.3654 Z-0 F720
G01 X65.1834 Y59.6150 Z-0 F720
G01 X64.9535 Y58.9367 Z-0 F720
G01 X64.7404 Y58.3965 Z-0 F720
G01 X64.4984 Y57.8686 Z-0 F720
G01 X64.1965 Y57.2985 Z-0 F720
G01 X63.8608 Y56.7474 Z-0 F720
G01 X63.5309 Y56.2696 Z-0 F720
G01 X63.1346 Y55.7604 Z-0 F720
G00 X63.1346 Y55.7604 Z3    F500

;Begin Line: layer=0 line=5
G00 X48.7180 Y113.0904 Z3    F2100
G01 X48.7180 Y113.0904 Z-0 F210
G01 X49.2472 Y113.1879 Z-0 F720
G01 X49.7724 Y113.2639 Z-0 F720
G01 X50.2990 Y113.3194 Z-0 F720
G01 X50.8884 Y113.3573 Z-0 F720
G01 X51.7966 Y113.3922 Z-0 F720
G01 X52.6407 Y113.4050 Z-0 F720
G01 X54.3286 Y113.3741 Z-0 F720
G01 X55.5602 Y113.3038 Z-0 F720
G01 X57.4787 Y113.1437 Z-0 F720
G01 X62.1821 Y112.6723 Z-0 F720
G01 X62.3011 Y112.6334 Z-0 F720
G01 X62.4256 Y112.6471 Z-0 F720
G01 X65.4700 Y112.3499 Z-0 F720
G01 X67.9160 Y112.1600 Z-0 F720
G01 X69.9293 Y112.0476 Z-0 F720
G01 X71.5582 Y111.9950 Z-0 F720
G01 X73.5114 Y111.9937 Z-0 F720
G01 X74.9157 Y112.0377 Z-0 F720
G01 X76.6351 Y112.1636 Z-0 F720
G01 X78.2838 Y112.3594 Z-0 F720
G01 X79.7350 Y112.5967 Z-0 F720
G01 X80.4233 Y112.7408 Z-0 F720
G01 X81.1067 Y112.9067 Z-0 F720
G01 X81.7845 Y113.0942 Z-0 F720
G01 X82.4560 Y113.3030 Z-0 F720
G01 X83.1807 Y113.5550 Z-0 F720
G01 X83.8369 Y113.8079 Z-0 F720
G01 X84.4825 Y114.0805 Z-0 F720
G01 X84.9401 Y114.2988 Z-0 F720
G01 X85.5047 Y114.5918 Z-0 F720
G01 X86.0875 Y114.9242 Z-0 F720
G01 X85.0984 Y114.5257 Z-0 F720
G01 X84.1627 Y114.2118 Z-0 F720
G01 X82.9629 Y113.8772 Z-0 F720
G01 X81.7484 Y113.6004 Z-0 F720
G01 X80.6517 Y113.4021 Z-0 F720
G01 X79.5468 Y113.2509 Z-0 F720
G01 X78.1857 Y113.1231 Z-0 F720
G01 X76.8266 Y113.0361 Z-0 F720
G01 X75.4664 Y112.9881 Z-0 F720
G01 X74.1697 Y112.9786 Z-0 F720
G01 X72.6075 Y113.0099 Z-0 F720
G01 X70.9676 Y113.0720 Z-0 F720
G01 X68.3212 Y113.2238 Z-0 F720
G01 X62.3338 Y113.6815 Z-0 F720
G01 X60.1596 Y113.8292 Z-0 F720
G01 X57.9142 Y113.9390 Z-0 F720
G01 X55.9253 Y113.9817 Z-0 F720
G01 X54.7801 Y113.9710 Z-0 F720
G01 X53.7616 Y113.9344 Z-0 F720
G01 X52.8079 Y113.8705 Z-0 F720
G01 X51.8569 Y113.7723 Z-0 F720
G01 X50.9730 Y113.6448 Z-0 F720
G01 X50.2161 Y113.4999 Z-0 F720
G01 X49.4572 Y113.3148 Z-0 F720
G01 X48.7180 Y113.0904 Z-0 F720
G00 X48.7180 Y113.0904 Z3    F500

;Begin Line: layer=0 line=6
G00 X54.5463 Y113.6649 Z3    F2100
G01 X54.5463 Y113.6649 Z-0 F210
G01 X55.7133 Y113.5932 Z-0 F720
G01 X57.8888 Y113.4076 Z-0 F720
G01 X60.8917 Y113.1085 Z-0 F720
G01 X62.2131 Y112.9707 Z-0 F720
G01 X62.3333 Y112.9452 Z-0 F720
G01 X62.4565 Y112.9455 Z-0 F720
G01 X64.7283 Y112.7191 Z-0 F720
G01 X66.4578 Y112.5671 Z-0 F720
G01 X69.1004 Y112.3893 Z-0 F720
G01 X71.3692 Y112.2988 Z-0 F720
G01 X72.6010 Y112.2863 Z-0 F720
G01 X74.0143 Y112.3035 Z-0 F720
G01 X75.1536 Y112.3508 Z-0 F720
G01 X76.2277 Y112.4276 Z-0 F720
G01 X77.4251 Y112.5503 Z-0 F720
G01 X78.6179 Y112.7116 Z-0 F720
G01 X79.6162 Y112.8794 Z-0 F720
G01 X80.6073 Y113.0915 Z-0 F720
G01 X79.8456 Y112.9847 Z-0 F720
G01 X79.1205 Y112.9039 Z-0 F720
G01 X77.1671 Y112.7538 Z-0 F720
G01 X75.3417 Y112.6856 Z-0 F720
G01 X73.4498 Y112.6885 Z-0 F720
G01 X71.3489 Y112.7551 Z-0 F720
G01 X69.1380 Y112.8690 Z-0 F720
G01 X66.7052 Y113.0408 Z-0 F720
G01 X61.8013 Y113.4196 Z-0 F720
G01 X59.2469 Y113.5798 Z-0 F720
G01 X57.9034 Y113.6392 Z-0 F720
G01 X56.6222 Y113.6744 Z-0 F720
G01 X55.5453 Y113.6811 Z-0 F720
G01 X54.5463 Y113.6649 Z-0 F720
G00 X54.5463 Y113.6649 Z3    F500

;Begin Line: layer=0 line=7
G00 X61.1669 Y109.2568 Z3    F2100
G01 X61.1669 Y109.2568 Z-0 F210
G01 X60.9665 Y108.5346 Z-0 F720
G01 X60.8044 Y107.8486 Z-0 F720
G01 X60.6680 Y107.1569 Z-0 F720
G01 X60.5482 Y106.3962 Z-0 F720
