;Generated with vpypy gwrite.fabian
G90          ; set all axes to absolute positioning
G92 X0 Y0 Z0 ; set current pos to value specified
G00 X0 Y0 Z2 ; pick pen up 2mm

;Begin line layer=0 lines_idx=0
G00 X64.4388 Y51.3780 Z2 F2100 ; pen is up, move pen to start of line segment at 2100 mm/min
G01 X64.4388 Y51.3780 Z0 F210  ; lower pen slowly
G01 X64.0844 Y50.9120 Z0 F720  ; pen is down, draw line segment
G01 X63.7558 Y50.5190 Z0 F720  ; pen is down, draw line segment
G01 X63.3598 Y50.0878 Z0 F720  ; pen is down, draw line segment
G01 X62.9430 Y49.6768 Z0 F720  ; pen is down, draw line segment
G01 X62.5619 Y49.3344 Z0 F720  ; pen is down, draw line segment
G01 X62.1087 Y48.9638 Z0 F720  ; pen is down, draw line segment
G01 X61.6377 Y48.6162 Z0 F720  ; pen is down, draw line segment
G01 X61.1501 Y48.2922 Z0 F720  ; pen is down, draw line segment
G01 X60.7090 Y48.0303 Z0 F720  ; pen is down, draw line segment
G01 X60.1899 Y47.7550 Z0 F720  ; pen is down, draw line segment
G01 X59.6592 Y47.5028 Z0 F720  ; pen is down, draw line segment
G01 X59.1179 Y47.2742 Z0 F720  ; pen is down, draw line segment
G01 X58.5672 Y47.0696 Z0 F720  ; pen is down, draw line segment
G01 X58.0079 Y46.8895 Z0 F720  ; pen is down, draw line segment
G01 X57.4413 Y46.7341 Z0 F720  ; pen is down, draw line segment
G01 X56.8683 Y46.6038 Z0 F720  ; pen is down, draw line segment
G01 X56.2902 Y46.4989 Z0 F720  ; pen is down, draw line segment
G01 X55.6405 Y46.4080 Z0 F720  ; pen is down, draw line segment
G01 X54.3344 Y46.2848 Z0 F720  ; pen is down, draw line segment
G01 X53.0232 Y46.2399 Z0 F720  ; pen is down, draw line segment
G01 X51.7117 Y46.2733 Z0 F720  ; pen is down, draw line segment
G01 X50.2552 Y46.3791 Z0 F720  ; pen is down, draw line segment
G01 X48.5089 Y46.5688 Z0 F720  ; pen is down, draw line segment
G01 X46.6722 Y46.8274 Z0 F720  ; pen is down, draw line segment
G01 X43.1973 Y47.3652 Z0 F720  ; pen is down, draw line segment
G01 X40.8770 Y47.6574 Z0 F720  ; pen is down, draw line segment
G01 X39.7778 Y47.7440 Z0 F720  ; pen is down, draw line segment
G01 X38.7495 Y47.7852 Z0 F720  ; pen is down, draw line segment
G01 X37.5733 Y47.7856 Z0 F720  ; pen is down, draw line segment
G01 X36.7662 Y47.7452 Z0 F720  ; pen is down, draw line segment
G01 X36.2547 Y47.6923 Z0 F720  ; pen is down, draw line segment
G01 X35.7457 Y47.6185 Z0 F720  ; pen is down, draw line segment
G01 X35.2403 Y47.5237 Z0 F720  ; pen is down, draw line segment
G01 X34.7391 Y47.4081 Z0 F720  ; pen is down, draw line segment
G01 X34.2432 Y47.2720 Z0 F720  ; pen is down, draw line segment
G01 X33.6838 Y47.0916 Z0 F720  ; pen is down, draw line segment
G01 X33.1336 Y46.8850 Z0 F720  ; pen is down, draw line segment
G01 X32.7981 Y46.7358 Z0 F720  ; pen is down, draw line segment
G01 X32.3371 Y46.5087 Z0 F720  ; pen is down, draw line segment
G01 X31.8870 Y46.2606 Z0 F720  ; pen is down, draw line segment
G01 X31.4488 Y45.9921 Z0 F720  ; pen is down, draw line segment
G01 X31.0251 Y45.7052 Z0 F720  ; pen is down, draw line segment
G01 X30.2196 Y45.0813 Z0 F720  ; pen is down, draw line segment
G01 X29.8303 Y44.7464 Z0 F720  ; pen is down, draw line segment
G01 X29.3417 Y44.2937 Z0 F720  ; pen is down, draw line segment
G01 X29.6559 Y44.7906 Z0 F720  ; pen is down, draw line segment
G01 X29.9543 Y45.2097 Z0 F720  ; pen is down, draw line segment
G01 X30.2737 Y45.6131 Z0 F720  ; pen is down, draw line segment
G01 X30.6132 Y45.9996 Z0 F720  ; pen is down, draw line segment
G01 X31.0248 Y46.4195 Z0 F720  ; pen is down, draw line segment
G01 X31.4045 Y46.7666 Z0 F720  ; pen is down, draw line segment
G01 X31.8595 Y47.1389 Z0 F720  ; pen is down, draw line segment
G01 X32.2749 Y47.4425 Z0 F720  ; pen is down, draw line segment
G01 X32.7052 Y47.7245 Z0 F720  ; pen is down, draw line segment
G01 X33.1507 Y47.9740 Z0 F720  ; pen is down, draw line segment
G01 X33.6724 Y48.2354 Z0 F720  ; pen is down, draw line segment
G01 X34.2063 Y48.4709 Z0 F720  ; pen is down, draw line segment
G01 X34.7512 Y48.6798 Z0 F720  ; pen is down, draw line segment
G01 X35.3057 Y48.8617 Z0 F720  ; pen is down, draw line segment
G01 X35.7977 Y48.9983 Z0 F720  ; pen is down, draw line segment
G01 X36.3665 Y49.1283 Z0 F720  ; pen is down, draw line segment
G01 X36.8690 Y49.2191 Z0 F720  ; pen is down, draw line segment
G01 X37.3750 Y49.2881 Z0 F720  ; pen is down, draw line segment
G01 X38.0990 Y49.3606 Z0 F720  ; pen is down, draw line segment
G01 X38.7523 Y49.4059 Z0 F720  ; pen is down, draw line segment
G01 X39.9886 Y49.4400 Z0 F720  ; pen is down, draw line segment
G01 X41.2977 Y49.4025 Z0 F720  ; pen is down, draw line segment
G01 X42.8394 Y49.2735 Z0 F720  ; pen is down, draw line segment
G01 X44.6187 Y49.0652 Z0 F720  ; pen is down, draw line segment
G01 X49.6333 Y48.3329 Z0 F720  ; pen is down, draw line segment
G01 X50.7457 Y48.1934 Z0 F720  ; pen is down, draw line segment
G01 X52.0660 Y48.0520 Z0 F720  ; pen is down, draw line segment
G01 X53.1635 Y47.9732 Z0 F720  ; pen is down, draw line segment
G01 X54.1900 Y47.9421 Z0 F720  ; pen is down, draw line segment
G01 X55.2902 Y47.9544 Z0 F720  ; pen is down, draw line segment
G01 X56.3141 Y48.0092 Z0 F720  ; pen is down, draw line segment
G01 X56.8935 Y48.0674 Z0 F720  ; pen is down, draw line segment
G01 X57.4701 Y48.1490 Z0 F720  ; pen is down, draw line segment
G01 X58.0430 Y48.2539 Z0 F720  ; pen is down, draw line segment
G01 X58.5404 Y48.3645 Z0 F720  ; pen is down, draw line segment
G01 X59.0336 Y48.4927 Z0 F720  ; pen is down, draw line segment
G01 X59.5913 Y48.6605 Z0 F720  ; pen is down, draw line segment
G01 X60.1417 Y48.8506 Z0 F720  ; pen is down, draw line segment
G01 X60.6187 Y49.0369 Z0 F720  ; pen is down, draw line segment
G01 X61.1607 Y49.2765 Z0 F720  ; pen is down, draw line segment
G01 X61.6919 Y49.5392 Z0 F720  ; pen is down, draw line segment
G01 X62.2112 Y49.8245 Z0 F720  ; pen is down, draw line segment
G01 X62.7781 Y50.1628 Z0 F720  ; pen is down, draw line segment
G01 X63.8565 Y50.9214 Z0 F720  ; pen is down, draw line segment
G01 X64.4388 Y51.3780 Z0 F720  ; pen is down, draw line segment
G00 X64.4388 Y51.3780 Z2 F500 ; lift up pen

;Begin line layer=0 lines_idx=1
G00 X29.8515 Y44.8981 Z2 F2100 ; pen is up, move pen to start of line segment at 2100 mm/min
G01 X29.8515 Y44.8981 Z0 F210  ; lower pen slowly
G01 X30.6144 Y45.5257 Z0 F720  ; pen is down, draw line segment
G01 X31.3949 Y46.0764 Z0 F720  ; pen is down, draw line segment
G01 X31.7731 Y46.3098 Z0 F720  ; pen is down, draw line segment
G01 X32.2250 Y46.5627 Z0 F720  ; pen is down, draw line segment
G01 X32.6886 Y46.7950 Z0 F720  ; pen is down, draw line segment
G01 X33.0942 Y46.9769 Z0 F720  ; pen is down, draw line segment
G01 X34.0026 Y47.3029 Z0 F720  ; pen is down, draw line segment
G01 X34.4994 Y47.4487 Z0 F720  ; pen is down, draw line segment
G01 X35.0024 Y47.5741 Z0 F720  ; pen is down, draw line segment
G01 X35.5102 Y47.6787 Z0 F720  ; pen is down, draw line segment
G01 X36.0218 Y47.7622 Z0 F720  ; pen is down, draw line segment
G01 X36.9793 Y47.8611 Z0 F720  ; pen is down, draw line segment
G01 X37.8662 Y47.8902 Z0 F720  ; pen is down, draw line segment
G01 X38.8993 Y47.8816 Z0 F720  ; pen is down, draw line segment
G01 X39.9310 Y47.8347 Z0 F720  ; pen is down, draw line segment
G01 X40.9604 Y47.7496 Z0 F720  ; pen is down, draw line segment
G01 X43.2115 Y47.4642 Z0 F720  ; pen is down, draw line segment
G01 X46.6869 Y46.9263 Z0 F720  ; pen is down, draw line segment
G01 X48.3743 Y46.6871 Z0 F720  ; pen is down, draw line segment
G01 X49.9030 Y46.5136 Z0 F720  ; pen is down, draw line segment
G01 X51.2077 Y46.4042 Z0 F720  ; pen is down, draw line segment
G01 X52.5874 Y46.3423 Z0 F720  ; pen is down, draw line segment
G01 X53.8933 Y46.3610 Z0 F720  ; pen is down, draw line segment
G01 X55.1956 Y46.4577 Z0 F720  ; pen is down, draw line segment
G01 X55.8440 Y46.5353 Z0 F720  ; pen is down, draw line segment
G01 X56.4902 Y46.6338 Z0 F720  ; pen is down, draw line segment
G01 X57.0622 Y46.7474 Z0 F720  ; pen is down, draw line segment
G01 X57.5582 Y46.8674 Z0 F720  ; pen is down, draw line segment
G01 X58.1189 Y47.0277 Z0 F720  ; pen is down, draw line segment
G01 X58.6719 Y47.2126 Z0 F720  ; pen is down, draw line segment
G01 X59.2163 Y47.4217 Z0 F720  ; pen is down, draw line segment
G01 X59.7510 Y47.6544 Z0 F720  ; pen is down, draw line segment
G01 X60.2101 Y47.8772 Z0 F720  ; pen is down, draw line segment
G01 X60.7237 Y48.1533 Z0 F720  ; pen is down, draw line segment
G01 X61.1581 Y48.4157 Z0 F720  ; pen is down, draw line segment
G01 X61.5804 Y48.6981 Z0 F720  ; pen is down, draw line segment
G01 X61.9899 Y48.9985 Z0 F720  ; pen is down, draw line segment
G01 X62.3861 Y49.3163 Z0 F720  ; pen is down, draw line segment
G01 X62.7681 Y49.6511 Z0 F720  ; pen is down, draw line segment
G01 X63.1864 Y50.0535 Z0 F720  ; pen is down, draw line segment
G01 X63.5358 Y50.4222 Z0 F720  ; pen is down, draw line segment
G01 X63.8707 Y50.8080 Z0 F720  ; pen is down, draw line segment
G01 X62.8944 Y50.1177 Z0 F720  ; pen is down, draw line segment
G01 X62.0668 Y49.6276 Z0 F720  ; pen is down, draw line segment
G01 X61.1357 Y49.1546 Z0 F720  ; pen is down, draw line segment
G01 X60.2452 Y48.7824 Z0 F720  ; pen is down, draw line segment
G01 X59.7610 Y48.6110 Z0 F720  ; pen is down, draw line segment
G01 X59.2017 Y48.4366 Z0 F720  ; pen is down, draw line segment
G01 X58.2067 Y48.1860 Z0 F720  ; pen is down, draw line segment
G01 X57.6310 Y48.0746 Z0 F720  ; pen is down, draw line segment
G01 X57.1239 Y47.9962 Z0 F720  ; pen is down, draw line segment
G01 X56.1025 Y47.8936 Z0 F720  ; pen is down, draw line segment
G01 X55.0727 Y47.8482 Z0 F720  ; pen is down, draw line segment
G01 X54.0418 Y47.8440 Z0 F720  ; pen is down, draw line segment
G01 X53.0112 Y47.8811 Z0 F720  ; pen is down, draw line segment
G01 X51.9835 Y47.9593 Z0 F720  ; pen is down, draw line segment
G01 X50.6602 Y48.1026 Z0 F720  ; pen is down, draw line segment
G01 X49.6199 Y48.2339 Z0 F720  ; pen is down, draw line segment
G01 X44.6054 Y48.9661 Z0 F720  ; pen is down, draw line segment
G01 X42.9037 Y49.1664 Z0 F720  ; pen is down, draw line segment
G01 X41.3643 Y49.2984 Z0 F720  ; pen is down, draw line segment
G01 X40.1335 Y49.3395 Z0 F720  ; pen is down, draw line segment
G01 X38.9748 Y49.3169 Z0 F720  ; pen is down, draw line segment
G01 X37.7466 Y49.2277 Z0 F720  ; pen is down, draw line segment
G01 X36.7419 Y49.0968 Z0 F720  ; pen is down, draw line segment
G01 X36.2448 Y49.0007 Z0 F720  ; pen is down, draw line segment
G01 X35.6824 Y48.8648 Z0 F720  ; pen is down, draw line segment
G01 X35.1962 Y48.7234 Z0 F720  ; pen is down, draw line segment
G01 X34.7166 Y48.5612 Z0 F720  ; pen is down, draw line segment
G01 X34.2444 Y48.3784 Z0 F720  ; pen is down, draw line segment
G01 X33.7150 Y48.1450 Z0 F720  ; pen is down, draw line segment
G01 X33.2616 Y47.9195 Z0 F720  ; pen is down, draw line segment
G01 X32.7569 Y47.6389 Z0 F720  ; pen is down, draw line segment
G01 X32.3318 Y47.3603 Z0 F720  ; pen is down, draw line segment
G01 X31.9206 Y47.0597 Z0 F720  ; pen is down, draw line segment
G01 X31.5252 Y46.7386 Z0 F720  ; pen is down, draw line segment
G01 X31.1468 Y46.3977 Z0 F720  ; pen is down, draw line segment
G01 X30.7862 Y46.0379 Z0 F720  ; pen is down, draw line segment
G01 X30.4445 Y45.6601 Z0 F720  ; pen is down, draw line segment
G01 X30.1225 Y45.2654 Z0 F720  ; pen is down, draw line segment
G01 X29.8515 Y44.8981 Z0 F720  ; pen is down, draw line segment
G00 X29.8515 Y44.8981 Z2 F500 ; lift up pen

;Begin line layer=0 lines_idx=2
G00 X30.4814 Y45.5493 Z2 F2100 ; pen is up, move pen to start of line segment at 2100 mm/min
G01 X30.4814 Y45.5493 Z0 F210  ; lower pen slowly
G01 X31.2156 Y46.0786 Z0 F720  ; pen is down, draw line segment
G01 X31.9811 Y46.5441 Z0 F720  ; pen is down, draw line segment
G01 X32.7824 Y46.9488 Z0 F720  ; pen is down, draw line segment
G01 X33.0595 Y47.0708 Z0 F720  ; pen is down, draw line segment
G01 X33.5470 Y47.2554 Z0 F720  ; pen is down, draw line segment
G01 X34.4730 Y47.5452 Z0 F720  ; pen is down, draw line segment
G01 X35.3463 Y47.7492 Z0 F720  ; pen is down, draw line segment
G01 X36.3044 Y47.8998 Z0 F720  ; pen is down, draw line segment
G01 X37.2707 Y47.9767 Z0 F720  ; pen is down, draw line segment
G01 X38.2353 Y47.9915 Z0 F720  ; pen is down, draw line segment
G01 X39.1977 Y47.9721 Z0 F720  ; pen is down, draw line segment
G01 X40.1588 Y47.9194 Z0 F720  ; pen is down, draw line segment
G01 X41.1174 Y47.8337 Z0 F720  ; pen is down, draw line segment
G01 X43.2978 Y47.5528 Z0 F720  ; pen is down, draw line segment
G01 X46.7017 Y47.0252 Z0 F720  ; pen is down, draw line segment
G01 X48.3138 Y46.7960 Z0 F720  ; pen is down, draw line segment
G01 X49.7688 Y46.6277 Z0 F720  ; pen is down, draw line segment
G01 X50.9966 Y46.5186 Z0 F720  ; pen is down, draw line segment
G01 X52.3001 Y46.4487 Z0 F720  ; pen is down, draw line segment
G01 X53.5279 Y46.4479 Z0 F720  ; pen is down, draw line segment
G01 X54.7537 Y46.5165 Z0 F720  ; pen is down, draw line segment
G01 X55.9737 Y46.6541 Z0 F720  ; pen is down, draw line segment
G01 X56.5442 Y46.7450 Z0 F720  ; pen is down, draw line segment
G01 X57.0406 Y46.8450 Z0 F720  ; pen is down, draw line segment
G01 X58.0201 Y47.1020 Z0 F720  ; pen is down, draw line segment
G01 X58.5700 Y47.2825 Z0 F720  ; pen is down, draw line segment
G01 X59.0442 Y47.4601 Z0 F720  ; pen is down, draw line segment
G01 X59.5774 Y47.6853 Z0 F720  ; pen is down, draw line segment
G01 X60.0354 Y47.9014 Z0 F720  ; pen is down, draw line segment
G01 X60.8598 Y48.3482 Z0 F720  ; pen is down, draw line segment
G01 X61.2852 Y48.6177 Z0 F720  ; pen is down, draw line segment
G01 X61.6986 Y48.9054 Z0 F720  ; pen is down, draw line segment
G01 X62.0991 Y49.2108 Z0 F720  ; pen is down, draw line segment
G01 X62.4859 Y49.5332 Z0 F720  ; pen is down, draw line segment
G01 X62.8584 Y49.8720 Z0 F720  ; pen is down, draw line segment
G01 X63.2007 Y50.2111 Z0 F720  ; pen is down, draw line segment
G01 X62.9459 Y50.0320 Z0 F720  ; pen is down, draw line segment
G01 X62.3118 Y49.6517 Z0 F720  ; pen is down, draw line segment
G01 X61.4495 Y49.1928 Z0 F720  ; pen is down, draw line segment
G01 X60.5565 Y48.7953 Z0 F720  ; pen is down, draw line segment
G01 X59.6522 Y48.4700 Z0 F720  ; pen is down, draw line segment
G01 X58.6587 Y48.1875 Z0 F720  ; pen is down, draw line segment
G01 X57.6480 Y47.9760 Z0 F720  ; pen is down, draw line segment
G01 X56.6246 Y47.8364 Z0 F720  ; pen is down, draw line segment
G01 X55.5924 Y47.7659 Z0 F720  ; pen is down, draw line segment
G01 X54.7051 Y47.7420 Z0 F720  ; pen is down, draw line segment
G01 X53.7441 Y47.7505 Z0 F720  ; pen is down, draw line segment
G01 X52.7842 Y47.7946 Z0 F720  ; pen is down, draw line segment
G01 X51.8269 Y47.8743 Z0 F720  ; pen is down, draw line segment
G01 X49.6062 Y48.1348 Z0 F720  ; pen is down, draw line segment
G01 X44.5921 Y48.8670 Z0 F720  ; pen is down, draw line segment
G01 X42.9676 Y49.0593 Z0 F720  ; pen is down, draw line segment
G01 X41.5741 Y49.1844 Z0 F720  ; pen is down, draw line segment
G01 X40.4935 Y49.2344 Z0 F720  ; pen is down, draw line segment
G01 X39.3397 Y49.2304 Z0 F720  ; pen is down, draw line segment
G01 X38.1876 Y49.1672 Z0 F720  ; pen is down, draw line segment
G01 X37.1131 Y49.0532 Z0 F720  ; pen is down, draw line segment
G01 X36.6176 Y48.9732 Z0 F720  ; pen is down, draw line segment
G01 X36.1259 Y48.8718 Z0 F720  ; pen is down, draw line segment
G01 X35.6390 Y48.7495 Z0 F720  ; pen is down, draw line segment
G01 X35.1579 Y48.6063 Z0 F720  ; pen is down, draw line segment
G01 X34.6161 Y48.4174 Z0 F720  ; pen is down, draw line segment
G01 X34.1502 Y48.2305 Z0 F720  ; pen is down, draw line segment
G01 X33.6928 Y48.0237 Z0 F720  ; pen is down, draw line segment
G01 X33.2447 Y47.7975 Z0 F720  ; pen is down, draw line segment
G01 X32.8087 Y47.5533 Z0 F720  ; pen is down, draw line segment
